liuchen18/hilsys_old/sim_sys/data/fwx_planned_trajectory_he.txt
this is the FWX joint values,the following info is time,x,y,theta,joint1,joint2,joint3,joint4,joint5,joint6,joint7
0.0 2.13614390994 -0.110431977397 -3.5361784624 2.89568222822 0.269159369632 0.758311948413 -1.23237875477 -2.15005244839 -0.347670105526 0.101810289912
0.0751103465042 2.13403987535 -0.110398960768 -3.53598286475 2.89607342351 0.26939899201 0.757860224938 -1.23204536232 -2.15062820885 -0.347444122605 0.10230217292
0.133201423412 2.13193582406 -0.110366259116 -3.53578744052 2.89646427198 0.26963922649 0.757407945863 -1.23171105512 -2.15120364837 -0.347219606472 0.102793744494
0.182743112756 2.12983175648 -0.110333870673 -3.53559218847 2.89685477607 0.269880071446 0.756955112935 -1.23137583416 -2.15177876651 -0.346996550371 0.103285005639
0.226709178957 2.12772767303 -0.110301793672 -3.5353971074 2.8972449382 0.270121525247 0.756501727894 -1.23103970045 -2.15235356282 -0.346774947582 0.103775957378
0.266909398873 2.1256235741 -0.110270026356 -3.5352021961 2.89763476081 0.27036358626 0.756047792473 -1.23070265499 -2.15292803687 -0.346554791416 0.10426660074
0.30403389503 2.12351946012 -0.110238566969 -3.53500745336 2.89802424629 0.270606252851 0.755593308399 -1.23036469879 -2.15350218823 -0.346336075218 0.104756936763
0.339006786581 2.1214153498 -0.110207401386 -3.53481284873 2.89841345555 0.270849620128 0.755138365418 -1.23002574493 -2.1540759782 -0.346118610143 0.105246784207
0.371626872393 2.11931122416 -0.110176541599 -3.53461841249 2.89880232804 0.271093584831 0.75468287241 -1.22968588661 -2.15464943991 -0.345902583845 0.105736346788
0.402663969667 2.11720708464 -0.110145984478 -3.53442414124 2.89919087053 0.271338150013 0.754226835699 -1.22934512066 -2.15522257762 -0.345687977876 0.106225605281
0.432490201059 2.11510293164 -0.110115728287 -3.53423003383 2.89957908536 0.271583314034 0.753770256987 -1.2290034481 -2.15579539092 -0.34547478571 0.106714560768
0.461152802313 2.11299876553 -0.110085771299 -3.53403608907 2.89996697487 0.271829075253 0.753313137972 -1.22866086997 -2.15636787943 -0.345263000849 0.107203214335
0.488972607669 2.11089458671 -0.110056111788 -3.53384230581 2.90035454139 0.272075432025 0.752855480344 -1.2283173873 -2.15694004275 -0.345052616832 0.107691567084
0.515974394892 2.10879039555 -0.110026748036 -3.5336486829 2.90074178721 0.272322382706 0.752397285787 -1.22797300113 -2.15751188051 -0.344843627226 0.108179620119
0.542182200473 2.10668619348 -0.109997676926 -3.533455217 2.90112871902 0.272569930299 0.751938560562 -1.22762770833 -2.15808339701 -0.344636013793 0.108667354431
0.567619390557 2.10458197878 -0.10996889956 -3.53326191135 2.90151533031 0.272818063863 0.751479297166 -1.22728151827 -2.15865458252 -0.344429793858 0.109154811371
0.59255549984 2.10247775287 -0.109940412826 -3.53306876263 2.90190162776 0.273066786395 0.751019501859 -1.22693442784 -2.15922544136 -0.344224949228 0.109641971975
0.617000395756 2.10037351611 -0.109912215025 -3.53287576971 2.9022876136 0.273316096246 0.750559176302 -1.22658643811 -2.15979597317 -0.344021473595 0.110128837384
0.640963751038 2.09826926888 -0.109884304464 -3.53268293147 2.90267329008 0.273565991766 0.750098322151 -1.22623755012 -2.16036617762 -0.343819360684 0.110615408748
0.664455045099 2.09616501153 -0.109856679454 -3.53249024679 2.90305865942 0.273816471304 0.749636941054 -1.22588776493 -2.16093605435 -0.343618604251 0.111101687225
0.687483575164 2.09406074441 -0.109829338312 -3.53229771458 2.90344372384 0.274067533209 0.749175034655 -1.22553708362 -2.16150560302 -0.343419198081 0.111587673982
0.710058442363 2.09195646893 -0.109802277944 -3.53210533154 2.90382848993 0.274319180425 0.748712609151 -1.22518550311 -2.16207482803 -0.343221124196 0.112073350257
0.731969490462 2.08985218335 -0.109775499514 -3.53191310096 2.90421295108 0.274571402108 0.748249657046 -1.22483303273 -2.1626437196 -0.343024400056 0.112558757077
0.753663687217 2.08774788907 -0.109748999934 -3.53172101957 2.90459711387 0.274824201197 0.747786184535 -1.22447966945 -2.16321228214 -0.342829007725 0.113043875721
0.775143175785 2.08564358643 -0.10972277754 -3.53152908628 2.90498098045 0.275077576039 0.74732219324 -1.22412541433 -2.16378051532 -0.34263494111 0.113528707386
0.796410077076 2.08353927577 -0.109696830675 -3.53133730003 2.90536455296 0.27533152498 0.746857684778 -1.22377026845 -2.16434841885 -0.342442194149 0.114013253272
0.817466491135 2.08143495743 -0.109671157687 -3.53114565973 2.90574783355 0.275586046365 0.746392660759 -1.22341423291 -2.16491599242 -0.342250760813 0.114497514595
0.838314499929 2.07933063175 -0.109645756929 -3.53095416435 2.90613082432 0.275841138538 0.745927122787 -1.2230573088 -2.16548323572 -0.3420606351 0.114981492564
0.858956150655 2.07722630008 -0.109620625329 -3.53076281062 2.90651353177 0.276096804393 0.745461076996 -1.22269949309 -2.1660501532 -0.341871799286 0.115465168659
0.879393503028 2.07512196071 -0.109595764114 -3.53057160189 2.90689594922 0.27635303318 0.744994515901 -1.22234079509 -2.16661673509 -0.341684270959 0.115948583579
0.899628566695 2.07301761498 -0.10957117022 -3.53038053494 2.90727808314 0.276609827787 0.744527445636 -1.2219812118 -2.16718298583 -0.341498032437 0.11643171884
0.919663341567 2.07091326322 -0.109546842019 -3.53018960871 2.90765993559 0.276867186559 0.744059867784 -1.22162074433 -2.16774890517 -0.341313077835 0.116914575683
0.939499805305 2.06880890575 -0.109522777891 -3.52999882219 2.90804150863 0.277125107841 0.743591783924 -1.22125939378 -2.16831449282 -0.341129401302 0.117397155356
0.959139918878 2.06670454289 -0.109498976219 -3.52980817436 2.90842280429 0.277383589976 0.743123195631 -1.22089716125 -2.1688797485 -0.340946997016 0.117879459112
0.978585622396 2.06460017495 -0.109475435393 -3.5296176642 2.90880382461 0.277642631309 0.742654104471 -1.22053404786 -2.16944467196 -0.340765859185 0.118361488211
0.997838829543 2.06249580328 -0.109452152366 -3.52942728852 2.90918457597 0.277902234684 0.742184516517 -1.22017005066 -2.17000926771 -0.340585970333 0.118843224355
1.01690145957 2.06039142613 -0.109429128427 -3.52923705069 2.90956505163 0.278162389449 0.741714424299 -1.2198051789 -2.17057352593 -0.340407348169 0.119324707917
1.0357753886 2.05828704482 -0.109406360533 -3.52904694754 2.90994525794 0.278423098445 0.741243833889 -1.21943942963 -2.17113745115 -0.340229975258 0.119805920635
1.05446248027 2.05618265967 -0.109383847096 -3.52885697806 2.91032519688 0.278684360017 0.740772746835 -1.21907280398 -2.17170104313 -0.340053845921 0.120286863792
1.07296458288 2.05407827098 -0.10936158653 -3.52866714129 2.91070487043 0.278946172512 0.740301164682 -1.21870530307 -2.17226430161 -0.339878954511 0.120767538669
1.09110214942 2.05197387903 -0.109339577257 -3.52847743625 2.91108428052 0.279208534275 0.739829088967 -1.21833692804 -2.17282722637 -0.33970529541 0.121247946564
1.10923974101 2.04986948414 -0.109317817702 -3.52828786196 2.91146342909 0.279471443654 0.739356521225 -1.21796768002 -2.17338981717 -0.339532863024 0.121728088764
1.12737734649 2.04776508761 -0.109296304843 -3.52809841528 2.91184232245 0.279734903445 0.738883467467 -1.21759755611 -2.17395207857 -0.339361640129 0.12220794719
1.14551498119 2.04566068768 -0.109275040029 -3.52790909963 2.91222095375 0.2799989031 0.738409920241 -1.21722656551 -2.17451400073 -0.339191644541 0.122687561892
1.16365263396 2.04355628567 -0.109254020244 -3.52771991187 2.91259932928 0.280263445412 0.73793588556 -1.21685470534 -2.17507558824 -0.339022859069 0.123166914817
1.18179030203 2.04145188186 -0.109233243934 -3.52753085105 2.91297745091 0.280528528731 0.737461364938 -1.21648197674 -2.17563684088 -0.338855278237 0.123646007282
1.19992798401 2.03934747653 -0.109212709551 -3.52734191624 2.91335532053 0.280794151407 0.736986359887 -1.21610838086 -2.17619775844 -0.338688896592 0.124124840599
1.21806567573 2.03724306996 -0.109192415553 -3.52715310651 2.91373294 0.281060311791 0.736510871912 -1.21573391884 -2.17675834071 -0.338523708714 0.124603416094
1.23620337579 2.03513866242 -0.109172360402 -3.52696442093 2.91411031116 0.281327008235 0.736034902515 -1.21535859184 -2.17731858746 -0.338359709209 0.125081735089
1.25434107446 2.03303425521 -0.109152541102 -3.5267758564 2.91448744021 0.281594243494 0.735558457646 -1.21498239701 -2.17787850333 -0.338196881093 0.125559779704
1.27247878425 2.03092984656 -0.10913295906 -3.52658741638 2.91486432025 0.28186200712 0.735081529879 -1.21460534351 -2.17843807845 -0.338035242281 0.126037589665
1.29061649544 2.02882543775 -0.109113611286 -3.52639909777 2.91524095747 0.282130301865 0.734604125166 -1.2142274285 -2.17899731746 -0.337874775826 0.126515147125
1.30875420523 2.02672102906 -0.109094496262 -3.52621089968 2.91561735365 0.282399126085 0.73412624499 -1.21384865315 -2.17955622016 -0.337715476443 0.126992453423
1.32689191364 2.02461662074 -0.109075612478 -3.52602282121 2.91599351059 0.282668478137 0.733647890831 -1.21346901861 -2.18011478636 -0.337557338873 0.127469509901
1.34502961509 2.02251221305 -0.109056958427 -3.52583486147 2.91636943006 0.282938356379 0.733169064164 -1.21308852606 -2.18067301587 -0.337400357887 0.127946317906
1.36316730819 2.02040780625 -0.109038532609 -3.52564701959 2.91674511383 0.28320875917 0.73268976646 -1.21270717668 -2.1812309085 -0.337244528281 0.128422878784
1.38130498461 2.01830340162 -0.109020332052 -3.5254592925 2.917120568 0.283479689224 0.732210003612 -1.21232496764 -2.18178846895 -0.33708983331 0.128899174847
1.39944265686 2.01619899737 -0.109002358224 -3.5252716837 2.9174957856 0.283751136199 0.731729768219 -1.21194190807 -2.18234568728 -0.336936290982 0.129375245505
1.4175803138 2.01409459476 -0.108984608157 -3.52508419015 2.91787077272 0.284023102806 0.731249066176 -1.21155799519 -2.18290256821 -0.336783884585 0.129851073101
1.43571795545 2.01199019405 -0.108967080371 -3.52489681098 2.91824553106 0.28429558741 0.730767898936 -1.21117323018 -2.18345911155 -0.33663260902 0.130326658991
1.45385557902 2.00988579549 -0.108949773393 -3.52470954534 2.91862006234 0.284568588378 0.73028626795 -1.2107876142 -2.18401531714 -0.336482459218 0.13080200454
1.47199318172 2.0077813993 -0.108932685753 -3.52452239238 2.91899436824 0.284842104075 0.729804174665 -1.21040114846 -2.18457118481 -0.336333430133 0.131277111112
1.49013076218 2.00567700574 -0.108915815985 -3.52433535128 2.91936845045 0.285116132871 0.729321620522 -1.21001383413 -2.18512671439 -0.336185516747 0.131751980072
1.50826830786 2.00357261605 -0.108899161146 -3.52414841902 2.91974231497 0.285390677443 0.728838611357 -1.20962566845 -2.18568191062 -0.33603870255 0.132226593917
1.52640583686 2.00146822844 -0.108882722757 -3.52396159912 2.92011595477 0.285665727552 0.7283551398 -1.20923666051 -2.18623676354 -0.335893005628 0.132700991734
1.54454333665 1.99936384416 -0.10886649788 -3.52377488858 2.92048937585 0.285941285874 0.727871211688 -1.20884680756 -2.18679127789 -0.335748409507 0.133175156055
1.56268080724 1.99725946344 -0.108850485069 -3.52358828659 2.92086257982 0.286217350784 0.727386828448 -1.20845611079 -2.18734545354 -0.335604909267 0.133649088249
1.58081824305 1.9951550865 -0.108834682888 -3.52340179234 2.92123556833 0.286493920659 0.726901991502 -1.2080645714 -2.18789929031 -0.335462500019 0.134122789694
1.59895564549 1.99305071358 -0.108819089901 -3.52321540502 2.92160834296 0.286770993877 0.726416702271 -1.2076721906 -2.18845278807 -0.335321176898 0.134596261767
1.61709301177 1.99094634489 -0.108803704682 -3.52302912384 2.92198090533 0.287048568818 0.725930962169 -1.20727896957 -2.18900594667 -0.335180935065 0.135069505847
1.63523032937 1.98884198167 -0.108788524311 -3.52284294583 2.92235326135 0.287326648125 0.725444776976 -1.20688490561 -2.18955877088 -0.335041758238 0.135542504606
1.65336761637 1.98673762211 -0.108773550366 -3.52265687454 2.92272540393 0.287605221664 0.724958139356 -1.20649000776 -2.19011125071 -0.334903664579 0.136015296818
1.67150486165 1.98463326744 -0.108758779933 -3.52247090703 2.92309733896 0.287884292077 0.724471055089 -1.2060942733 -2.19066339096 -0.334766637838 0.136487865182
1.68964206243 1.98252891788 -0.108744211606 -3.52228504251 2.923469068 0.288163857752 0.723983525577 -1.20569770345 -2.19121519149 -0.334630673275 0.136960211083
1.70777921731 1.98042457364 -0.108729843981 -3.52209928021 2.92384059258 0.288443917077 0.723495552217 -1.20530029943 -2.19176665216 -0.334495766174 0.137432335909
1.72591632491 1.97832023493 -0.10871567566 -3.52191361938 2.92421191425 0.288724468445 0.723007136403 -1.20490206244 -2.19231777285 -0.334361911844 0.137904241043
1.74405338244 1.97621590195 -0.108701705252 -3.52172805925 2.9245830345 0.289005510248 0.722518279526 -1.2045029937 -2.19286855341 -0.334229105617 0.138375927874
1.76219038016 1.97411157591 -0.108687929863 -3.52154259691 2.92495395919 0.289287045096 0.722028987311 -1.20410309054 -2.19341899868 -0.334097331439 0.138847379237
1.78032733339 1.97200725501 -0.108674351126 -3.52135723594 2.92532468114 0.289569062963 0.721539252457 -1.20370236195 -2.19396909861 -0.333966607535 0.139318633598
1.79846423376 1.96990294045 -0.108660966153 -3.52117197342 2.92569520617 0.289851566457 0.72104908069 -1.20330080526 -2.19451885805 -0.333836917882 0.139789673825
1.81660107572 1.96779863244 -0.108647773573 -3.52098680863 2.92606553575 0.290134553981 0.720558473388 -1.20289842171 -2.19506827687 -0.333708257905 0.140260501302
1.83473786066 1.96569433117 -0.108634772017 -3.52080174083 2.92643567135 0.290418023938 0.720067431924 -1.20249521252 -2.19561735496 -0.333580623059 0.140731117421
1.8528745858 1.96359003683 -0.108621960124 -3.5206167693 2.92680561442 0.290701974733 0.71957595767 -1.20209117891 -2.19616609219 -0.333454008821 0.141201523575
1.87101124835 1.96148574961 -0.108609336537 -3.52043189331 2.92717536639 0.290986404776 0.719084051993 -1.20168632212 -2.19671448844 -0.33332841069 0.141671721153
1.88914783998 1.95938147071 -0.10859689839 -3.52024711 2.92754493301 0.291271316644 0.718591720563 -1.20128063951 -2.19726254858 -0.33320381283 0.142141693149
1.90728437597 1.95727719831 -0.108584647367 -3.52006242297 2.92791430707 0.291556700419 0.718098956119 -1.20087414002 -2.19781026254 -0.333080233528 0.142611477724
1.92542084521 1.9551729336 -0.108572580607 -3.51987782936 2.92828349429 0.291842558679 0.717605764334 -1.20046682105 -2.19835763519 -0.332957656975 0.143081057897
1.94355724769 1.95306867677 -0.108560696773 -3.51969332847 2.92865249606 0.29212888984 0.717112146563 -1.20005868382 -2.19890466643 -0.332836078764 0.143550435061
1.96169357924 1.95096442799 -0.108548994534 -3.51950891961 2.92902131379 0.292415692324 0.716618104158 -1.19964972958 -2.19945135614 -0.332715494509 0.144019610604
1.97982984126 1.94886018745 -0.108537472561 -3.51932460209 2.92938994883 0.292702964552 0.716123638468 -1.19923995955 -2.19999770421 -0.332595899851 0.14448858592
1.99796602956 1.94675595532 -0.108526129532 -3.51914037523 2.92975840255 0.292990704947 0.715628750838 -1.19882937499 -2.20054371056 -0.33247729045 0.1449573624
2.01610213581 1.94465173277 -0.108514962609 -3.5189562362 2.93012668061 0.29327891606 0.715133446888 -1.1984179733 -2.20108938006 -0.332359650687 0.145425923187
2.03423817391 1.94254751799 -0.108503973526 -3.51877218863 2.93049477575 0.29356758808 0.714637719396 -1.19800576339 -2.20163470261 -0.332242998895 0.145894306139
2.05237413691 1.94044331215 -0.10849315945 -3.51858822971 2.9308626936 0.293856723555 0.714141573983 -1.19759274266 -2.20217968313 -0.332127319483 0.146362494425
2.07051002064 1.93833911541 -0.108482519077 -3.51840435877 2.93123043548 0.294146320919 0.713645011985 -1.19717891239 -2.20272432151 -0.332012608198 0.146830489434
2.08864582371 1.93623492794 -0.10847205111 -3.51822057515 2.93159800271 0.29443637861 0.713148034731 -1.1967642738 -2.20326861766 -0.331898860815 0.147298292554
2.10678154611 1.93413074991 -0.108461754256 -3.51803687821 2.93196539659 0.294726895067 0.712650643552 -1.19634882815 -2.20381257149 -0.331786073129 0.147765905174
2.12491718645 1.93202658148 -0.108451627227 -3.5178532673 2.9323326184 0.295017868731 0.712152839772 -1.1959325767 -2.20435618289 -0.331674240956 0.14823332868
2.14305273223 1.9299224238 -0.108441667211 -3.51766973964 2.93269967374 0.295309302125 0.711654628959 -1.19551551688 -2.2048994568 -0.331563348886 0.14870054636
2.1611882029 1.92781827506 -0.108431875992 -3.51748629888 2.93306655526 0.295601185545 0.711156003936 -1.19509765757 -2.20544238308 -0.331453415298 0.149167595773
2.17932358595 1.92571413641 -0.108422250762 -3.51730294224 2.93343326853 0.295893521512 0.710656970273 -1.19467899621 -2.20598496666 -0.331344424807 0.14963446023
2.19745888 1.92361000799 -0.108412790254 -3.51711966911 2.9337998148 0.29618630848 0.710157529285 -1.19425953407 -2.20652720746 -0.331236373314 0.150101141114
2.21559408504 1.92150588996 -0.108403493202 -3.51693647885 2.93416619531 0.296479544903 0.709657682284 -1.19383927241 -2.2070691054 -0.331129256744 0.150567639809
2.23372919968 1.91940178249 -0.108394358348 -3.51675337086 2.93453241129 0.296773229238 0.70915743058 -1.19341821248 -2.20761066038 -0.331023071044 0.151033957694
2.25186422253 1.91729768571 -0.108385384438 -3.51657034452 2.93489846396 0.297067359947 0.708656775481 -1.19299635555 -2.20815187232 -0.330917812179 0.151500096151
2.26999914246 1.91519360076 -0.108376568686 -3.5163873971 2.93526435882 0.297361939525 0.708155722505 -1.19257369911 -2.20869274618 -0.330813464943 0.151966038598
2.28813397616 1.91308952582 -0.108367912925 -3.51620453227 2.93563008848 0.297656958376 0.707654264518 -1.19215025196 -2.20923327178 -0.330710047755 0.152431822309
2.3062687139 1.91098546202 -0.108359414372 -3.51602174729 2.93599565843 0.297952418996 0.707152407041 -1.19172601161 -2.2097734541 -0.330607545431 0.152897430725
2.32440335429 1.9088814095 -0.108351071794 -3.51583904158 2.93636106985 0.298248319856 0.706650151372 -1.19130097932 -2.21031329304 -0.330505954019 0.153362865221
2.34253789733 1.9067773684 -0.108342883959 -3.51565641455 2.9367263239 0.298544659432 0.706147498806 -1.19087515637 -2.21085278855 -0.330405269591 0.153828127171
2.36067233884 1.90467333888 -0.108334849641 -3.51547386563 2.93709142175 0.298841436199 0.705644450634 -1.19044854401 -2.21139194053 -0.330305488237 0.154293217946
2.37880668022 1.90256932105 -0.10832696762 -3.51529139423 2.93745636455 0.299138648637 0.705141008148 -1.19002114354 -2.21193074891 -0.330206606069 0.154758138918
2.39694091172 1.90046531605 -0.108319235137 -3.51510899765 2.93782115772 0.299436299221 0.704637176816 -1.18959295246 -2.21246921868 -0.330108608076 0.15522287363
2.41507504866 1.89836132203 -0.10831165407 -3.5149266796 2.93818579382 0.299734378456 0.704132949553 -1.18916397955 -2.21300733962 -0.330011512714 0.155687459074
2.4332090799 1.89625734013 -0.108304221664 -3.51474443737 2.93855027826 0.300032888818 0.70362833183 -1.18873422234 -2.21354511673 -0.329915304995 0.156151878819
2.45134300683 1.89415337046 -0.108296936717 -3.51456227043 2.93891461216 0.300331828797 0.703123324929 -1.18830368211 -2.21408254994 -0.329819981108 0.156616134223
2.46947682667 1.89204941316 -0.10828979803 -3.5143801782 2.93927879661 0.300631196887 0.702617930128 -1.18787236013 -2.21461963918 -0.329725537263 0.15708022665
2.48761053942 1.88994546836 -0.108282804412 -3.51419816015 2.93964283271 0.300930991586 0.702112148704 -1.1874402577 -2.21515638438 -0.329631969694 0.157544157461
2.5057441423 1.88784153618 -0.108275954674 -3.51401621574 2.94000672153 0.301231211393 0.701605981931 -1.18700737608 -2.21569278546 -0.329539274649 0.158007928014
2.52387762697 1.88573761773 -0.108269246082 -3.51383434229 2.94037046843 0.301531858759 0.70109943523 -1.18657371284 -2.21622884745 -0.329447437312 0.158471521975
2.54201101012 1.88363371118 -0.10826268056 -3.51365254354 2.94073406592 0.301832924297 0.700592501565 -1.1861392767 -2.21676456009 -0.329356476166 0.158934976052
2.56014428061 1.88152981761 -0.108256255379 -3.51347081684 2.94109751934 0.302134410459 0.700085186359 -1.18570406523 -2.2172999284 -0.329266376413 0.159398273934
2.57827743845 1.87942593715 -0.10824996937 -3.51328916164 2.94146082972 0.302436315756 0.69957749088 -1.18526807972 -2.21783495232 -0.32917713438 0.15986141697
2.59641048225 1.87732206993 -0.108243821367 -3.51310757745 2.94182399811 0.302738638703 0.69906941639 -1.18483132146 -2.21836963179 -0.329088746413 0.160324406505
2.61454341061 1.87521821605 -0.108237810208 -3.51292606374 2.94218702554 0.303041377817 0.698560964151 -1.18439379173 -2.21890396673 -0.329001208878 0.160787243888
2.63267622215 1.87311437563 -0.108231934737 -3.51274462 2.94254991301 0.30334453162 0.698052135422 -1.18395549182 -2.21943795709 -0.328914518159 0.161249930462
2.65080890992 1.87101054977 -0.108226192247 -3.51256324361 2.9429126658 0.303648102541 0.69754293558 -1.18351641933 -2.21997160792 -0.328828659626 0.161712450003
2.66894148781 1.86890673661 -0.108220584706 -3.51238193831 2.94327527638 0.303952081297 0.697033357637 -1.18307658295 -2.2205049089 -0.328743651786 0.162174838954
2.6870739461 1.86680293726 -0.10821510941 -3.5122007015 2.94363775002 0.304256470319 0.69652340697 -1.18263598026 -2.2210378651 -0.328659480027 0.16263708111
2.70520628478 1.86469915181 -0.108209765222 -3.51201953266 2.94400008768 0.30456126814 0.696013084832 -1.18219461258 -2.22157047646 -0.328576140807 0.163099177806
2.72333850247 1.86259538037 -0.108204551006 -3.51183843133 2.94436229035 0.304866473296 0.695502392473 -1.18175248119 -2.22210274291 -0.328493630603 0.163561130373
2.74147059916 1.86049162305 -0.108199465633 -3.51165739701 2.94472435899 0.305172084325 0.69499133114 -1.18130958739 -2.2226346644 -0.328411945908 0.164022940141
2.75960257207 1.85838787995 -0.108194507978 -3.51147642923 2.94508629455 0.305478099768 0.69447990208 -1.18086593248 -2.22316624086 -0.328331083237 0.164484608434
2.77773441425 1.85628415215 -0.108189675359 -3.51129552539 2.94544810223 0.30578452204 0.693968110624 -1.18042151409 -2.22369747738 -0.328251028139 0.164946119139
2.795866141 1.8541804378 -0.108184969788 -3.51111468928 2.94580977446 0.306091341955 0.693455949834 -1.17997634085 -2.2242283636 -0.328171799143 0.165407508427
2.81399774119 1.85207673798 -0.108180388585 -3.51093391829 2.94617131642 0.306398561928 0.692943425043 -1.17953041041 -2.22475890461 -0.328093381818 0.16586876021
2.83212921621 1.84997305278 -0.108175930643 -3.51075321199 2.94653272904 0.306706180512 0.692430537491 -1.17908372407 -2.22528910036 -0.328015772745 0.166329875795
2.85026056329 1.8478693823 -0.10817159486 -3.51057256989 2.94689401322 0.307014196264 0.691917288415 -1.17863628312 -2.22581895078 -0.327938968527 0.166790856499
2.8683917838 1.84576572664 -0.108167380135 -3.51039199157 2.94725516987 0.307322607746 0.69140367905 -1.17818808888 -2.22634845583 -0.327862965783 0.16725170363
2.88652287497 1.84366208589 -0.108163285376 -3.51021147656 2.94761619989 0.307631413519 0.69088971063 -1.17773914266 -2.22687761543 -0.327787761149 0.167712418499
2.90465382985 1.8415584611 -0.108159307924 -3.51003102231 2.94797710838 0.30794061598 0.690375388441 -1.1772894421 -2.22740643472 -0.327713340354 0.168172985088
2.92278466234 1.83945485044 -0.108155449833 -3.50985063263 2.94833788776 0.308250206045 0.689860705599 -1.17683899581 -2.22793490327 -0.32763972194 0.168633439317
2.94091536271 1.83735125496 -0.108151708449 -3.50967030494 2.94869854312 0.308560186109 0.689345667392 -1.17638780147 -2.22846302621 -0.32756689165 0.169093765187
2.95904593374 1.83524767475 -0.108148082695 -3.50949003884 2.94905907534 0.308870554749 0.688830275047 -1.17593586037 -2.22899080349 -0.327494846189 0.169553963993
2.97717637125 1.83314410989 -0.108144571497 -3.50930983388 2.94941948526 0.309181310543 0.688314529791 -1.17548317384 -2.22951823505 -0.327423582278 0.17001403703
2.99530667525 1.83104056048 -0.108141173788 -3.50912968964 2.94977977373 0.309492452075 0.687798432847 -1.17502974318 -2.23004532085 -0.327353096657 0.170473985589
3.01343684574 1.82893702659 -0.108137888503 -3.50894960572 2.95013994157 0.309803977927 0.687281985438 -1.17457556972 -2.23057206081 -0.32728338608 0.170933810952
3.03156687298 1.82683350927 -0.10813471301 -3.50876957958 2.95049999385 0.310115890481 0.686765192806 -1.17412065112 -2.23109846009 -0.327214436446 0.171393497204
3.04969677367 1.82473000667 -0.108131649401 -3.50858961505 2.95085992292 0.310428180751 0.68624804812 -1.17366499596 -2.23162450823 -0.32714626631 0.171853080008
3.06782653945 1.82262651985 -0.108128695047 -3.5084097096 2.95121973382 0.310740851115 0.685730556625 -1.17320860195 -2.23215021038 -0.327078861586 0.172312543462
3.08595616754 1.82052304886 -0.108125848902 -3.50822986283 2.95157942736 0.311053900174 0.685212719538 -1.17275147039 -2.2326755665 -0.327012219093 0.17277188884
3.10408565934 1.8184195938 -0.108123109922 -3.50805007434 2.95193900433 0.311367326526 0.684694538074 -1.17229360261 -2.23320057652 -0.326946335668 0.173231117411
3.12221501206 1.81631615474 -0.108120477068 -3.50787034375 2.95229846551 0.311681128777 0.684176013445 -1.17183499992 -2.2337252404 -0.326881208166 0.173690230448
3.1403442271 1.81421273175 -0.108117949304 -3.50769067066 2.95265781168 0.311995305534 0.683657146865 -1.17137566366 -2.23424955808 -0.326816833456 0.174149229212
3.15847329472 1.81210932586 -0.108115524023 -3.50751105259 2.95301704784 0.312309859161 0.683137943534 -1.17091559152 -2.23477353473 -0.326753197602 0.174608097873
3.17696662164 1.81000593523 -0.108113203357 -3.50733149336 2.95337616629 0.312624780769 0.682618396673 -1.17045479204 -2.23529715985 -0.326690319167 0.175066871852
3.19564473734 1.80790256089 -0.108110984702 -3.5071519905 2.95373517202 0.312940072723 0.682098511486 -1.16999326296 -2.23582043862 -0.326628184231 0.175525535336
3.21450948876 1.8057992029 -0.108108867038 -3.50697254362 2.95409406577 0.313255733643 0.68157828918 -1.16953100559 -2.23634337099 -0.326566789723 0.175984089574
3.23356273811 1.80369586134 -0.108106849352 -3.50679315237 2.95445284827 0.313571762152 0.68105773096 -1.16906802126 -2.23686595691 -0.326506132592 0.176442535813
3.25280636849 1.80159253626 -0.108104930632 -3.50661381637 2.95481152027 0.313888156877 0.680536838029 -1.16860431129 -2.23738819633 -0.326446209804 0.176900875304
3.27224228245 1.79948922774 -0.108103109874 -3.50643453527 2.95517008248 0.314204916448 0.68001561159 -1.16813987703 -2.23791008919 -0.326387018335 0.177359109282
3.2918723923 1.7973859368 -0.108101384491 -3.50625530659 2.95552853982 0.314522043213 0.679494056803 -1.1676747162 -2.2384316407 -0.326328544413 0.177817222005
3.31169865481 1.79528266158 -0.108099756657 -3.50607613422 2.95588688458 0.314839528379 0.678972166941 -1.1672088373 -2.2389528403 -0.326270806604 0.178275248651
3.33172301985 1.7931794031 -0.108098223788 -3.50589701567 2.95624512167 0.315157374298 0.67844994717 -1.1667422381 -2.2394736932 -0.326213791148 0.178733173492
3.35194746786 1.79107616143 -0.108096784896 -3.50571795062 2.95660325178 0.315475579611 0.677927398686 -1.16627491992 -2.23999419934 -0.326157495081 0.179190997756
3.37237399595 1.78897293662 -0.108095438993 -3.50553893871 2.95696127559 0.315794142965 0.677404522685 -1.16580688409 -2.24051435869 -0.326101915459 0.179648722661
3.39300462352 1.78686972873 -0.108094185099 -3.50535997961 2.95731919379 0.316113063007 0.676881320362 -1.16533813195 -2.2410341712 -0.326047049353 0.180106349434
3.41384138942 1.78476653781 -0.108093022234 -3.50518107299 2.95767700703 0.316432338389 0.676357792909 -1.16486866483 -2.2415536368 -0.325992893847 0.18056387929
3.43488634223 1.78266336488 -0.108091947837 -3.50500221641 2.95803472019 0.316751971448 0.675833945449 -1.1643984805 -2.24207276073 -0.32593943532 0.181021296562
3.456141582 1.78056020808 -0.108090964117 -3.50482341376 2.9583923255 0.317071953484 0.675309771308 -1.16392758743 -2.24259153239 -0.325886692345 0.1814786362
3.47760919905 1.77845706842 -0.108090068517 -3.50464466259 2.95874982782 0.317392286834 0.674785275611 -1.1634559834 -2.243109957 -0.325834651313 0.181935882549
3.49929131567 1.77635394595 -0.108089260073 -3.50446596261 2.95910722779 0.317712970163 0.674260459547 -1.16298366975 -2.24362803453 -0.325783309366 0.182393036814
3.52163023918 1.77425084072 -0.108088537827 -3.50428731348 2.95946452604 0.318034002139 0.673735324302 -1.16251064781 -2.24414576492 -0.325732663661 0.182850100193
3.54441798711 1.77214775278 -0.108087900824 -3.50410871491 2.9598217232 0.318355381432 0.673209871064 -1.16203691892 -2.24466314813 -0.325682711369 0.183307073881
3.56766357713 1.77004468218 -0.108087348115 -3.50393016657 2.96017881987 0.318677106717 0.672684101018 -1.16156248444 -2.2451801841 -0.325633449677 0.183763959069
3.59137619661 1.76794162991 -0.108086877159 -3.50375166607 2.96053582087 0.318999180317 0.672158019245 -1.16108734214 -2.24569687809 -0.325584865114 0.184220740165
3.61556524986 1.76583859413 -0.108086490204 -3.5035732173 2.9608927184 0.319321593625 0.671631619129 -1.16061150048 -2.24621321944 -0.325536976254 0.184677451893
3.64024029834 1.76373557582 -0.108086184712 -3.50339481788 2.96124951726 0.319644348965 0.671104905752 -1.16013495724 -2.24672921343 -0.325489769635 0.185134078671
3.66541110658 1.76163257502 -0.108085959749 -3.50321646749 2.96160621803 0.319967445023 0.670577880298 -1.15965771379 -2.24724485999 -0.3254432425 0.185590621682
3.69108763242 1.75952959179 -0.108085814383 -3.50303816585 2.9619628213 0.320290880491 0.670050543946 -1.15917977145 -2.24776015908 -0.325397392103 0.186047082092
3.71754196119 1.75742662617 -0.108085747687 -3.50285991268 2.96231932764 0.32061465406 0.669522897874 -1.15870113159 -2.24827511067 -0.325352215714 0.186503461074
3.74479765515 1.75532367818 -0.108085758737 -3.5026817077 2.96267573762 0.320938764428 0.668994943261 -1.15822179555 -2.24878971469 -0.325307710615 0.186959759791
3.77287897469 1.75322074883 -0.108085845017 -3.50250354852 2.96303205598 0.321263213906 0.66846668515 -1.15774176114 -2.24930397642 -0.325263863483 0.187415962721
3.80181095487 1.75111783625 -0.108086008807 -3.50232543906 2.96338827489 0.321587993976 0.667938116978 -1.15726103678 -2.24981788516 -0.325220692888 0.187872104369
3.83191743537 1.74901494142 -0.108086247595 -3.50214737696 2.9637443991 0.321913106952 0.667409243792 -1.15677962029 -2.25033144621 -0.325178185513 0.188328169224
3.86324609557 1.74691206439 -0.108086560471 -3.50196936194 2.96410042914 0.322238551541 0.666880066765 -1.15629751303 -2.25084465951 -0.325136338697 0.18878415844
3.89617255173 1.74480920519 -0.10808694653 -3.50179139373 2.96445636555 0.322564326456 0.666350587071 -1.15581471634 -2.25135752502 -0.325095149786 0.189240073157
3.93112435241 1.74270636385 -0.108087404871 -3.50161347208 2.96481220885 0.322890430413 0.665820805882 -1.15533123159 -2.25187004269 -0.325054616146 0.189695914519
3.96822607767 1.74060354041 -0.108087934597 -3.50143559673 2.96516795955 0.323216862129 0.665290724369 -1.15484706012 -2.25238221248 -0.32501473515 0.190151683665
4.0084015685 1.73850073583 -0.108088533213 -3.50125776532 2.96552362236 0.323543623906 0.664760347537 -1.15436219978 -2.25289403968 -0.324975493618 0.190607365137
4.05234055523 1.73639794827 -0.108089203035 -3.5010799818 2.96587918941 0.323870707314 0.664229668879 -1.15387665894 -2.25340551354 -0.324936910113 0.191062993225
4.10185168264 1.73429517869 -0.108089941571 -3.50090224381 2.96623466539 0.324198114653 0.663698693404 -1.15339043546 -2.25391663939 -0.324898971462 0.191518552488
4.16018152926 1.73219242713 -0.108090747938 -3.50072455112 2.96659005077 0.324525844656 0.66316742228 -1.15290353071 -2.25442741716 -0.32486167509 0.191974044047
4.23507034034 1.73008748307 -0.10809981108 -3.50051297901 2.9668 0.324860591177 0.662698363854 -1.15241960269 -2.25493274039 -0.32484417774 0.192405991376
4.33166042992 1.72797936892 -0.108120737032 -3.50025239851 2.9668 0.325205238469 0.662319289723 -1.15194037453 -2.25543037345 -0.324854810678 0.192803973372
4.39781878076 1.72587126997 -0.10814164823 -3.49999175323 2.9668 0.325549983848 0.661939908725 -1.15146072256 -2.25592771503 -0.324865759026 0.193201962282
4.45210514384 1.72376318915 -0.10816255061 -3.4997310582 2.9668 0.325894791026 0.661560182562 -1.15098067656 -2.25642478743 -0.324877077809 0.193599991933
4.49933192285 1.72165512385 -0.108183437164 -3.4994702961 2.9668 0.326239704442 0.661180160846 -1.15050019954 -2.25692155676 -0.324888695551 0.193998029244
4.54166206544 1.7195470754 -0.108204311249 -3.4992094766 2.9668 0.32658469941 0.660799817883 -1.15001931246 -2.25741804099 -0.324900649978 0.194396094023
4.58036589104 1.7174390438 -0.108225172528 -3.49894859978 2.9668 0.326929775634 0.660419154623 -1.14953801581 -2.25791424018 -0.3249129401 0.194794186722
4.61646536152 1.71533102903 -0.108246020667 -3.49868766572 2.9668 0.32727493282 0.660038172018 -1.1490563101 -2.25841015442 -0.324925564925 0.195192307784
4.65047242227 1.71322303109 -0.10826685533 -3.4984266745 2.9668 0.327620170675 0.659656871018 -1.14857419581 -2.25890578378 -0.324938523464 0.195590457653
4.68282871722 1.71111504997 -0.108287676184 -3.4981656262 2.9668 0.327965488906 0.659275252572 -1.14809167346 -2.25940112837 -0.324951814732 0.195988636768
4.7136143541 1.70900708702 -0.108308486618 -3.49790453051 2.9668 0.328310862929 0.658893290999 -1.14760876396 -2.25989620607 -0.324965476493 0.196386864857
4.74319853081 1.70689913951 -0.108329278856 -3.4976433683 2.9668 0.328656341081 0.65851104055 -1.14712542695 -2.26039098136 -0.324979430239 0.196785103793
4.771346636 1.7047912088 -0.108350056287 -3.49738214926 2.9668 0.329001898736 0.658128475496 -1.14664168339 -2.26088547211 -0.324993713774 0.197183373277
4.79866669151 1.70268329488 -0.108370818583 -3.49712087349 2.9668 0.329347535598 0.657745596778 -1.14615753378 -2.26137967838 -0.325008326133 0.19758167375
4.82518305649 1.70057539773 -0.108391565413 -3.49685954107 2.9668 0.329693251376 0.657362405339 -1.14567297863 -2.26187360027 -0.325023266348 0.197980005645
4.85091937523 1.69846751735 -0.108412296451 -3.4965981521 2.9668 0.330039045777 0.656978902118 -1.14518801845 -2.26236723784 -0.325038533456 0.198378369394
4.87614838536 1.69635965373 -0.108433011369 -3.49633670666 2.9668 0.33038491851 0.656595088056 -1.14470265376 -2.26286059118 -0.325054126495 0.198776765423
4.90088007251 1.69425180823 -0.10845371359 -3.49607521447 2.9668 0.330730845049 0.656210937438 -1.14421690547 -2.26335367812 -0.325070083307 0.199175213358
4.92512427075 1.69214397809 -0.108474395291 -3.49581365638 2.9668 0.331076873616 0.655826504549 -1.14373073325 -2.26384646326 -0.325086325303 0.199573675245
4.94889057353 1.69003616467 -0.108495059896 -3.49555204212 2.9668 0.331422979645 0.65544176363 -1.14324415806 -2.2643389644 -0.325102890361 0.19997217068
4.97218840186 1.68792836796 -0.10851570708 -3.49529037178 2.9668 0.331769162841 0.655056715613 -1.14275718041 -2.2648311816 -0.325119777543 0.200370700094
4.99502699038 1.68582058796 -0.108536336523 -3.49502864547 2.9668 0.332115422914 0.654671361429 -1.14226980082 -2.26532311494 -0.325136985904 0.200769263908
5.01741539154 1.68371282465 -0.108556947903 -3.49476686328 2.9668 0.332461759573 0.654285702011 -1.14178201981 -2.2658147645 -0.325154514504 0.201167862541
5.0391451806 1.68160507802 -0.108577540899 -3.49450502531 2.9668 0.332808172526 0.653899738286 -1.14129383791 -2.26630613035 -0.325172362405 0.201566496409
5.06065963842 1.67949734945 -0.108598118968 -3.49424314129 2.9668 0.333154637307 0.653513444511 -1.14080527604 -2.26679723026 -0.325190567527 0.201965185037
5.08196092762 1.67738963613 -0.108618674239 -3.4939811921 2.9668 0.333501202024 0.653126875005 -1.14031629389 -2.26728802894 -0.325209051194 0.202363890639
5.10305114687 1.67528193945 -0.108639210169 -3.49371918744 2.9668 0.333847842169 0.652740003976 -1.13982691241 -2.26777854413 -0.325227851366 0.202762632709
5.12393238785 1.6731742594 -0.108659726443 -3.49345712745 2.9668 0.334194557449 0.652352832348 -1.13933713214 -2.2682687759 -0.325246967125 0.203161411668
5.14460672003 1.67106659596 -0.108680222743 -3.49319501221 2.9668 0.334541347574 0.651965361043 -1.1388469536 -2.26875872432 -0.325266397549 0.203560227924
5.16507619477 1.66895894912 -0.108700698756 -3.49293284186 2.9668 0.334888212254 0.651577590983 -1.13835637733 -2.26924838945 -0.325286141722 0.203959081884
5.18534284257 1.66685131887 -0.108721154167 -3.4926706165 2.9668 0.335235151199 0.651189523088 -1.13786540385 -2.26973777136 -0.325306198729 0.204357973955
5.20540865919 1.6647437066 -0.108741592467 -3.49240834586 2.9668 0.335582140001 0.650801131584 -1.1373740541 -2.27022688776 -0.325326606563 0.204756923557
5.22527566122 1.66263610947 -0.108762005737 -3.49214601083 2.9668 0.335929226655 0.650412470821 -1.13688228779 -2.27071570349 -0.325347286469 0.205155893075
5.24494580685 1.66052852888 -0.108782397468 -3.49188362113 2.9668 0.33627638671 0.650023514981 -1.13639012588 -2.27120423621 -0.325368276479 0.205554901903
5.26442104453 1.65842096482 -0.108802767351 -3.49162117689 2.9668 0.336623619874 0.649634264974 -1.1358975689 -2.27169248599 -0.325389575698 0.205953950446
5.28370330742 1.65631341726 -0.108823115075 -3.49135867824 2.9668 0.336970925859 0.649244721716 -1.1354046174 -2.2721804529 -0.325411183228 0.206353039104
5.30279450781 1.6542058862 -0.108843440333 -3.49109612529 2.9668 0.337318304376 0.64885488612 -1.13491127192 -2.27266813699 -0.325433098174 0.206752168272
5.32169653852 1.65209837161 -0.108863742816 -3.49083351816 2.9668 0.337665755136 0.648464759096 -1.134417533 -2.27315553833 -0.325455319643 0.207151338344
5.3404112604 1.64999087492 -0.108884026047 -3.49057086661 2.9668 0.338013253789 0.648074314841 -1.13392342157 -2.27364267456 -0.325477885704 0.207550568638
5.35894055791 1.64788339323 -0.108904282064 -3.49030815152 2.9668 0.338360848215 0.647683607737 -1.13342889737 -2.27412951065 -0.325500717516 0.207949821712
5.37710461286 1.64577592797 -0.108924514388 -3.49004538263 2.9668 0.338708514023 0.647292611936 -1.13293398136 -2.2746160642 -0.325523853188 0.208349116853
5.39526852595 1.64366847912 -0.108944722716 -3.48978256007 2.9668 0.339056250922 0.64690132834 -1.13243867409 -2.27510233525 -0.325547291845 0.208748454458
5.41343229718 1.64156104666 -0.108964906746 -3.48951968398 2.9668 0.339404058625 0.646509757857 -1.13194297611 -2.27558832387 -0.325571032612 0.209147834914
5.43159592795 1.63945363058 -0.108985066175 -3.48925675449 2.9668 0.339751936842 0.646117901389 -1.13144688797 -2.27607403013 -0.325595074614 0.209547258605
5.44975941824 1.63734623084 -0.109005200701 -3.48899377173 2.9668 0.340099885288 0.645725759839 -1.13095041022 -2.27655945409 -0.32561941698 0.209946725913
5.46792275556 1.63523884891 -0.10902531388 -3.48873074547 2.9668 0.34044787967 0.645333307377 -1.13045356381 -2.27704461332 -0.325644097854 0.210346256056
5.48608596353 1.63313148183 -0.109045397704 -3.48846765658 2.9668 0.340795967752 0.644940598412 -1.12995630848 -2.2775294729 -0.32566903831 0.210745811758
5.50424903104 1.63102413105 -0.109065455725 -3.48820451483 2.9668 0.341144125204 0.64454760707 -1.12945866521 -2.27801405036 -0.32569427653 0.211145412206
5.52241195947 1.62891679654 -0.109085487649 -3.48794132035 2.9668 0.341492351736 0.644154334245 -1.12896063455 -2.27849834577 -0.325719811662 0.211545057787
5.54057474744 1.6268094783 -0.109105493178 -3.4876780733 2.9668 0.341840647059 0.643760780834 -1.12846221706 -2.27898235917 -0.325745642849 0.211944748873
5.55873739494 1.6247021763 -0.109125472016 -3.48741477381 2.9668 0.342189010887 0.643366947733 -1.1279634133 -2.27946609063 -0.325771769239 0.212344485839
5.57689990197 1.62259489051 -0.109145423868 -3.48715142203 2.9668 0.342537442935 0.642972835835 -1.12746422384 -2.27994954021 -0.325798189981 0.212744269055
5.59506225741 1.6204876224 -0.109165352319 -3.48688802772 2.9668 0.342885918968 0.642578419286 -1.12696466962 -2.28043272541 -0.325824943294 0.213144117638
5.61322448629 1.61838036899 -0.109185249319 -3.48662457178 2.9668 0.343234486637 0.642183752518 -1.12646471041 -2.28091561144 -0.325851950163 0.213543994479
5.63138657609 1.61627313174 -0.109205118453 -3.48636106398 2.9668 0.343583121668 0.641788809633 -1.12596436719 -2.28139821576 -0.325879248846 0.213943918666
5.64954852682 1.61416591062 -0.109224959429 -3.48609750446 2.9668 0.343931823773 0.641393591517 -1.12546364053 -2.28188053843 -0.325906838511 0.21434389057
5.66771033847 1.61205870562 -0.109244771958 -3.48583389339 2.9668 0.344280592665 0.64099809906 -1.12496253099 -2.28236257949 -0.325934718322 0.214743910557
5.68587201104 1.6099515167 -0.10926455575 -3.48557023091 2.9668 0.344629428058 0.640602333147 -1.12446103914 -2.28284433901 -0.325962887445 0.215143978986
5.70403354594 1.60784434386 -0.109284310516 -3.48530651718 2.9668 0.344978329667 0.640206294665 -1.12395916557 -2.28332581705 -0.325991345052 0.215544096219
5.72219492923 1.60573718856 -0.109304039872 -3.48504276197 2.9668 0.345327273319 0.639809957732 -1.12345693121 -2.28380703104 -0.326020129431 0.21594428127
5.74035618736 1.60363004779 -0.109323735724 -3.48477894618 2.9668 0.345676306544 0.639413376809 -1.12295429586 -2.2842879463 -0.326049161485 0.216344497198
5.75851730642 1.60152292302 -0.109343401688 -3.48451507959 2.9668 0.346025405133 0.639016525972 -1.1224512805 -2.28476858024 -0.326078479543 0.21674476299
5.77667828918 1.59941581423 -0.109363037479 -3.48425116238 2.9668 0.346374568795 0.638619406097 -1.1219478857 -2.28524893291 -0.326108082791 0.217145079006
5.79483913425 1.59730872139 -0.109382642814 -3.48398719469 2.9668 0.346723797244 0.638222018066 -1.12144411205 -2.28572900436 -0.326137970415 0.2175454456
5.81299984164 1.59520164449 -0.109402217408 -3.48372317668 2.9668 0.347073090197 0.637824362759 -1.12093996013 -2.28620879464 -0.3261681416 0.21794586312
5.83116041134 1.59309458349 -0.109421760979 -3.48345910852 2.9668 0.347422447368 0.637426441052 -1.12043543052 -2.2866883038 -0.326198595536 0.218346331915
5.84932083224 1.59098753989 -0.109441277173 -3.483195 2.9668 0.347771844644 0.637028227041 -1.11993054417 -2.28716754924 -0.326229370583 0.2187468709
5.86748112935 1.58888051064 -0.109460757855 -3.48293083202 2.9668 0.348121329439 0.636629775209 -1.1194252609 -2.28764649637 -0.326260387561 0.219147443302
5.88564129017 1.58677349721 -0.109480206669 -3.48266661437 2.9668 0.348470877602 0.636231059608 -1.11891960168 -2.28812516253 -0.326291684867 0.219548068005
5.90380131331 1.5846664996 -0.109499623337 -3.48240234723 2.9668 0.348820488843 0.635832081109 -1.11841356711 -2.28860354779 -0.326323261709 0.219948745359
5.92196120154 1.58255951777 -0.109519007583 -3.48213803076 2.9668 0.349170162879 0.635432840584 -1.11790715778 -2.28908165218 -0.326355117289 0.220349475705
5.94012095348 1.5804525517 -0.109538359127 -3.48187366513 2.9668 0.349519899425 0.635033338904 -1.11740037427 -2.28955947576 -0.326387250813 0.220750259381
5.95828057051 1.57834560135 -0.109557677694 -3.48160925052 2.9668 0.349869698197 0.634633576939 -1.11689321718 -2.29003701857 -0.326419661489 0.221151096725
5.97644003873 1.57623866825 -0.109576966958 -3.48134479672 2.9668 0.350219535142 0.634233528761 -1.11638570748 -2.29051429795 -0.326452387748 0.22155200655
5.99459938457 1.5741317493 -0.109596218743 -3.48108028464 2.9668 0.350569457555 0.633833248876 -1.11587780497 -2.29099127942 -0.326485350324 0.221952952251
6.01275859689 1.57202484599 -0.109615436725 -3.48081572409 2.9668 0.350919441346 0.633432711313 -1.11536953067 -2.29146798027 -0.326518587686 0.22235395261
6.03091767292 1.56991795832 -0.109634620631 -3.48055111524 2.9668 0.351269486227 0.633031916935 -1.11486088516 -2.29194440055 -0.326552099057 0.222755007967
6.04907661544 1.56781108624 -0.109653770189 -3.48028645827 2.9668 0.351619591913 0.632630866606 -1.11435186904 -2.29242054029 -0.326585883662 0.223156118652
6.06723542305 1.56570422973 -0.109672885127 -3.48002175336 2.9668 0.351969758121 0.632229561191 -1.11384248292 -2.29289639956 -0.326619940723 0.223557284991
6.08539409715 1.56359738877 -0.109691965175 -3.47975700069 2.9668 0.352319984568 0.631828001551 -1.11333272739 -2.29337197839 -0.326654269465 0.223958507308
6.10355262383 1.56149056488 -0.109711014037 -3.47949221007 2.9668 0.352670247261 0.631426161737 -1.11282262342 -2.29384729407 -0.326688908389 0.22435980432
6.1217110309 1.55938375492 -0.109730023497 -3.47922736241 2.9668 0.353020593377 0.631024096273 -1.11231213087 -2.29432231221 -0.326723778146 0.224761139586
6.13986930446 1.55727696042 -0.109748997258 -3.47896246752 2.9668 0.353370998885 0.63062177917 -1.11180127071 -2.29479705005 -0.326758917272 0.22516253179
6.15802744451 1.55517018135 -0.109767935054 -3.4786975256 2.9668 0.353721463498 0.630219211281 -1.11129004356 -2.29527150764 -0.326794325011 0.225563981258
6.17618545243 1.55306341768 -0.109786836619 -3.47843253683 2.9668 0.354071986933 0.629816393463 -1.11077845004 -2.29574568502 -0.326830000602 0.225965488309
6.19434332685 1.55095666939 -0.109805701688 -3.4781675014 2.9668 0.354422568906 0.629413326574 -1.11026649074 -2.29621958222 -0.326865943286 0.226367053258
6.21250107053 1.54884993644 -0.109824529995 -3.47790241948 2.9668 0.354773209135 0.629010011468 -1.10975416628 -2.29669319931 -0.326902152307 0.22676867642
6.23065866818 1.54674322037 -0.109843325274 -3.47763730092 2.9668 0.35512388369 0.628606422175 -1.10924149763 -2.29716655349 -0.326938666233 0.227170376407
6.24881614762 1.54463651802 -0.109862079268 -3.4773721266 2.9668 0.355474639624 0.628202613237 -1.10872844466 -2.29763961049 -0.32697540563 0.227572116949
6.26697349493 1.54252983092 -0.109880795711 -3.47710690638 2.9668 0.355825452969 0.627798558643 -1.10821502837 -2.2981123875 -0.327012409104 0.227973916627
6.28513071151 1.54042315905 -0.109899474341 -3.47684164044 2.9668 0.35617632344 0.627394259241 -1.10770124936 -2.29858488456 -0.327049675915 0.228375775758
6.30328779737 1.53831650237 -0.109918114899 -3.47657632897 2.9668 0.356527250752 0.626989715881 -1.10718710827 -2.2990571017 -0.32708720532 0.228777694647
6.32144475249 1.53620986085 -0.109936717124 -3.47631097217 2.9668 0.356878234624 0.626584929413 -1.10667260571 -2.29952903896 -0.327124996577 0.2291796736
6.33960157688 1.53410323446 -0.109955280758 -3.47604557023 2.9668 0.357229274774 0.626179900682 -1.1061577423 -2.3000006964 -0.327163048946 0.229581712918
6.35775825802 1.53199662476 -0.109973809561 -3.47578013299 2.9668 0.357580347331 0.625774603704 -1.10564253901 -2.30047209117 -0.327201401063 0.229983831116
6.37591482234 1.52989002854 -0.109992295239 -3.47551464136 2.9668 0.35793149923 0.62536909303 -1.10512695573 -2.3009431891 -0.327239973411 0.230385992089
6.39407125731 1.52778344735 -0.110010741553 -3.47524910519 2.9668 0.358282706563 0.624963342635 -1.10461101347 -2.30141400732 -0.327278804662 0.230788214318
6.41222756295 1.52567688117 -0.110029148248 -3.47498352467 2.9668 0.358633969044 0.624557353358 -1.10409471285 -2.30188454587 -0.327317894094 0.231190498108
6.43038373924 1.52357032996 -0.11004751507 -3.4747179 2.9668 0.358985286392 0.624151126043 -1.1035780545 -2.30235480479 -0.327357240979 0.231592843754
6.44853978759 1.52146379369 -0.110065841764 -3.47445223139 2.9668 0.359336658325 0.62374466153 -1.10306103905 -2.3028247841 -0.327396844592 0.231995251549
6.46669570659 1.51935727233 -0.110084128077 -3.47418651904 2.9668 0.359688084559 0.623337960661 -1.10254366712 -2.30329448386 -0.32743670421 0.232397721785
6.48485148374 1.51725076745 -0.110102377798 -3.4739207728 2.9668 0.36003954129 0.622930997434 -1.1020259597 -2.30376392118 -0.327476858533 0.232800272875
6.50300714685 1.5151442758 -0.110120582595 -3.47365497358 2.9668 0.360391075326 0.622523826409 -1.10150787669 -2.30423306198 -0.327517227965 0.233202868882
6.521162682 1.51303779896 -0.110138746255 -3.47338913123 2.9668 0.360742662823 0.622116421547 -1.10098943911 -2.30470192334 -0.327557851241 0.233605528186
6.5393180906 1.51093133689 -0.11015686853 -3.47312324596 2.9668 0.361094303496 0.62170878368 -1.10047064757 -2.30517050529 -0.327598727656 0.234008251081
6.55747337264 1.50882488956 -0.110174949171 -3.47285731798 2.9668 0.361445997064 0.621300913644 -1.09995150274 -2.30563880786 -0.327639856499 0.234411037851
6.57562852673 1.50671845693 -0.11019298793 -3.47259134751 2.9668 0.361797743243 0.620892812273 -1.09943200523 -2.3061068311 -0.327681237059 0.234813888778
6.59378355425 1.50461203898 -0.110210984559 -3.47232533474 2.9668 0.362149541755 0.620484480401 -1.09891215569 -2.30657457504 -0.327722868631 0.235216804143
6.61193844271 1.50250563729 -0.110228942873 -3.47205928954 2.9668 0.362501368853 0.620075892011 -1.0983919751 -2.30704205676 -0.327764789978 0.235619802256
6.63009321851 1.50039924857 -0.110246854504 -3.47179319282 2.9668 0.362853271224 0.619667101674 -1.09787142339 -2.30750924225 -0.327806921423 0.23602284735
6.64824786914 1.49829287442 -0.110264723267 -3.47152705445 2.9668 0.363205225087 0.619258083333 -1.09735052157 -2.30797614855 -0.327849301767 0.236425957705
6.6664023946 1.4961865148 -0.110282548918 -3.47126087464 2.9668 0.363557230155 0.618848837815 -1.09682927028 -2.30844277569 -0.327891930318 0.236829133602
6.6845567949 1.49408016968 -0.110300331215 -3.47099465361 2.9668 0.363909286149 0.618439365949 -1.09630767018 -2.30890912371 -0.327934806381 0.237232375315
6.70271107142 1.49197383901 -0.110318069915 -3.47072839158 2.9668 0.364261392787 0.618029668562 -1.0957857219 -2.30937519263 -0.327977929263 0.237635683115
6.72086522277 1.48986752277 -0.110335764776 -3.47046208876 2.9668 0.364613549788 0.61761974648 -1.0952634261 -2.30984098251 -0.328021298272 0.23803905727
6.73938413132 1.48776122256 -0.110353419639 -3.470195755 2.9668 0.364965733472 0.617209573676 -1.09474080376 -2.31030651034 -0.328064952233 0.23844251599
6.75808811653 1.48565493505 -0.1103710261 -3.46992937126 2.9668 0.365317990398 0.616799204722 -1.09421781483 -2.31077174225 -0.328108811394 0.23884602368
6.77697901283 1.48354866186 -0.110388588001 -3.46966294738 2.9668 0.365670296848 0.616388613552 -1.09369448032 -2.31123669519 -0.328152914614 0.239249598514
6.79605868939 1.48144240295 -0.110406105105 -3.4693964836 2.9668 0.366022652538 0.615977800984 -1.0931708009 -2.31170136922 -0.328197261219 0.239653240765
6.81532903208 1.47933615828 -0.110423577172 -3.46912998014 2.9668 0.366375057187 0.615566767841 -1.0926467772 -2.31216576435 -0.328241850528 0.240056950694
6.83479194763 1.47722992781 -0.110441003967 -3.46886343722 2.9668 0.366727510515 0.615155514944 -1.0921224099 -2.31262988062 -0.328286681862 0.240460728561
6.85444935947 1.4751237115 -0.110458385254 -3.46859685506 2.9668 0.36708001224 0.614744043111 -1.09159769964 -2.31309371807 -0.328331754546 0.240864574625
6.87430319657 1.47301751098 -0.110475724898 -3.46833024353 2.9668 0.367432538747 0.614332326304 -1.09107266741 -2.31355729367 -0.328377107465 0.241268506994
6.89435545329 1.4709113229 -0.110493014463 -3.46806358358 2.9668 0.367785136467 0.613920419098 -1.09054727319 -2.3140205736 -0.32842266079 0.241672490241
6.91460809754 1.46880514886 -0.110510257814 -3.46779688507 2.9668 0.368137781747 0.613508295414 -1.090021538 -2.3144835748 -0.32846845344 0.24207654244
6.93506313342 1.46669898883 -0.11052745472 -3.46753014824 2.9668 0.368490474303 0.613095956067 -1.08949546249 -2.3149462973 -0.328514484757 0.242480663853
6.95572258169 1.46459284278 -0.110544604949 -3.46726337331 2.9668 0.368843213854 0.612683401869 -1.08896904732 -2.31540874113 -0.328560754073 0.242884854729
6.97658848677 1.46248671066 -0.110561708269 -3.46699656052 2.9668 0.36919600012 0.612270633637 -1.08844229317 -2.31587090631 -0.328607260726 0.243289115318
6.99766291116 1.46038059244 -0.11057876445 -3.46672971009 2.9668 0.369548832821 0.611857652183 -1.0879152007 -2.31633279289 -0.328654004053 0.243693445867
7.01894792292 1.45827448976 -0.110595777383 -3.46646283191 2.9668 0.369901688407 0.611444431458 -1.0873877909 -2.31679441779 -0.328701022999 0.244097864383
7.04044566103 1.45616839921 -0.110612738598 -3.46619590691 2.9668 0.370254613177 0.611031026036 -1.08686002377 -2.31725574727 -0.32874823766 0.24450233561
7.06215823527 1.45406232244 -0.110629651985 -3.46592894498 2.9668 0.370607583546 0.61061740983 -1.08633192031 -2.31771679824 -0.328795687016 0.24490687752
7.0840877916 1.45195625941 -0.110646517319 -3.46566194635 2.9668 0.370960599229 0.610203583647 -1.08580348121 -2.31817757071 -0.32884337042 0.245311490363
7.10623649819 1.44985021007 -0.110663334373 -3.46539491127 2.9668 0.371313659946 0.609789548294 -1.08527470714 -2.31863806472 -0.328891287221 0.245716174379
7.12860654828 1.44774417439 -0.11068010292 -3.46512783996 2.9668 0.371666765417 0.60937530458 -1.08474559877 -2.3190982803 -0.328939436768 0.246120929805
7.15142608897 1.44563815233 -0.110696822737 -3.46486073267 2.9668 0.372019915362 0.608960853312 -1.08421615677 -2.31955821747 -0.328987818415 0.246525756878
7.17470413375 1.44353214553 -0.110713497738 -3.46459359927 2.9668 0.372373086296 0.608546168433 -1.08368640214 -2.32001789312 -0.329036471162 0.246930673503
7.19844993257 1.44142615058 -0.110730119422 -3.46432642073 2.9668 0.372726324389 0.60813130451 -1.0831562949 -2.32047727361 -0.329085315034 0.247335644595
7.22267286749 1.43932016912 -0.110746691703 -3.46405920692 2.9668 0.373079606121 0.607716235453 -1.08262585606 -2.32093637577 -0.329134389068 0.247740688024
7.24738252502 1.43721420111 -0.11076321436 -3.46379195809 2.9668 0.373432931206 0.607300962058 -1.08209508631 -2.32139519964 -0.32918369263 0.24814580403
7.27258868636 1.43510824651 -0.110779687174 -3.46352467448 2.9668 0.373786299366 0.60688548513 -1.08156398632 -2.32185374525 -0.329233225083 0.248550992841
7.29830132881 1.43300230528 -0.110796109922 -3.46325735634 2.9668 0.374139710321 0.60646980547 -1.08103255678 -2.32231201261 -0.32928298579 0.248956254684
7.32479292298 1.43089637737 -0.110812482386 -3.46299000391 2.9668 0.374493163791 0.606053923877 -1.08050079838 -2.32277000176 -0.329332974118 0.249361589785
7.35208704361 1.42879046446 -0.110828808505 -3.46272262707 2.9668 0.374846636358 0.60563781429 -1.0799687321 -2.32322772955 -0.329383229123 0.249767015944
7.38020804986 1.42668456309 -0.110845079746 -3.4624552068 2.9668 0.375200174058 0.605221531269 -1.07943631798 -2.3236851624 -0.329433670761 0.250172498253
7.40918096843 1.4245786749 -0.110861300047 -3.46218775297 2.9668 0.375553753438 0.604805048716 -1.07890357706 -2.32414231711 -0.329484338121 0.250578054478
7.43933011603 1.42247279988 -0.110877469193 -3.46192026585 2.9668 0.375907374214 0.604388367423 -1.07837051002 -2.32459919373 -0.329535230586 0.250983684846
7.47070324437 1.42036693797 -0.110893586969 -3.46165274567 2.9668 0.376261036107 0.603971488187 -1.07783711754 -2.32505579226 -0.32958634753 0.251389389576
7.50367651209 1.41826108912 -0.11090965316 -3.46138519269 2.9668 0.376614738836 0.603554411803 -1.07730340032 -2.32551211273 -0.32963768833 0.251795168884
7.53867808526 1.4161552533 -0.110925667551 -3.46111760717 2.9668 0.376968482123 0.603137139065 -1.07676935905 -2.32596815518 -0.329689252366 0.252201022984
7.5758326997 1.41404943219 -0.110941634105 -3.46084999897 2.9668 0.377322242618 0.602719643908 -1.07623501472 -2.32642393641 -0.329741078747 0.252606969576
7.61566726399 1.4119436223 -0.110957544258 -3.46058234909 2.9668 0.37767606622 0.60230198088 -1.0757003274 -2.32687942292 -0.329793087362 0.253012973923
7.65923347302 1.4098378253 -0.110973401974 -3.46031466742 2.9668 0.378029929546 0.601884123878 -1.07516531812 -2.32733463148 -0.329845317355 0.253419053689
7.70832466903 1.40773204114 -0.110989207041 -3.46004695421 2.9668 0.37838383231 0.60146607369 -1.07462998757 -2.32778956211 -0.329897768119 0.25382520909
7.76704462082 1.4056262698 -0.111004959249 -3.45977920972 2.9668 0.378737774234 0.601047831107 -1.07409433644 -2.32824421484 -0.329950439042 0.254231440334
7.84305993294 1.40352051121 -0.111020658389 -3.45951143421 2.9668 0.379091755039 0.600629396916 -1.07355836544 -2.32869858969 -0.330003329515 0.254637747627
8.0355729691 1.40141476534 -0.111036304253 -3.45924362793 2.9668 0.379445774444 0.600210771907 -1.07302207527 -2.32915268669 -0.33005643893 0.255044131173
8.19142635505 1.40227804816 -0.114979857226 -3.45726155032 2.9668 0.386958421773 0.604719812438 -1.07266916372 -2.32523998775 -0.317091403839 0.251679544469
8.28056618936 1.40313115814 -0.118918433877 -3.45528560032 2.9668 0.394472591226 0.609274173405 -1.07211986989 -2.32128938096 -0.3042545097 0.248580144099
8.35053270868 1.40397243161 -0.122855304282 -3.45331994599 2.9668 0.401969658821 0.613863608121 -1.07137652263 -2.31730945919 -0.291562730749 0.245753333695
8.40961995441 1.40479995229 -0.12679355014 -3.45136875237 2.9668 0.409430621463 0.618477357542 -1.07044258734 -2.31330870904 -0.279032499092 0.243205301739
8.46156330686 1.40561188453 -0.130736203183 -3.44943611434 2.9668 0.416836566483 0.623104330238 -1.06932297391 -2.30929540146 -0.266679229145 0.240940691036
8.51396362663 1.40640649012 -0.134686196057 -3.44752600808 2.9668 0.424168848892 0.627733221227 -1.06802397894 -2.30527751844 -0.254517153643 0.238962507664
8.57199455876 1.40718214501 -0.138646314695 -3.4456422413 2.9668 0.43140928131 0.632352644403 -1.06655319927 -2.30126268418 -0.242559165606 0.237272051449
8.63843172901 1.40786819838 -0.142614909379 -3.44377921103 2.9668 0.438549232951 0.636935071186 -1.06490174972 -2.29727728233 -0.230820002216 0.235869790604
8.69651495091 1.40853228376 -0.146598214681 -3.44194912783 2.9668 0.445563480545 0.641485801442 -1.06309699868 -2.29330891579 -0.219305304832 0.234751172867
8.74693999208 1.4091735102 -0.150598467024 -3.44015497258 2.9668 0.452436864649 0.6459942306 -1.06114989734 -2.28936372949 -0.208022839068 0.23391213068
8.79195865716 1.40979086072 -0.154617470258 -3.43839940656 2.9668 0.459155056844 0.650450171567 -1.05907177744 -2.28544735066 -0.196978876629 0.233347104373
8.83998766641 1.41038349244 -0.158656723783 -3.43668472356 2.9668 0.465705089268 0.654844059418 -1.05687447186 -2.28156483177 -0.186177896252 0.233048973455
8.89227221103 1.41095074041 -0.162717413769 -3.43501283047 2.9668 0.472075479012 0.659167065107 -1.05457011742 -2.27772063873 -0.175622589501 0.233009186739
8.95057024264 1.41149211795 -0.166800413044 -3.43338523719 2.9668 0.478256319965 0.663411189428 -1.0521709597 -2.27391865054 -0.165313903778 0.233217920985
9.00080258578 1.41193836937 -0.170897217502 -3.43179354079 2.9668 0.484248965804 0.66755297682 -1.04967099673 -2.27018152193 -0.155254478643 0.233657261445
9.05478831679 1.41235826254 -0.175016834592 -3.43024754157 2.9668 0.490038392524 0.671603400278 -1.04709992034 -2.2664925406 -0.145437301441 0.234321013517
9.1013787734 1.41275202184 -0.179159372435 -3.42874759125 2.9668 0.495619911855 0.675557357526 -1.04446936083 -2.26285389125 -0.135858571303 0.235196735675
9.14897328444 1.41311980656 -0.183324610791 -3.42729370033 2.9668 0.500990138249 0.679410664324 -1.04179022127 -2.2592672883 -0.126513387201 0.236271576806
9.2013050064 1.41346190818 -0.187512118731 -3.4258855635 2.9668 0.506147180675 0.683160073513 -1.0390727765 -2.25573399295 -0.117395761452 0.237532399615
9.26108634527 1.41377873544 -0.191721285379 -3.42452259247 2.9668 0.511090542893 0.686803235501 -1.03632659489 -2.25225485449 -0.108498791869 0.23896596457
9.33606893525 1.41407079872 -0.195951351157 -3.42320395144 2.9668 0.515821005736 0.690338643922 -1.03356048494 -2.24883035294 -0.0998148341822 0.240559097339
9.46790101855 1.41427020493 -0.200187623372 -3.42191856336 2.9668 0.520353747362 0.693751099105 -1.03076234708 -2.24547960824 -0.0913376606104 0.242285575045
9.54173183878 1.4144461616 -0.20444271569 -3.42067480151 2.9668 0.524680088011 0.697056060309 -1.02795884228 -2.24218335871 -0.0830552889559 0.244145155886
9.59898330046 1.41459951 -0.208715663547 -3.4194713373 2.9668 0.528803893494 0.700254111817 -1.02515646008 -2.23894122891 -0.0749588607545 0.246125780156
9.64849078964 1.41473100315 -0.213005418762 -3.41830672601 2.9668 0.532729633541 0.703346371084 -1.02236082744 -2.23575264502 -0.0670394376499 0.24821592261
9.693923563 1.41484142292 -0.21731091513 -3.41717944635 2.9668 0.536462374153 0.706334419383 -1.01957684742 -2.23261686179 -0.0592880525485 0.250404633104
9.74478423168 1.41493156896 -0.221631086023 -3.41608792702 2.9668 0.540007656262 0.709220227877 -1.01680874132 -2.22953299351 -0.0516958060832 0.252681578338
9.80523535184 1.41500224881 -0.225964879039 -3.41503057016 2.9668 0.543371384027 0.712006088007 -1.01406009664 -2.22650004172 -0.044253947243 0.255037066989
9.882520352 1.41498634245 -0.230293083992 -3.41399545371 2.9668 0.546577580988 0.714682696043 -1.01131083875 -2.2235353684 -0.0369550058309 0.257445235737
9.94233624011 1.41495264883 -0.234632772742 -3.41299095388 2.9668 0.549616287701 0.717265606317 -1.0085857465 -2.2206192243 -0.0297886198563 0.25991418545
9.99304407826 1.41490202046 -0.238983033909 -3.41201554148 2.9668 0.552493876559 0.719757649645 -1.00588687249 -2.21775042126 -0.0227469073214 0.262436260743
10.0381449024 1.41483521388 -0.243342980929 -3.4110677082 2.9668 0.555216709463 0.722161763025 -1.00321579794 -2.21492773948 -0.0158223341909 0.265004421024
10.0794660715 1.41475296417 -0.247711776171 -3.41014598938 2.9668 0.557791120835 0.724480943975 -1.00057373218 -2.21214994049 -0.00900771082328 0.267612212297
10.1176958902 1.41465598218 -0.252088632698 -3.40924897061 2.9668 0.560223370966 0.726718217084 -0.997961557805 -2.20941577849 -0.00229620260859 0.270253739172
10.153413212 1.41454495249 -0.256472814883 -3.40837529255 2.9668 0.562519607869 0.728876605771 -0.995379872642 -2.20672400968 0.0043186659426 0.272923634093
10.1869413913 1.41435317381 -0.260841471525 -3.40751343658 2.9668 0.564707958263 0.730949670762 -0.992802741684 -2.20409143889 0.0108417586434 0.275598946174
10.2188858671 1.41414869587 -0.265216093935 -3.40667212903 2.9668 0.566773421965 0.732950583422 -0.99025586211 -2.20149870956 0.0172807733929 0.278293375973
10.2496217705 1.4139321599 -0.269596115699 -3.40585022417 2.9668 0.568721566942 0.73488217589 -0.987739244976 -2.19894464066 0.0236410626637 0.281002992025
10.2793308346 1.41370412795 -0.273981005673 -3.4050466223 2.9668 0.570557761688 0.736747221386 -0.9852527238 -2.19642807429 0.0299276442708 0.283724253528
10.3080592966 1.41346513425 -0.278370275704 -3.40426028253 2.9668 0.57228717393 0.738548414908 -0.982796006368 -2.19394788029 0.036145223372 0.286453978194
10.3359678408 1.41321568575 -0.28276347827 -3.40349022156 2.9668 0.573914765524 0.740288366422 -0.98036869637 -2.19150295853 0.0422982063227 0.289189312898
10.3630773228 1.4129562629 -0.287160204029 -3.40273551204 2.9668 0.575445290259 0.741969596079 -0.977970312386 -2.18909224057 0.0483907152818 0.291927705819
10.389253579 1.41262051508 -0.29153421433 -3.40198551732 2.9668 0.576908897062 0.743586958796 -0.975571045952 -2.18673250631 0.0544241478074 0.2946490688
10.4149305749 1.41227572447 -0.29591104003 -3.40124900537 2.9668 0.57828531895 0.745150950005 -0.973198929756 -2.18440489023 0.0604049788821 0.297369419515
10.4401161016 1.41192232752 -0.300290381588 -3.40052523049 2.9668 0.579578617113 0.746663753586 -0.970853361914 -2.18210843838 0.0663365213066 0.300086980369
10.4648179973 1.41156070151 -0.304671962236 -3.39981348065 2.9668 0.580792663635 0.748127471993 -0.968533692053 -2.17984222833 0.0722218627278 0.302800177538
10.4890441546 1.41119120269 -0.309055530824 -3.3991130874 2.9668 0.581931143872 0.749544116895 -0.96623924714 -2.17760537066 0.0780638848583 0.305507620724
10.512802498 1.41081416728 -0.313440859786 -3.3984234235 2.9668 0.582997562582 0.750915610874 -0.96396933912 -2.17539700864 0.0838652766875 0.308208085694
10.5361009633 1.41042991257 -0.317827743202 -3.39774390067 2.9668 0.58399525052 0.75224378957 -0.961723271384 -2.17321631755 0.0896285471061 0.310900498275
10.5599521358 1.40997248195 -0.322186617818 -3.39706492432 2.9668 0.584955691882 0.753524131797 -0.959468526398 -2.17108028701 0.0953516517876 0.313567271903
10.5833399491 1.4095084462 -0.326546723515 -3.39639490051 2.9668 0.585854331471 0.75476501262 -0.957235719604 -2.16897037002 0.101041407591 0.316224565055
10.6062726336 1.40903809639 -0.330907913702 -3.39573336505 2.9668 0.586693959176 0.755967979957 -0.955024194494 -2.16688584563 0.106699822975 0.318871676597
10.6287583503 1.40856167937 -0.335270053854 -3.39507987217 2.9668 0.587477229343 0.75713451833 -0.952833289737 -2.16482601968 0.112328769345 0.321508003824
10.651025665 1.40807942817 -0.339633022895 -3.39443400386 2.9668 0.588206661215 0.758266041682 -0.95066235382 -2.16279022542 0.117929994465 0.324133031202
10.6732966555 1.40759156282 -0.343996712004 -3.39379536814 2.9668 0.588884645545 0.759363896362 -0.948510747083 -2.1607778226 0.12350513102 0.326746321511
10.6957935651 1.40709829109 -0.348361023506 -3.39316359733 2.9668 0.589513451051 0.760429364107 -0.946377843334 -2.15878819654 0.129055704612 0.329347507822
10.7185731673 1.40653411878 -0.352693101752 -3.39253021017 2.9668 0.590125658485 0.761458212359 -0.944229090701 -2.15683867467 0.134576346876 0.331921309295
10.7418133153 1.40596494358 -0.357025678548 -3.39190293606 2.9668 0.590693469161 0.762457366323 -0.942097436861 -2.15491080989 0.140075320948 0.334482820119
10.7655229447 1.40539096257 -0.361358685853 -3.39128148784 2.9668 0.591218775543 0.763427897499 -0.939982332261 -2.15300406821 0.145553855778 0.337031841502
10.7897111954 1.40481233842 -0.365692061603 -3.39066558609 2.9668 0.591703381817 0.764370835474 -0.937883233554 -2.15111793579 0.151013098223 0.339568220781
10.8143874122 1.40422922507 -0.370025750451 -3.39005496831 2.9668 0.592149001688 0.765287160713 -0.93579961362 -2.14925191937 0.156454122292 0.342091844912
10.8395611521 1.40364176828 -0.374359703143 -3.38944938784 2.9668 0.592557263241 0.766177806982 -0.933730961744 -2.14740554536 0.161877934171 0.344602636218
10.8652421896 1.40305010611 -0.378693875944 -3.38884861284 2.9668 0.592929713572 0.767043663703 -0.931676783673 -2.14557835911 0.16728547687 0.347100548544
10.8912224586 1.40238927754 -0.382992154472 -3.38824532369 2.9668 0.59329990606 0.767880563586 -0.929600943952 -2.14378811127 0.172668126086 0.349572542638
10.9179911616 1.40172451292 -0.387290626435 -3.38764635791 2.9668 0.593637614056 0.768694547708 -0.927538333686 -2.14201626169 0.178036283056 0.352032019763
10.9455720317 1.4010559501 -0.391589262091 -3.38705153642 2.9668 0.593944131097 0.769486358493 -0.925488531658 -2.14026241531 0.183390715211 0.354479003678
10.9739895353 1.40038369861 -0.39588803467 -3.3864606813 2.9668 0.594220695636 0.770256712848 -0.923451123438 -2.1385261916 0.188732139816 0.356913539573
11.0035616833 1.39970786254 -0.400186920679 -3.38587362494 2.9668 0.594468486801 0.771006294611 -0.921425709322 -2.1368072249 0.194061230786 0.359335689717
11.0343352456 1.39902854082 -0.404485899588 -3.38529020941 2.9668 0.594688627605 0.77173575624 -0.919411904019 -2.13510516377 0.199378621566 0.36174553146
11.066358896 1.39834582756 -0.408784953539 -3.38471028577 2.9668 0.594882187986 0.772445720417 -0.917409336311 -2.1334196704 0.204684907794 0.364143155424
11.0995602858 1.39759536482 -0.413044746566 -3.38412773498 2.9668 0.595083601218 0.77313190827 -0.915380635428 -2.13176897841 0.209968238582 0.36651775885
11.1312921744 1.39684169512 -0.417304632579 -3.38354836042 2.9668 0.595260792226 0.773799910585 -0.913362243421 -2.13013430462 0.215241569923 0.368880727384
11.1617864764 1.39608491878 -0.421564599746 -3.38297204909 2.9668 0.595414659875 0.774450247598 -0.911353848952 -2.12851535438 0.220505392198 0.371232175797
11.1910913901 1.39532511177 -0.425824637869 -3.38239868535 2.9668 0.59554606973 0.775083425123 -0.909355145495 -2.12691184334 0.225760163934 0.373572228933
11.2195348647 1.39456234661 -0.430084738316 -3.38182815993 2.9668 0.595655848403 0.775699926812 -0.907365838101 -2.12532349782 0.231006317312 0.375901018237
11.2471421801 1.39379669254 -0.434344893862 -3.38126036951 2.9668 0.595744785613 0.776300215262 -0.905385643031 -2.12375005429 0.236244259828 0.378218680822
11.2739378763 1.39302821574 -0.438605098548 -3.3806952164 2.9668 0.595813636126 0.776884733082 -0.903414287388 -2.12219125895 0.241474375832 0.380525358626
11.3004664508 1.3921932311 -0.442822833866 -3.38012781347 2.9668 0.595897637336 0.777448943222 -0.901413459867 -2.12066586624 0.246681603385 0.382812498597
11.3262153448 1.39135555458 -0.447040654601 -3.3795628361 2.9668 0.595963264205 0.777998309736 -0.899420796104 -2.11915474316 0.251881698241 0.385089306322
11.351457371 1.3905152624 -0.451258556766 -3.37900021233 2.9668 0.596011154218 0.778533202852 -0.897436069939 -2.11765766683 0.257074980707 0.38735592708
11.3762024915 1.38967240908 -0.4554765375 -3.37843986534 2.9668 0.596041925616 0.779053985564 -0.895459057963 -2.11617442179 0.262261749849 0.389612511156
11.4004604735 1.38882704691 -0.45969459466 -3.37788172233 2.9668 0.596056170792 0.779561005901 -0.893489545415 -2.11470480011 0.267442288325 0.391859210658
11.4242409009 1.38797922606 -0.463912726749 -3.37732571424 2.9668 0.596054457601 0.780054597652 -0.891527325879 -2.11324860114 0.272616863356 0.394096179083
11.4475531681 1.38712899474 -0.468130932839 -3.3767717756 2.9668 0.596037330597 0.78053508106 -0.889572200985 -2.11180563117 0.277785727646 0.396323570933
11.4710770073 1.38621341095 -0.472303551868 -3.37621627531 2.9668 0.596040771832 0.780997540703 -0.88758518008 -2.11039518184 0.282930625606 0.398535096622
11.4941379726 1.38529551331 -0.476476286452 -3.37566269866 2.9668 0.596030076639 0.781447553301 -0.88560477562 -2.10899770259 0.288070250173 0.40073770024
11.5167451666 1.38437536232 -0.480649135547 -3.37511099962 2.9668 0.596005707274 0.781885386906 -0.883630825153 -2.10761302169 0.293204814704 0.402931530556
11.5386880882 1.3834529986 -0.484822099114 -3.37456112606 2.9668 0.59596811586 0.782311306928 -0.88166316744 -2.10624097271 0.298334517581 0.405116739212
11.5604143503 1.38252846128 -0.48899517742 -3.37401302845 2.9668 0.595917737117 0.78272556855 -0.879701647594 -2.10488139464 0.303459546717 0.407293477574
11.5823584817 1.38160178816 -0.493168371002 -3.37346665965 2.9668 0.595854989207 0.78312841721 -0.87774611684 -2.10353413162 0.308580080147 0.409461896535
11.6045226703 1.3806730157 -0.497341680624 -3.37292197485 2.9668 0.595780274527 0.783520089055 -0.875796432294 -2.10219903274 0.313696286578 0.411622146346
11.6268688049 1.37968001596 -0.501466343306 -3.3723766162 2.9668 0.595730276493 0.783895195017 -0.87381316019 -2.100895922 0.318786743763 0.413770208321
11.6496649613 1.37868499176 -0.505591162359 -3.37183283811 2.9668 0.59566929246 0.784259600354 -0.871835409679 -2.09960479802 0.323873149323 0.415910729044
11.6729202004 1.37768799314 -0.509716137329 -3.37129061127 2.9668 0.595597665483 0.784613502744 -0.86986306538 -2.09832552527 0.328955647848 0.418043849431
11.696643768 1.37668905156 -0.513841268816 -3.37074989956 2.9668 0.595515734456 0.78495710013 -0.867896012159 -2.09705797214 0.334034372723 0.420169712489
11.720845103 1.37568819758 -0.517966557529 -3.37021066853 2.9668 0.595423826376 0.785290583386 -0.86593413952 -2.09580201085 0.339109450512 0.422288460099
11.745533831 1.3746854608 -0.522092004259 -3.36967288535 2.9668 0.595322256893 0.785614136636 -0.863977341427 -2.09455751727 0.344181001324 0.424400232934
11.7707197707 1.37368086999 -0.526217609865 -3.36913651871 2.9668 0.595211330826 0.785927937554 -0.862025516145 -2.0933243708 0.349249139154 0.426505170394
11.7960902071 1.37261318267 -0.530291550733 -3.36860049493 2.9668 0.595128404316 0.786226051768 -0.860039002147 -2.09212290238 0.354289314865 0.428601523305
11.8222306415 1.37154370255 -0.53436568632 -3.36806581166 2.9668 0.595036897187 0.786514760086 -0.858057256419 -2.09093265667 0.359326250472 0.430691631582
11.8491644387 1.37047247251 -0.538440015657 -3.36753245047 2.9668 0.594937070187 0.786794211229 -0.856080198237 -2.08975352359 0.364360045528 0.432775624199
11.8769156783 1.36939951802 -0.542514538951 -3.36700038578 2.9668 0.594829183872 0.78706455601 -0.854107746623 -2.08858539597 0.369390790694 0.434853632033
11.9057951058 1.36832486391 -0.54658925642 -3.36646959313 2.9668 0.594713490541 0.787325940307 -0.852139823974 -2.08742816931 0.374418572114 0.436925784563
11.9358485859 1.36724853441 -0.550664168278 -3.36594004914 2.9668 0.594590234595 0.787578505276 -0.850176355942 -2.08628174173 0.379443471638 0.438992209842
11.9671238534 1.36617055317 -0.554739274727 -3.36541173143 2.9668 0.594459652883 0.787822387561 -0.84821727131 -2.0851460138 0.384465567048 0.441053034479
11.9996072485 1.36503063475 -0.558759733563 -3.36488485584 2.9668 0.594359757828 0.788051058002 -0.846222877319 -2.08404177849 0.389457235787 0.443108767691
12.0304648321 1.36388911747 -0.562780416673 -3.3643591481 2.9668 0.594253169876 0.788271301259 -0.844232756692 -2.08294814984 0.394446209454 0.445159451318
12.0601200015 1.36274603928 -0.566801322087 -3.36383459696 2.9668 0.594140092127 0.788483231767 -0.842246854174 -2.08186503536 0.399432557727 0.447205201563
12.0886196086 1.36160142165 -0.570822449149 -3.36331118388 2.9668 0.594020730148 0.788686967185 -0.840265114074 -2.08079234469 0.404416342835 0.449246136584
12.1162825669 1.36045528564 -0.574843797164 -3.36278889104 2.9668 0.593895283687 0.788882621703 -0.838287483156 -2.07972998939 0.409397623975 0.451282373125
12.1431334303 1.35930765188 -0.578865365395 -3.36226770137 2.9668 0.593763946917 0.789070306195 -0.836313910545 -2.0786778828 0.414376457457 0.453314026513
12.1691960365 1.35815854063 -0.582887153056 -3.36174759849 2.9668 0.59362690866 0.789250128356 -0.834344347647 -2.07763593998 0.419352896855 0.455341210661
12.1951422778 1.35694869479 -0.586851342272 -3.36123008805 2.9668 0.593522830491 0.789414935444 -0.832339249191 -2.0766253529 0.424296313196 0.457366671901
12.2203269825 1.35573741952 -0.590815773555 -3.36071361696 2.9668 0.593413582571 0.78957207262 -0.830338125078 -2.07562485159 0.42923740659 0.459388176037
12.2450169358 1.35452474927 -0.59478044375 -3.36019817871 2.9668 0.593299327068 0.789721630272 -0.828340938658 -2.07463435527 0.434176226789 0.461405827047
12.2689821964 1.35331070287 -0.598745351137 -3.35968375943 2.9668 0.593180230398 0.789863702689 -0.826347652887 -2.07365378486 0.439112816997 0.463419730987
12.2934306081 1.35209529886 -0.602710493935 -3.35917034577 2.9668 0.593056454813 0.789998381725 -0.82435823249 -2.07268306256 0.44404721837 0.465429992587
12.3183719036 1.35087855551 -0.606675870309 -3.35865792491 2.9668 0.592928158571 0.790125756896 -0.822372643894 -2.07172211179 0.448979470118 0.467436715258
12.3440704465 1.34966049083 -0.610641478357 -3.35814648445 2.9668 0.592795496082 0.790245915484 -0.820390855163 -2.07077085715 0.453909609603 0.469440001102
12.3701436196 1.34838294652 -0.614546568462 -3.35763881582 2.9668 0.592697777343 0.790351071524 -0.818373629943 -2.06985081027 0.458804081235 0.471444801854
12.3970085339 1.34710412645 -0.618451905342 -3.35713208661 2.9668 0.592596151727 0.790449160747 -0.816360228121 -2.0689403839 0.463696491735 0.473446640859
12.4246891994 1.34582406248 -0.622357484611 -3.35662629338 2.9668 0.592490751939 0.790540256765 -0.814350626448 -2.06803950471 0.468586877603 0.475445610899
12.4534955773 1.3445427717 -0.626263303419 -3.35612142541 2.9668 0.59238171611 0.790624437478 -0.812344801465 -2.06714810073 0.473475269363 0.47744180696
12.4834734251 1.343260271 -0.630169358853 -3.35561747233 2.9668 0.592269179346 0.790701779081 -0.810342730964 -2.06626610086 0.478361696157 0.479435322824
12.5149823305 1.34197657707 -0.634075647934 -3.3551144241 2.9668 0.592153273841 0.790772356134 -0.808344393939 -2.06539343475 0.483246185821 0.481426251076
12.5481004611 1.34069170645 -0.637982167615 -3.35461227103 2.9668 0.592034128981 0.790836241637 -0.806349770538 -2.06453003284 0.488128764943 0.48341468312
12.5826226994 1.33934866889 -0.64182528164 -3.35411508234 2.9668 0.591951706107 0.790885024385 -0.804320077691 -2.06369763279 0.492973042929 0.485407733686
12.6152053153 1.33800449917 -0.645668633545 -3.35361875106 2.9668 0.591866450657 0.790927237972 -0.802294168034 -2.06287441413 0.497815454144 0.48739872804
12.6462084294 1.33665922722 -0.649512217743 -3.35312327569 2.9668 0.591778473821 0.790962944475 -0.8002720277 -2.06206030784 0.502656026419 0.489387748894
12.675708582 1.33531286897 -0.653356030256 -3.35262864757 2.9668 0.591687892962 0.790992210459 -0.798253642881 -2.06125524603 0.507494781952 0.491374881252
12.7040593027 1.33396544021 -0.657200067042 -3.35213485828 2.9668 0.591594823209 0.791015101309 -0.796239000625 -2.06045916131 0.512331742029 0.493360209041
12.7313053476 1.33261695661 -0.661044323993 -3.35164189963 2.9668 0.591499377528 0.791031681287 -0.794228088795 -2.05967198678 0.517166927065 0.495343815111
12.7577515766 1.33126743372 -0.664888796934 -3.35114976367 2.9668 0.591401666795 0.791042013576 -0.792220896031 -2.058893656 0.522000356649 0.497325781251
12.7840019032 1.32986111686 -0.668667009407 -3.35066378612 2.9668 0.591342307746 0.791037085835 -0.790179219995 -2.05814602672 0.5267929074 0.499315331888
12.8092293877 1.3284538051 -0.672445437176 -3.35017859446 2.9668 0.59128105137 0.79102601701 -0.788141367869 -2.05740714402 0.531583748187 0.50130364921
12.8337162873 1.32704552682 -0.676224073509 -3.34969418833 2.9668 0.591217992876 0.791008861476 -0.786107332006 -2.05667694089 0.536372901341 0.503290806902
12.8572489843 1.32563629719 -0.680002913334 -3.34921056042 2.9668 0.591153234088 0.790985678165 -0.78407710514 -2.05595535128 0.541160383779 0.505276880995
12.8800907869 1.32422613125 -0.683781951517 -3.34872770353 2.9668 0.591086875139 0.790956525218 -0.782050680544 -2.05524230939 0.545946211827 0.50726194655
12.9033929001 1.32281504399 -0.687561182859 -3.34824561066 2.9668 0.591019014524 0.790921460018 -0.78002805201 -2.05453774971 0.550730401246 0.509246077664
12.9271645684 1.32140305031 -0.691340602098 -3.34776427493 2.9668 0.590949749147 0.79088053923 -0.77800921381 -2.05384160696 0.555512967267 0.511229347482
12.9509708111 1.31993569645 -0.69505094056 -3.34729028435 2.9668 0.590920354074 0.790824188073 -0.775956655019 -2.05317574298 0.560252165235 0.513223025779
12.975499592 1.31846748086 -0.698761458189 -3.34681701342 2.9668 0.590889892037 0.790762081025 -0.773908017511 -2.05251817921 0.564989793547 0.515216217326
13.0007727852 1.31699843063 -0.702472147189 -3.34634446241 2.9668 0.590858446129 0.79069426758 -0.77186329735 -2.05186884902 0.569725871249 0.517208987692
13.0268129417 1.31552856035 -0.706183001444 -3.34587262478 2.9668 0.590826106263 0.790620801777 -0.769822491305 -2.05122768659 0.574460412104 0.519201404807
13.0536432914 1.3140578846 -0.70989401478 -3.34540149411 2.9668 0.590792961041 0.790541737146 -0.767785596447 -2.05059462623 0.579193429505 0.521193535724
13.0815642119 1.31258641787 -0.713605180963 -3.34493106408 2.9668 0.59075909779 0.79045712673 -0.765752610117 -2.04996960234 0.583924936501 0.523185446629
13.1106199794 1.31111417457 -0.717316493697 -3.34446132846 2.9668 0.590724602595 0.790367023118 -0.763723529914 -2.04935254944 0.588654945813 0.525177202851
13.1403684506 1.30958806474 -0.720955941844 -3.34400011082 2.9668 0.590731408713 0.790261340858 -0.761661630478 -2.0487652097 0.5933392109 0.527182044073
13.1688626087 1.30806122349 -0.724595519805 -3.34353954824 2.9668 0.590737896731 0.790150265011 -0.759603786317 -2.04818570112 0.598022044946 0.529187074027
13.1962458464 1.30653367672 -0.728235218802 -3.3430796412 2.9668 0.590744140312 0.790033842272 -0.757549995183 -2.04761395637 0.602703465243 0.531192350948
13.2225614219 1.30500543865 -0.73187503174 -3.34262038364 2.9668 0.590750219966 0.789912123815 -0.755500255857 -2.04704990879 0.607383483873 0.533197935398
13.2481038104 1.30347652344 -0.735514951469 -3.34216176952 2.9668 0.590756215154 0.789785160511 -0.753454567228 -2.04649349175 0.612062112705 0.535203887149
13.2728956799 1.30194694522 -0.739154970784 -3.34170379291 2.9668 0.590762204312 0.789653002947 -0.751412928269 -2.04594463863 0.616739363414 0.537210265186
13.2969590335 1.30041671806 -0.742795082424 -3.34124644791 2.9668 0.590768264875 0.789515701446 -0.749375338021 -2.04540328279 0.621415247493 0.53921712772
13.3210029319 1.29883417565 -0.746360584546 -3.34079877487 2.9668 0.590816983405 0.789362723207 -0.74730593471 -2.04489091751 0.62604314227 0.541239597851
13.3443401479 1.29725102976 -0.749926154355 -3.34035169143 2.9668 0.590866066931 0.789204705762 -0.745240740612 -2.0443858845 0.630669753132 0.543262865405
13.3669913872 1.29566730515 -0.753491782188 -3.33990519803 2.9668 0.590915581533 0.78904169454 -0.743179753542 -2.04388811499 0.635295096641 0.545286981928
13.3891966185 1.29408301572 -0.757057460041 -3.33945928882 2.9668 0.590965600026 0.788873739345 -0.741122972655 -2.04339754085 0.639919184192 0.547312001244
13.4109645755 1.29249817529 -0.760623179859 -3.33901395794 2.9668 0.591016194356 0.788700889834 -0.739070397056 -2.04291409389 0.644542027076 0.549337976452
13.4323038213 1.29091279765 -0.764188933542 -3.33856919961 2.9668 0.591067435618 0.788523195523 -0.737022025785 -2.04243770584 0.649163636487 0.55136495994
13.4532227505 1.28932689654 -0.767754712936 -3.33812500806 2.9668 0.591119394065 0.788340705809 -0.734977857808 -2.04196830839 0.653784023534 0.553393003384
13.4743082384 1.28769028606 -0.771243179526 -3.33769162002 2.9668 0.591215298514 0.788142513879 -0.732902957353 -2.04152701346 0.658354319991 0.555439015931
13.4949782202 1.2860531976 -0.774731639487 -3.33725875357 2.9668 0.591312195536 0.787939640316 -0.730832426132 -2.04109251802 0.662923494845 0.55748637129
13.5152408209 1.28441565482 -0.778220082364 -3.33682640897 2.9668 0.591410144875 0.787732130395 -0.728766260732 -2.04066475153 0.667491564573 0.55953511488
13.535104022 1.28277767127 -0.781708499326 -3.3363945804 2.9668 0.59150921279 0.787520033649 -0.726704459357 -2.04024364403 0.67205854051 0.561585294313
13.5551656552 1.28113926044 -0.785196881496 -3.33596326205 2.9668 0.591609464793 0.787303399565 -0.724647020041 -2.03982912544 0.676624433955 0.56363695654
13.5756302707 1.27950043578 -0.788685219957 -3.33553244814 2.9668 0.591710965656 0.787082277604 -0.722593940641 -2.03942112563 0.681189256174 0.565690147862
13.5965059097 1.27786121069 -0.792173505745 -3.33510213291 2.9668 0.591813779423 0.786856717204 -0.720545218823 -2.03901957433 0.685753018408 0.56774491393
13.6173129411 1.27617293291 -0.795581820238 -3.3346837278 2.9668 0.591961758812 0.786615519379 -0.718466892368 -2.03864506861 0.690264740654 0.56981984195
13.6385376176 1.2744842998 -0.798990042298 -3.33426577272 2.9668 0.59211130915 0.78637000879 -0.716393089818 -2.03827679432 0.694775522684 0.571896597784
13.660188253 1.27279533388 -0.802398160778 -3.33384826765 2.9668 0.59226248466 0.786120231352 -0.714323805524 -2.03791467907 0.699285381234 0.573975221202
13.6822733337 1.27110604832 -0.805806166105 -3.33343120672 2.9668 0.592415345775 0.785866237101 -0.712259035695 -2.037558651 0.703794327916 0.576055754067
13.7048015118 1.26941645624 -0.809214048671 -3.33301458408 2.9668 0.592569952261 0.78560807611 -0.710198776283 -2.03720863811 0.708302374347 0.578138237642
13.7277816128 1.26772657072 -0.812621798828 -3.33259839388 2.9668 0.592726363217 0.785345798498 -0.708143022971 -2.03686456832 0.712809532141 0.580222712586
13.7514570476 1.26603640476 -0.816029406892 -3.33218263029 2.9668 0.592884637086 0.785079454435 -0.706091771169 -2.03652636946 0.717315812925 0.582309218968
13.7751251933 1.26429888934 -0.819354433487 -3.33177985688 2.9668 0.593089223938 0.784797641593 -0.704012065771 -2.03621399123 0.721768260295 0.584417903858
13.7995138247 1.26256113766 -0.822679271172 -3.33137745791 2.9668 0.593295914419 0.784511901865 -0.701937024344 -2.0359072419 0.726219969528 0.58652884369
13.824644561 1.26082317109 -0.82600390821 -3.330975433 2.9668 0.593504757737 0.78422228235 -0.699866638241 -2.03560604734 0.730670957722 0.588642073011
13.85079875 1.25908500237 -0.829328334381 -3.33057377623 2.9668 0.593715808939 0.783928834126 -0.697800900879 -2.03531033387 0.735121236875 0.590757628354
13.8780178684 1.25734664417 -0.832652539436 -3.33017248165 2.9668 0.593929122454 0.783631608361 -0.695739805353 -2.03502002774 0.739570819001 0.592875545696
13.9063450756 1.25560810913 -0.835976513092 -3.32977154333 2.9668 0.594144752093 0.783330656321 -0.693683344426 -2.03473505512 0.744019716129 0.594995860465
13.9361200672 1.25386940981 -0.839300245036 -3.32937095534 2.9668 0.594362751051 0.783026029372 -0.691631510524 -2.03445534206 0.748467940302 0.597118607546
13.9668471754 1.25208510615 -0.842538837536 -3.3289844102 2.9668 0.594628131343 0.782706216204 -0.689552376263 -2.03420006155 0.752860694103 0.599265365967
13.9959221048 1.25030068091 -0.84577713489 -3.32859815977 2.9668 0.594896103769 0.782382882837 -0.687478024156 -2.0339497754 0.757252932274 0.601414750863
14.0235874747 1.24851615422 -0.849015124878 -3.32821220333 2.9668 0.595166712803 0.782056077902 -0.685408442016 -2.03370440801 0.761644672184 0.603566791951
14.0501746793 1.24673153832 -0.852252796729 -3.32782653487 2.9668 0.595440008345 0.781725853864 -0.683343619891 -2.03346388423 0.766035926139 0.605721520814
14.075725564 1.24494684539 -0.85549013965 -3.32744114837 2.9668 0.595716039702 0.781392263315 -0.681283547458 -2.03322812883 0.770426706451 0.607878968528
14.1002803563 1.24316208753 -0.858727142822 -3.32705603782 2.9668 0.59599485559 0.781055358976 -0.679228214025 -2.03299706652 0.774817025442 0.610039165664
14.1255799308 1.24137727679 -0.861963795401 -3.3266711972 2.9668 0.596276504133 0.7807151937 -0.67717760852 -2.03277062194 0.779206895443 0.6122021423
14.1509899426 1.23954864387 -0.865112806955 -3.32630142455 2.9668 0.596606514592 0.780360245634 -0.675100840092 -2.03256706678 0.783539811863 0.614390772394
14.1774318784 1.23771999869 -0.868261408375 -3.32593186295 2.9668 0.596939561661 0.780002207117 -0.673028944653 -2.03236784332 0.787872453752 0.616582347081
14.2049473647 1.23589136011 -0.871409587059 -3.32556251139 2.9668 0.597275685211 0.779641128511 -0.670961906133 -2.03217287493 0.792204838514 0.618776891617
14.2338661285 1.23406273977 -0.874557331785 -3.3251933638 2.9668 0.597614930087 0.779277063863 -0.668899710825 -2.03198208536 0.796536978523 0.620974433002
14.2645634786 1.23223414926 -0.877704631317 -3.32482441412 2.9668 0.597957340556 0.778910067367 -0.666842344627 -2.03179539832 0.800868886145 0.623174997771
14.2974744487 1.2304056001 -0.8808514744 -3.32445565629 2.9668 0.598302960305 0.778540193366 -0.664789793042 -2.03161273751 0.805200573736 0.625378612002
14.3331112831 1.22857710373 -0.88399784976 -3.32408708425 2.9668 0.598651832443 0.778167496353 -0.662742041174 -2.03143402659 0.809532053636 0.62758530132
14.3710219045 1.22670659941 -0.887054143391 -3.32373457806 2.9668 0.599049949262 0.777780545069 -0.660669232971 -2.03127651787 0.813805244924 0.629819089169
14.4060532775 1.22483618586 -0.890109904215 -3.32338219585 2.9668 0.599451502371 0.777390957145 -0.658601357445 -2.03112265502 0.818078418245 0.632056088494
14.4425049563 1.22296588055 -0.893165119351 -3.32302993632 2.9668 0.599856527065 0.776998784748 -0.656538394467 -2.03097236088 0.822351590665 0.634296320446
14.4823690784 1.2210956945 -0.896219777231 -3.32267779341 2.9668 0.600265063135 0.776604083585 -0.654480326369 -2.03082555859 0.826624774278 0.636539807797
14.5264008052 1.21922563861 -0.899273866276 -3.32232576107 2.9668 0.6006771498 0.776206909518 -0.652427135075 -2.03068217131 0.83089798114 0.638786572899
14.5767524671 1.21735572374 -0.902327374895 -3.32197383326 2.9668 0.601092825704 0.775807318567 -0.650378802107 -2.03054212223 0.83517122326 0.641036637688
14.6207772998 1.21548596062 -0.905380291485 -3.32162200392 2.9668 0.601512128911 0.775405366908 -0.648335308583 -2.03040533453 0.839444512604 0.643290023693
14.6661159536 1.21357603094 -0.908340751229 -3.32128721186 2.9668 0.601981450985 0.774989816368 -0.646267822284 -2.03028793102 0.843658318403 0.645571750734
14.7068232596 1.21166628777 -0.911300548932 -3.32095245391 2.9668 0.602454562912 0.774572107037 -0.644205294904 -2.03017347013 0.847872374075 0.647856907148
14.7440396209 1.20975674721 -0.914259671534 -3.32061772856 2.9668 0.602931495365 0.774152292874 -0.642147702242 -2.0300618747 0.85208669588 0.650145510337
14.7816239563 1.20784741952 -0.917218107221 -3.32028302984 2.9668 0.603412283028 0.773730431226 -0.640095022608 -2.0299530678 0.856301295185 0.652437579199
14.822592981 1.20593831488 -0.920175844173 -3.31994835175 2.9668 0.603896960009 0.7733065796 -0.63804723391 -2.02984697261 0.860516183278 0.654733132256
14.8601683362 1.20402944338 -0.923132870565 -3.31961368833 2.9668 0.60438555984 0.772880795656 -0.63600431366 -2.02974351234 0.864731371365 0.657032187657
14.8952110842 1.20212081501 -0.926089174566 -3.31927903361 2.9668 0.604878115472 0.772453137211 -0.633966238972 -2.02964261028 0.868946870563 0.659334763186
14.9288432964 1.20017388374 -0.92895071708 -3.31896236228 2.9668 0.605421344574 0.77201266175 -0.631905182598 -2.02955915885 0.873101821163 0.661666715105
14.9649416696 1.19822722658 -0.93181146291 -3.31864563315 2.9668 0.60596866936 0.771570528531 -0.629849077004 -2.02947793562 0.877257295719 0.664002267687
15.0040252364 1.19628085822 -0.934671398917 -3.31832884461 2.9668 0.606520115798 0.771126793212 -0.627797894021 -2.02939886397 0.881413309155 0.666341434939
15.0471911919 1.19433478812 -0.937530513138 -3.31801199082 2.9668 0.607075713377 0.770681514694 -0.625751608014 -2.02932186753 0.885569871596 0.668684232241
15.0957726677 1.19238902565 -0.940388793614 -3.31769506596 2.9668 0.607635491006 0.770234752026 -0.623710192962 -2.02924687004 0.889726993043 0.671030674642
15.1389247713 1.19044358008 -0.943246228384 -3.31737806419 2.9668 0.608199477011 0.769786564406 -0.621673622463 -2.02917379535 0.893884683368 0.67338077686
15.1829368535 1.18849846058 -0.946102805489 -3.31706097971 2.9668 0.608767699133 0.769337011178 -0.619641869736 -2.0291025674 0.89804295231 0.67573455329
15.2347031192 1.1865169194 -0.948862391959 -3.31676280067 2.9668 0.609387118906 0.768875546911 -0.617588087082 -2.02904675771 0.90213972549 0.678118530763
15.2797245463 1.18453573105 -0.951621042862 -3.31646447078 2.9668 0.610010890763 0.76841294756 -0.615539212927 -2.02899245716 0.906237297313 0.680506236115
15.3202994423 1.18255490875 -0.954378745073 -3.31616598837 2.9668 0.610639035867 0.767949270336 -0.613495215356 -2.02893959032 0.910335680784 0.682897680313
15.3608666627 1.18057446112 -0.957135486582 -3.31586734783 2.9668 0.611271578418 0.767484575538 -0.611456064971 -2.02888808192 0.914434884228 0.685292875583
15.405669443 1.17859439665 -0.959891255384 -3.31556854356 2.9668 0.611908542024 0.767018923603 -0.609421732019 -2.02883785687 0.918534915795 0.687691833858
15.4566547502 1.17661472376 -0.962646039482 -3.31526956996 2.9668 0.612549949709 0.766552375103 -0.607392186386 -2.02878884023 0.922635783458 0.690094566788
15.5014396231 1.17463545072 -0.965399826885 -3.31497042145 2.9668 0.613195823902 0.766084990744 -0.605367397608 -2.02874095723 0.926737495007 0.692501085739
15.5501781365 1.17262165036 -0.968054475085 -3.31469107787 2.9668 0.613893279145 0.765606721301 -0.603321466853 -2.02870637907 0.93077686815 0.694938417237
15.59347878 1.17060827196 -0.970708045765 -3.31441149007 2.9668 0.614595291825 0.765127858974 -0.601280369439 -2.0286725931 0.93481730917 0.697379562454
15.6331027722 1.16859532732 -0.973360525906 -3.31413165643 2.9668 0.615301878199 0.764648462332 -0.599244070009 -2.02863952562 0.938858828552 0.699824529681
15.6696868402 1.16658282413 -0.97601190354 -3.31385157163 2.9668 0.616013057083 0.764168592875 -0.597212535682 -2.02860710308 0.942901432235 0.702273328353
15.7041429966 1.16457077 -0.978662166717 -3.31357123036 2.9668 0.616728846698 0.763688312221 -0.595185733248 -2.02857525213 0.946945125938 0.704725967657
15.7365948896 1.16255917241 -0.981311303494 -3.31329062734 2.9668 0.617449264672 0.763207682107 -0.593163629176 -2.02854389961 0.950989915147 0.707182456537
15.7671589896 1.16054803875 -0.983959301946 -3.3130097573 2.9668 0.618174328037 0.762726764386 -0.591146189614 -2.0285129726 0.955035805117 0.709642803697
15.7990356076 1.15850428105 -0.986506098316 -3.31274957058 2.9668 0.618951205479 0.762236101763 -0.5891084299 -2.02849317456 0.959018604206 0.712134360445
15.8294763403 1.15646100441 -0.989051673299 -3.31248904683 2.9668 0.619732793253 0.761745405392 -0.587075397601 -2.02847346054 0.963002728689 0.714629778249
15.858722251 1.15441821915 -0.991596014068 -3.31222818452 2.9668 0.620519102621 0.761254734964 -0.585047054294 -2.02845375911 0.966988185925 0.717129063085
15.8868201429 1.15237593205 -0.994139108792 -3.31196697871 2.9668 0.621310146942 0.760764152936 -0.583023363956 -2.02843399899 0.970974978886 0.71963222197
15.9140849393 1.15033414978 -0.996680945662 -3.31170542447 2.9668 0.622105938979 0.760273721866 -0.581004290278 -2.02841410913 0.97496311027 0.722139261714
15.94244969 1.14829287888 -0.999221512886 -3.31144351687 2.9668 0.622906490897 0.759783504407 -0.578989796661 -2.02839401872 0.978952582502 0.724650188925
15.971958674 1.14625212581 -1.00176079869 -3.31118125104 2.9668 0.623711814261 0.759293563306 -0.576979846225 -2.02837365723 0.982943397717 0.727165010016
16.0031280199 1.14418065712 -1.00419691031 -3.31094052727 2.9668 0.624569025777 0.758795124488 -0.574950330938 -2.02836220537 0.986870444809 0.729711223112
16.0358789386 1.14210971814 -1.00663165589 -3.31069937498 2.9668 0.625431046961 0.758297224986 -0.572925409166 -2.02835014461 0.990799056817 0.732261309122
16.0706356561 1.14003931778 -1.00906502288 -3.31045779283 2.9668 0.626297884016 0.75779992535 -0.570905039839 -2.02833740635 0.99472923738 0.734815272078
16.1078897627 1.13796946186 -1.01149699969 -3.31021577629 2.9668 0.627169544799 0.757303288719 -0.568889184194 -2.02832392207 0.998660985938 0.737373116949
16.1483514787 1.13590015612 -1.01392757472 -3.30997332086 2.9668 0.628046036572 0.756807378309 -0.566877803216 -2.02830962356 1.00259430161 0.739934848539
16.1855856807 1.13383140616 -1.01635673642 -3.30973042206 2.9668 0.628927366 0.756312257407 -0.564870857645 -2.02829444289 1.0065291832 0.742500471494
16.2203052691 1.13176321748 -1.01878447327 -3.30948707544 2.9668 0.629813539147 0.755817989371 -0.562868307979 -2.02827831241 1.01046562915 0.745069990303
16.2535852396 1.12966622324 -1.0211071596 -3.30926611128 2.9668 0.630751508201 0.755316569224 -0.560846883496 -2.02826884784 1.01433768987 0.747670869901
16.2851301253 1.12756979676 -1.02342833557 -3.30904462915 2.9668 0.631694331997 0.754816272034 -0.558829893963 -2.02825810295 1.01821153091 0.750275601959
16.3154358209 1.12547394556 -1.02574798898 -3.30882262793 2.9668 0.63264201164 0.754317158908 -0.556817296117 -2.02824601241 1.02208715165 0.75288418893
16.3445509377 1.12337867452 -1.02806610854 -3.30860010357 2.9668 0.633594549479 0.753819293364 -0.554809048883 -2.028232511 1.02596454747 0.755496634106
16.37252218 1.12128398842 -1.03038268298 -3.30837705203 2.9668 0.634551947274 0.753322738969 -0.552805110974 -2.0282175338 1.02984371337 0.758112940657
16.4013328679 1.11918989195 -1.03269770107 -3.30815346933 2.9668 0.635514206187 0.752827559332 -0.550805440903 -2.02820101621 1.03372464401 0.760733111634
16.4313048801 1.11709638966 -1.0350111516 -3.30792935147 2.9668 0.636481326785 0.752333818102 -0.548809996977 -2.02818289397 1.03760733365 0.763357149974
16.4628945844 1.11497599045 -1.03721777596 -3.30772843929 2.9668 0.637499978757 0.751834358983 -0.546796305662 -2.02816918843 1.04142506617 0.76601230637
16.4960863626 1.11285618642 -1.03942274701 -3.30752692229 2.9668 0.638523476034 0.751336613367 -0.544786869741 -2.02815355848 1.04524476454 0.768671265728
16.5313101082 1.11073698372 -1.04162605299 -3.30732479961 2.9668 0.639551814627 0.750840642604 -0.542781644229 -2.02813594251 1.04906642337 0.771334029285
16.5686901452 1.10861838633 -1.04382768299 -3.30712206769 2.9668 0.640584991416 0.750346510257 -0.540780586183 -2.02811627899 1.05289003349 0.774000599025
16.6089772487 1.10650039812 -1.04602762615 -3.30691872302 2.9668 0.641623002693 0.749854279906 -0.538783652497 -2.02809450673 1.05671558534 0.776670976847
16.646335722 1.10438302283 -1.04822587163 -3.30671476211 2.9668 0.642665844168 0.749364015147 -0.536790799901 -2.02807056489 1.06054306895 0.779345164574
16.6815188476 1.10226626411 -1.05042240864 -3.3065101815 2.9668 0.643713510959 0.748875779584 -0.534801984963 -2.02804439301 1.06437247393 0.782023163954
16.7153449595 1.10012451308 -1.05251044923 -3.30632961343 2.9668 0.644812267874 0.748383338027 -0.532795491257 -2.02802040165 1.06813638085 0.784731830334
16.7475626319 1.09798337411 -1.05459669596 -3.30614835675 2.9668 0.645915806418 0.747893203503 -0.530793056295 -2.02799387448 1.07190240399 0.787444224477
16.7785142601 1.09584285211 -1.05668113758 -3.30596641083 2.9668 0.647024117552 0.747405437255 -0.52879463384 -2.02796475399 1.07567053276 0.790160346757
16.8082495511 1.09370295017 -1.05876376364 -3.30578377267 2.9668 0.648137192771 0.746920102539 -0.526800179539 -2.02793298272 1.07944075304 0.792880198207
16.8368162623 1.09156367125 -1.06084456376 -3.30560043927 2.9668 0.649255022992 0.746437262592 -0.524809648912 -2.02789850357 1.08321305029 0.795603779814
16.8656601977 1.08942501824 -1.06292352758 -3.30541640765 2.9668 0.650377598564 0.745956980635 -0.522822997357 -2.02786125983 1.08698740952 0.798331092525
16.8956664907 1.08728699391 -1.06500064479 -3.30523167488 2.9668 0.651504909259 0.745479319866 -0.520840180155 -2.02782119517 1.09076381532 0.801062137251
16.9272284341 1.08512587555 -1.06696770529 -3.30507174583 2.9668 0.652682689358 0.744999030749 -0.518840198682 -2.02778110568 1.09447419968 0.803823193822
16.9603908561 1.08296537595 -1.06893283472 -3.30491104767 2.9668 0.653865133992 0.744521641015 -0.516844066207 -2.02773790654 1.09818681087 0.806587880624
16.9952348535 1.08080549883 -1.07089602242 -3.30474958004 2.9668 0.655052229168 0.744047211448 -0.514851735697 -2.02769154461 1.10190163271 0.809356197507
17.0322117595 1.07864624644 -1.0728572585 -3.30458734046 2.9668 0.656243961132 0.743575804618 -0.512863161832 -2.0276419668 1.1056186458 0.812128144897
17.0717001235 1.07648762091 -1.0748165331 -3.30442432646 2.9668 0.657440315569 0.743107483046 -0.510878299201 -2.02758912044 1.10933783032 0.81490372321
17.1086555256 1.0743296243 -1.07677383642 -3.3042605356 2.9668 0.658641277615 0.742642309203 -0.508897102312 -2.02753295321 1.11305916593 0.817682932858
17.1434590088 1.07217225854 -1.07872915873 -3.30409596544 2.9668 0.659846831846 0.742180345497 -0.50691952559 -2.02747341324 1.11678263186 0.820465774251
17.1767526796 1.06999368896 -1.08057297828 -3.30395697473 2.9668 0.661102054308 0.741717384037 -0.50492525032 -2.02741169084 1.12043955855 0.823277773406
17.2085604967 1.06781573508 -1.08241473381 -3.30381713786 2.9668 0.662361772199 0.741257908804 -0.502934605176 -2.0273463267 1.124098779 0.826093286274
17.2391185066 1.06563839954 -1.08425441532 -3.3036764547 2.9668 0.663625966719 0.740801979747 -0.500947542773 -2.02727727231 1.12776027121 0.828912312501
17.2684757921 1.0634616838 -1.08609201352 -3.30353492328 2.9668 0.664894619054 0.740349658364 -0.498964017244 -2.02720447919 1.13142401026 0.83173485223
17.2969615542 1.06128558925 -1.08792751917 -3.30339254164 2.9668 0.666167709857 0.739901006075 -0.496983982674 -2.02712789929 1.13508997078 0.834560905629
