liuchen18/hilsys_old/sim_sys/data/fwx_planned_trajectory.txt
this is the FWX joint values,the following info is time,x,y,theta,joint1,joint2,joint3,joint4,joint5,joint6,joint7
0.0 -1.60364128675 -0.00478642585956 -0.285788386217 2.50546289271 0.562862194834 -1.18701894408 -1.06051575266 2.50115272813 -0.567447016916 2.78162036699
0.138739150119 -1.60352613561 0.000318837852198 -0.279449454005 2.49278502829 0.587166760081 -1.19859774761 -1.05439764994 2.53104420811 -0.539802623852 2.87720567171
0.258354119199 -1.60329982962 0.00554107711855 -0.273051044313 2.4799882089 0.611559017246 -1.20975742185 -1.04905780745 2.56280840962 -0.5124557442 2.971556198
0.484965477882 -1.60231243619 0.0125418488437 -0.264595640663 2.4630774016 0.638366197252 -1.2234413174 -1.04231833207 2.61073314737 -0.478465760391 3.0540999774
0.687956370326 -1.59616408983 0.0303214625019 -0.242833290939 2.41955270215 0.676294171856 -1.25183354334 -1.02738563941 2.76321595639 -0.400480692343 3.05409912201
0.836931059484 -1.5890536052 0.0447745741139 -0.2248866746 2.38365946947 0.696352409586 -1.26401814299 -1.03443542274 2.89390376033 -0.329468356117 3.05409933293
0.976030513969 -1.57608690555 0.0578500712186 -0.203635573689 2.34115726765 0.668412194625 -1.23683068427 -1.07274262425 2.96679958581 -0.230154210161 3.05409945021
3.35626270561 -1.48796914391 -0.12481720735 1.68844111424 2.92993340993 0.310053601733 0.258309993508 0.460526822822 1.31407852949 0.371431040426 -0.295680476248
3.41172970163 -1.48423967418 -0.130938839042 1.67906075164 2.94869413512 0.320244112953 0.274404134909 0.446717703423 1.33115215024 0.37358618625 -0.271129946198
3.50723044708 -1.48054684311 -0.136500836759 1.66950926107 2.9668 0.329181072445 0.290391092223 0.432148561571 1.3485768655 0.375970630301 -0.246571868599
3.57834106122 -1.47726823998 -0.142264624005 1.65734549016 2.96679999991 0.336262447039 0.310185467649 0.416442439948 1.37101274902 0.378786283543 -0.217652594225
3.63087419591 -1.47400434017 -0.147618459485 1.64512083798 2.96679999991 0.342470987551 0.329703108385 0.400003737115 1.39344259845 0.381942921419 -0.188727069643
3.67477275487 -1.47075133857 -0.152562517163 1.632845727 2.96679999991 0.347937841386 0.348966667405 0.382869519779 1.41580496189 0.385386363398 -0.159763280468
3.72189868288 -1.46750905689 -0.157094255258 1.62052846562 2.96679999991 0.352767126321 0.367994350431 0.365065725124 1.43805041524 0.389067068414 -0.130736187756
3.78131288554 -1.46428044808 -0.1612095117 1.60817563 2.96679999992 0.357041570714 0.386801061403 0.346610664617 1.46013803496 0.39293896285 -0.101625198041
3.88330586189 -1.46107116319 -0.164903310677 1.59579239467 2.96679999992 0.360827258351 0.405399579538 0.327518141833 1.4820330548 0.396957934375 -0.0724127525665
3.98801043617 -1.46234267526 -0.169167806073 1.59455045578 2.9668 0.347862999473 0.398644012774 0.315317129111 1.48129413247 0.40674032981 -0.069567470715
4.03559039583 -1.46353649984 -0.173607991461 1.5933603289 2.9668 0.335778642321 0.39227188979 0.303959274363 1.48064345849 0.416721900219 -0.0668473513181
4.0715565298 -1.46465585618 -0.17819822401 1.59222046329 2.9668 0.324525899814 0.386270073615 0.293400782482 1.48006961951 0.426805960143 -0.0642585416624
4.10132678807 -1.46570476561 -0.182915124757 1.59112877583 2.9668 0.314050355589 0.38062156778 0.283590973079 1.47956244927 0.43691062402 -0.0618034585181
4.12716178001 -1.46668766169 -0.187737861925 1.59008288081 2.9668 0.304295164476 0.375306999821 0.274475821562 1.47911298819 0.446968320755 -0.0594815449157
4.14998874963 -1.46760913877 -0.192648212599 1.58908024166 2.9668 0.29520352587 0.370305777305 0.266000653222 1.47871342379 0.456924725169 -0.0572899936982
4.17073930181 -1.46847376834 -0.197630462009 1.58811828407 2.9668 0.286720412647 0.365596976171 0.258112058165 1.47835699425 0.466737264433 -0.0552243869058
4.18977120793 -1.46928597361 -0.202671206391 1.5871944753 2.9668 0.278793681677 0.361159984194 0.25075914967 1.47803787559 0.476373468908 -0.0532792283761
4.20865973792 -1.47004995037 -0.20775910885 1.58630637661 2.9668 0.271374706784 0.356974939014 0.243894309385 1.47775106613 0.485809345109 -0.0514483674512
4.22796548167 -1.47076962246 -0.212884641964 1.58545167502 2.9668 0.264418664218 0.35302300421 0.237473554776 1.47749227641 0.495027874106 -0.0497253233068
4.24769321456 -1.47144862207 -0.218039838143 1.5846282002 2.9668 0.257884578714 0.349286523733 0.231456643014 1.47725782879 0.504017685101 -0.0481035246347
4.26805268792 -1.47209028697 -0.223218059436 1.5838339309 2.9668 0.251735213855 0.345749088803 0.225807000768 1.47704456841 0.51277191891 -0.0465764805851
4.28932456467 -1.4726976686 -0.228413792185 1.58306699452 2.9668 0.245936868345 0.342395544303 0.220491546391 1.47684978583 0.521287275367 -0.0451378978424
4.30896221659 -1.4732735469 -0.233622467933 1.58232566214 2.9668 0.240459121573 0.339211955247 0.215480451791 1.47667115051 0.529563227791 -0.043781756664
4.32937057646 -1.47382044867 -0.238840309667 1.58160834107 2.9668 0.235274557909 0.336185548402 0.210746876383 1.47650665419 0.53760138323 -0.0425023564126
4.35105958017 -1.47434066756 -0.24406420128 1.5809135659 2.9668 0.230358488817 0.333304639808 0.206266694436 1.47635456288 0.545404966434 -0.041294338918
4.37461342777 -1.47483628429 -0.249291577594 1.58023998902 2.9668 0.225688684625 0.330558555643 0.202018229187 1.47621337626 0.552978406896 -0.0401526960981
4.39698043239 -1.47530918626 -0.254520332199 1.57958637118 2.9668 0.221245122712 0.327937551442 0.197982001617 1.47608179346 0.560327010551 -0.0390727667042
4.42187191501 -1.47576108611 -0.259748740519 1.57895157222 2.9668 0.217009755521 0.325432732891 0.194140498027 1.47595868416 0.567456700331 -0.0380502257993
4.44755577336 -1.47615904118 -0.264888006719 1.57836096186 2.9668 0.213284741885 0.323212472935 0.190766710368 1.47583899638 0.573583349794 -0.0371748831935
4.47026126988 -1.47654100942 -0.270022702903 1.57778532415 2.9668 0.209716048515 0.321080415899 0.187537455733 1.47572536754 0.579526190669 -0.0363432645768
4.49072731659 -1.47690810392 -0.275152190807 1.57722389668 2.9668 0.206292225624 0.319030758277 0.18444174352 1.47561712419 0.585291530981 -0.0355523603026
4.5096063751 -1.4772613493 -0.280275981415 1.57667596666 2.9668 0.203002849659 0.317058196521 0.181469670253 1.47551368811 0.590885633629 -0.0347994195936
4.52719434522 -1.47760168074 -0.285393699716 1.57614087364 2.9668 0.199838449336 0.315157868372 0.178612259254 1.47541455091 0.596314669211 -0.0340819087871
4.54374244134 -1.47792995302 -0.290505065286 1.57561800485 2.9668 0.196790404644 0.31332531092 0.175861360659 1.47531926484 0.601584679217 -0.0333974935518
4.55946719605 -1.47824694854 -0.295609876126 1.57510679107 2.9668 0.193850857478 0.311556422821 0.173209563052 1.47522743487 0.606701549452 -0.0327440222986
4.57455856797 -1.47855338453 -0.300707995197 1.57460670283 2.9668 0.191012632554 0.309847430293 0.170650115381 1.47513871193 0.611670991497 -0.0321195108001
4.5896298836 -1.47884991945 -0.305799339173 1.57411724704 2.9668 0.188269167418 0.30819485656 0.168176857951 1.47505278704 0.616498530432 -0.0315221280102
4.60529216541 -1.47913715862 -0.310883869058 1.57363796386 2.9668 0.185614450438 0.306595494386 0.165784161388 1.47496938636 0.621189497453 -0.0309501830431
4.62173131245 -1.4794156594 -0.315961582335 1.573168424 2.9668 0.183042965834 0.305046381411 0.163466872627 1.47488826682 0.625749026264 -0.0304021132453
4.63898591953 -1.47968593564 -0.321032506401 1.57270822614 2.9668 0.180549644882 0.303544777977 0.161220267058 1.47480921238 0.630182052364 -0.029876473303
4.65727769716 -1.47994846177 -0.326096693066 1.57225699469 2.9668 0.178129822562 0.3020881472 0.159040006084 1.47473203078 0.634493314553 -0.0293719253014
4.67686314523 -1.48020367643 -0.33115421395 1.57181437772 2.9668 0.175779198975 0.300674137047 0.156922099433 1.47465655071 0.638687358085 -0.028887229669
4.69825560064 -1.48045198569 -0.336205156621 1.57138004511 2.9668 0.173493804969 0.299300564187 0.154862871641 1.47458261939 0.642768539055 -0.0284212369337
4.72209701631 -1.48069376598 -0.34124962136 1.57095368684 2.9668 0.171269971462 0.297965399455 0.152858932214 1.47451010038 0.646741029659 -0.0279728802167
4.74970420547 -1.4809293667 -0.346287718447 1.57053501144 2.9668 0.169104302039 0.296666754736 0.150907149011 1.47443887172 0.650608824077 -0.0275411684039
4.77992464968 -1.48115911254 -0.35131956589 1.57012374464 2.9668 0.166993648415 0.295402871122 0.14900462448 1.47436882432 0.654375744752 -0.0271251799344
4.80589908398 -1.48135174698 -0.35648783145 1.56973372588 2.9668 0.165218882551 0.294326102472 0.147404150066 1.47427870635 0.656803396557 -0.0268111727009
4.82865184042 -1.48154036325 -0.361650334671 1.5693492956 2.9668 0.163481361813 0.293272961498 0.14583628481 1.47418977021 0.659163406268 -0.0265075662918
4.84922734506 -1.48172515926 -0.366807256501 1.56897028534 2.9668 0.161779217363 0.292242424123 0.144299352028 1.47410194244 0.661458397122 -0.0262138084307
4.86820857832 -1.48190632129 -0.371958777295 1.56859653293 2.9668 0.160110703387 0.291233538812 0.142791801578 1.47401516202 0.663690854614 -0.0259293880317
4.88589475671 -1.48208402321 -0.377105072063 1.56822788494 2.9668 0.15847419191 0.290245414325 0.141312189228 1.47392937369 0.66586314495 -0.0256538288679
4.90253956597 -1.4822584275 -0.382246310415 1.56786419614 2.9668 0.156868163009 0.28927721501 0.139859167749 1.47384452731 0.66797752158 -0.025386686723
4.91884088089 -1.48242968616 -0.38738265656 1.56750532892 2.9668 0.155291195982 0.288328156513 0.138431478888 1.47376057734 0.670036131366 -0.0251275468146
4.93595793826 -1.48259794155 -0.39251426934 1.56715115277 2.9668 0.153741961355 0.287397501886 0.137027946121 1.47367748236 0.672041020413 -0.0248760214537
4.95411182275 -1.48276332712 -0.397641302292 1.56680154381 2.9668 0.152219213647 0.286484558036 0.135647468096 1.47359520465 0.673994139564 -0.0246317479183
4.97355842098 -1.48292596815 -0.402763903738 1.5664563844 2.9668 0.15072178481 0.285588672495 0.134289012693 1.47351370977 0.675897349583 -0.0243943865205
4.99480907527 -1.48308598229 -0.407882216887 1.5661155627 2.9668 0.149248578267 0.284709230461 0.132951611634 1.47343296629 0.677752426033 -0.0241636188447
5.01849853337 -1.4832434802 -0.412996379957 1.56577897231 2.9668 0.147798563492 0.283845652097 0.13163435559 1.47335294545 0.679561063872 -0.0239391461425
5.04570756746 -1.48339856605 -0.418106526301 1.56544651196 2.9668 0.146370771073 0.282997390062 0.130336389728 1.4732736209 0.681324881777 -0.0237206878653
5.07927190044 -1.48355133795 -0.423212784545 1.56511808514 2.9668 0.144964288209 0.282163927242 0.129056909648 1.47319496848 0.683045426215 -0.023507980326
5.12945642551 -1.48370188844 -0.428315278725 1.56479359989 2.9668 0.143578254594 0.281344774672 0.127795157686 1.47311696597 0.684724175274 -0.0233007754722
5.15992709407 -1.48378522644 -0.432867207191 1.56454342944 2.9668 0.14280471365 0.280870874277 0.127092018473 1.4730159879 0.684065979591 -0.023236932409
5.19767731714 -1.48386847813 -0.437421190915 1.56429423589 2.9668 0.142031888357 0.280398434035 0.126388924518 1.47291583957 0.683417658565 -0.0231733915558
5.22623881681 -1.48395163738 -0.441977181252 1.56404603034 2.9668 0.141259835714 0.279927496184 0.125685933376 1.47281650941 0.682778953007 -0.0231101702525
5.25026739958 -1.48403469816 -0.446535133125 1.5637988219 2.9668 0.14048861012 0.27945810423 0.124983098984 1.47271798879 0.682149607302 -0.0230472817387
5.27138930074 -1.48411765483 -0.451095003024 1.5635526192 2.9668 0.13971826241 0.278990299545 0.124280472179 1.4726202692 0.681529375492 -0.0229847382826
5.290518549 -1.48420050215 -0.45565674893 1.56330743046 2.9668 0.138948840077 0.278524121476 0.123578100878 1.47252334217 0.680918020814 -0.0229225512447
5.30819119698 -1.48428323521 -0.46022033025 1.56306326352 2.9668 0.138180387481 0.278059607456 0.122876030253 1.47242719933 0.680315315265 -0.0228607311366
5.32695845201 -1.48436584946 -0.464785707752 1.56282012581 2.9668 0.137412946034 0.277596793098 0.122174302885 1.47233183237 0.679721039195 -0.0227992876803
5.34749182812 -1.48444834063 -0.469352843504 1.56257802438 2.9668 0.136646554385 0.277135712295 0.121472958916 1.47223723308 0.679134980916 -0.0227382298548
5.37063807119 -1.48453070476 -0.473921700817 1.56233696597 2.9668 0.135881248584 0.276676397304 0.120772036189 1.47214339335 0.678556936339 -0.0226775659481
5.39752005803 -1.48461293815 -0.47849224419 1.56209695695 2.9668 0.135117062236 0.27621887883 0.120071570376 1.47205030513 0.677986708624 -0.0226173036005
5.43131983323 -1.48469503736 -0.483064439258 1.56185800339 2.9668 0.13435402665 0.275763186105 0.119371595101 1.47195796049 0.677424107854 -0.0225574498448
5.48739368398 -1.48477699919 -0.487638252747 1.56162011105 2.9668 0.133592170971 0.275309346963 0.118672142053 1.47186635154 0.676868950726 -0.0224980111481
5.52366235056 -1.48477211755 -0.491266065667 1.56148664105 2.9668 0.13363223416 0.275306042713 0.118719354745 1.47174383329 0.673068994369 -0.022608178837
5.55007617905 -1.48476890885 -0.494910154691 1.56135125326 2.9668 0.133657422002 0.275295010223 0.118753338331 1.47162196384 0.669325832421 -0.0227156456875
5.57203546403 -1.48476732959 -0.498570161718 1.56121400016 2.9668 0.13366809717 0.275276410347 0.118774381349 1.47150074804 0.665638321392 -0.0228204887188
5.5914123483 -1.48476733672 -0.502245738851 1.56107493281 2.9668 0.133664616718 0.275250404399 0.118782765413 1.47138019174 0.662005340446 -0.0229227804616
5.60902668107 -1.48476888823 -0.505936547313 1.56093410155 2.9668 0.133647330299 0.275217152443 0.118778767343 1.47126030055 0.658425793691 -0.0230225919964
5.62535889623 -1.48477194307 -0.509642257201 1.56079155601 2.9668 0.133616580202 0.275176813177 0.118762659149 1.47114107976 0.654898609729 -0.0231199929413
5.64311392936 -1.4847764612 -0.513362547249 1.56064734512 2.9668 0.133572701406 0.275129543832 0.118734708019 1.47102253442 0.651422741204 -0.0232150514385
5.66280174528 -1.48478240353 -0.517097104584 1.56050151705 2.9668 0.133516021637 0.275075500066 0.118695176316 1.47090466923 0.64799716434 -0.0233078341535
5.68529208924 -1.48478973194 -0.520845624502 1.56035411925 2.9668 0.133446861439 0.27501483589 0.118644321584 1.47078748866 0.644620878485 -0.023398406271
5.71260943901 -1.48479840924 -0.524607810239 1.56020519842 2.9668 0.133365534253 0.274947703588 0.118582396558 1.47067099686 0.641292905646 -0.0234868314963
5.75065523669 -1.48480839917 -0.52838337275 1.56005480055 2.9668 0.133272346493 0.274874253651 0.118509649188 1.4705551977 0.63801229003 -0.0235731720634
5.78816406972 -1.4847227507 -0.530398271684 1.56004966752 2.9668 0.134078976581 0.275322421063 0.119291713575 1.47042219874 0.631608080228 -0.023824640024
5.81411068524 -1.48463906635 -0.532446328677 1.56004157636 2.9668 0.134869274326 0.275763703025 0.120060650104 1.47028883197 0.62526396857 -0.0240745966596
5.83495989103 -1.48455734192 -0.534527135441 1.56003052442 2.9668 0.135643238825 0.27619798136 0.120816420964 1.47015511552 0.61897973864 -0.0243230020014
5.85292040144 -1.48447757216 -0.536640284413 1.56001651068 2.9668 0.136400878225 0.276625145297 0.121558995161 1.47002106783 0.612755152772 -0.0245698188641
5.86901963567 -1.4843997507 -0.538785368855 1.55999953575 2.9668 0.137142209362 0.277045091127 0.122288348247 1.4698867075 0.606589953805 -0.0248150128714
5.88449049079 -1.48432387023 -0.540961983102 1.55997960183 2.9668 0.137867257464 0.277457722168 0.123004462234 1.46975205328 0.600483866033 -0.0250585523598
5.90124199856 -1.48424992241 -0.543169722795 1.55995671265 2.9668 0.13857605588 0.27786294866 0.123707325462 1.46961712411 0.594436596131 -0.0253004083057
5.91992870072 -1.48417789803 -0.5454081851 1.55993087344 2.9668 0.1392686458 0.278260687622 0.12439693247 1.46948193905 0.588447834057 -0.0255405542733
5.94137061817 -1.48410778697 -0.547676968928 1.55990209086 2.9668 0.13994507597 0.278650862752 0.125073283862 1.46934651731 0.582517253948 -0.0257789663255
5.96783107316 -1.48403957829 -0.549975675128 1.559870373 2.9668 0.140605402403 0.279033404293 0.125736386164 1.4692108782 0.576644514993 -0.0260156229512
6.0090609798 -1.48397326026 -0.552303906685 1.55983572926 2.9668 0.141249688096 0.279408248906 0.126386251684 1.46907504113 0.57082926229 -0.0262505049824
6.04357403463 -1.48384628807 -0.552980977177 1.55990400015 2.96666345821 0.142494690019 0.280194796082 0.127630353732 1.46897820647 0.5634008565 -0.0265531499566
6.06930098513 -1.48372061582 -0.553698086346 1.55997047239 2.96653051372 0.14373019705 0.28097888526 0.128868373834 1.46887871506 0.556008359149 -0.0268571219352
6.09092029188 -1.48359627376 -0.554455049718 1.56003510445 2.96640124961 0.144955930267 0.281760224869 0.130100074728 1.46877655799 0.548652456529 -0.0271623403326
6.10982307941 -1.48347329109 -0.555251674529 1.56009785591 2.96627574668 0.146171617078 0.282538526139 0.131325221134 1.4686717275 0.541333808943 -0.0274687254508
6.1268493614 -1.48335169601 -0.556087759916 1.56015868742 2.96615408368 0.147376990967 0.283313503438 0.132543580443 1.46856421716 0.534053051479 -0.027776198833
6.14264817142 -1.48323151569 -0.55696309716 1.5602175607 2.96603633712 0.148571791861 0.284084874528 0.133754922833 1.46845402184 0.526810793799 -0.0280846833027
6.15730621838 -1.4831127762 -0.557877469928 1.56027443864 2.96592258123 0.149755766545 0.284852360793 0.134959021304 1.46834113773 0.51960761991 -0.0283941029604
6.17278203253 -1.48299550255 -0.55883065451 1.56032928527 2.96581288797 0.150928668638 0.285615687567 0.136155652229 1.46822556238 0.512444088363 -0.028704383419
6.18944768308 -1.48287971863 -0.559822420074 1.56038206579 2.96570732694 0.152090259037 0.286374584334 0.137344595291 1.46810729469 0.505320732048 -0.0290154517508
6.20757200206 -1.48276544728 -0.560852528907 1.56043274654 2.96560596543 0.153240305805 0.287128785043 0.138525634105 1.46798633502 0.498238058517 -0.0293272367441
6.22767653232 -1.48265271017 -0.561920736688 1.56048129511 2.96550886828 0.154378584639 0.287878028267 0.139698556062 1.4678626851 0.49119654981 -0.0296396688006
6.25102096823 -1.48254152792 -0.56302679273 1.56052768026 2.965416098 0.155504878751 0.288622057492 0.140863152902 1.46773634813 0.484196662812 -0.0299526801594
6.28010842317 -1.48243191998 -0.56417044026 1.56057187196 2.96532771459 0.156618979254 0.289360621265 0.14201922061 1.46760732871 0.477238829206 -0.0302662048143
6.30682472074 -1.48228643714 -0.564334646357 1.56067986591 2.96511172668 0.158106542365 0.290385995641 0.143558401216 1.46750919012 0.469310946035 -0.0306107905154
6.32942383388 -1.48214209022 -0.564543942508 1.5607861918 2.96489907492 0.15958747191 0.291411360586 0.145095442607 1.46740738726 0.461408596083 -0.0309573914352
6.34941968679 -1.48199892165 -0.564798251839 1.56089079194 2.96468987463 0.161061382051 0.292436339511 0.146630020646 1.46730188907 0.453532804773 -0.0313058998374
6.36764553328 -1.4818569732 -0.565097485489 1.56099360932 2.96448423987 0.162527889081 0.293460555276 0.148161809648 1.46719266636 0.445684576369 -0.0316562086121
6.3844216859 -1.48171628554 -0.565441542819 1.56109458779 2.96428228293 0.163986613029 0.294483630391 0.149690481307 1.46707969156 0.43786489223 -0.0320082109023
6.40017150941 -1.48157689856 -0.565830311474 1.56119367195 2.96408411461 0.165437176989 0.29550518764 0.151215706422 1.46696293909 0.43007471135 -0.032361800827
6.41510346822 -1.48143885108 -0.566263667578 1.56129080731 2.96388984389 0.166879208351 0.296524850403 0.152737154397 1.46684238526 0.422314968844 -0.0327168733135
6.43089520199 -1.48130218093 -0.566741475877 1.56138594028 2.96369957795 0.168312338843 0.297542243163 0.15425449413 1.4667180084 0.414586575774 -0.0330733244625
6.44776079462 -1.48116692486 -0.56726358992 1.56147901822 2.96351342207 0.169736205129 0.298556991916 0.155767394236 1.46658978893 0.406890418406 -0.0334310516496
6.46595079126 -1.48103311856 -0.56782985225 1.56156998949 2.96333147953 0.171150449071 0.299568724622 0.157275523662 1.46645770944 0.399227357864 -0.0337899537612
6.48596068848 -1.48090079657 -0.568440094606 1.56165880347 2.96315385156 0.172554718221 0.300577071619 0.158778551997 1.46632175472 0.391598229565 -0.0341499313124
6.50839479356 -1.48076999228 -0.569094138146 1.56174541063 2.96298063725 0.173948666263 0.301581666035 0.160276149849 1.46618191181 0.384003842766 -0.0345108865768
6.53470157129 -1.48064073787 -0.569791793676 1.56182976254 2.96281193344 0.175331953325 0.302582144201 0.161767989331 1.46603817003 0.376444980254 -0.0348727237507
6.55887995921 -1.48051306441 -0.570532861875 1.56191181188 2.96264783475 0.176704246124 0.303578146069 0.163253744746 1.46589052113 0.368922398248 -0.035235349169
6.58839812625 -1.48038700164 -0.57131713357 1.56199151256 2.9624884334 0.178065218714 0.304569315558 0.164733092506 1.46573895914 0.36143682573 -0.0355986712572
6.63160188309 -1.48025250853 -0.571574958414 1.56210112113 2.96226921625 0.179520909837 0.305650011559 0.166310791387 1.4656107898 0.354025279333 -0.0359479370426
6.66067388476 -1.48011921204 -0.571873739228 1.56220894889 2.96205356073 0.180969509214 0.30672907691 0.167886151805 1.46547859932 0.346638346397 -0.0362983409939
6.68443334929 -1.47998714491 -0.572213383007 1.56231494688 2.96184156475 0.182410680363 0.30780616686 0.169458855772 1.4653423664 0.339276847509 -0.0366497897201
6.70503737154 -1.47985633919 -0.572593787051 1.56241906676 2.961633325 0.183844089758 0.308880937491 0.171028584611 1.46520207189 0.331941584774 -0.037002191346
6.72362805622 -1.47972682586 -0.573014839147 1.56252126092 2.96142893668 0.185269407974 0.309953045991 0.172595018294 1.46505769873 0.324633340671 -0.0373554553481
6.74073704919 -1.47959863516 -0.573476417654 1.56262148245 2.96122849362 0.186686309225 0.311022151048 0.17415783673 1.46490923211 0.317352878484 -0.037709492952
6.75663782324 -1.47947179643 -0.57397839165 1.56271968516 2.96103208818 0.18809447174 0.312087913186 0.175716720102 1.46475665954 0.310100941819 -0.0380642172354
6.77156154844 -1.47934633803 -0.57452062112 1.5628158237 2.96083981111 0.189493578657 0.313149995102 0.177271348589 1.46459997075 0.302878253605 -0.0384195430535
6.78687851873 -1.47922228743 -0.575102957082 1.56290985349 2.96065175154 0.190883317694 0.314208062019 0.178821403494 1.46443915784 0.295685516437 -0.0387753873479
6.80323533534 -1.47909967113 -0.575725241785 1.5630017308 2.9604679969 0.192263381824 0.315261782007 0.180366567182 1.46427421523 0.288523411859 -0.0391316691204
6.82087504007 -1.47897851465 -0.576387308882 1.56309141282 2.96028863287 0.193633469396 0.316310826312 0.181906523659 1.46410513975 0.281392600268 -0.0394883095712
6.84027819767 -1.47885884258 -0.577088983618 1.5631788576 2.96011374331 0.194993284375 0.317354869669 0.183440958994 1.46393193059 0.274293720713 -0.0398452321853
6.86209169305 -1.4787406785 -0.57783008304 1.56326402416 2.95994341019 0.196342536737 0.318393590601 0.184969561526 1.46375458934 0.267227390551 -0.040202362758
6.88763866215 -1.478624045 -0.5786104162 1.56334687248 2.95977771356 0.197680942638 0.319426671722 0.186492022338 1.46357311999 0.260194205374 -0.0405596294792
6.9194941816 -1.47850896367 -0.579429784364 1.56342736352 2.95961673147 0.199008224613 0.320453800013 0.188008035652 1.46338752892 0.253194738911 -0.0409169629907
6.97884875443 -1.47839545512 -0.580287981242 1.56350545929 2.95946053992 0.200324111854 0.321474667099 0.189517299116 1.4631978249 0.246229542876 -0.0412742964095
7.01053284372 -1.47828353896 -0.581184793209 1.56358112284 2.95930921284 0.201628340357 0.322488969505 0.191019514223 1.46300401906 0.23929914697 -0.0416315653753
7.03521863706 -1.47817323377 -0.582119999547 1.56365431827 2.95916282197 0.202920653268 0.323496408911 0.192514386464 1.46280612488 0.232404058711 -0.0419887080321
7.05696418347 -1.4780558554 -0.582883214209 1.56374369624 2.95898406603 0.204298203423 0.324580823244 0.194105277845 1.46260905579 0.225302878148 -0.0423499011003
7.07618734834 -1.47794005202 -0.583686618116 1.56383062661 2.95881020529 0.205664483559 0.325658941007 0.195689687643 1.46240752517 0.2182352306 -0.0427110477328
7.09368291082 -1.47782584462 -0.584530002072 1.56391506881 2.9586413209 0.207019207174 0.326730436824 0.19726728967 1.46220154514 0.211201696017 -0.0430720814796
7.10976340902 -1.47771325317 -0.585413149054 1.56399698333 2.95847749185 0.208362094833 0.327794990532 0.198837761854 1.46199113038 0.20420283127 -0.0434329386319
7.12483856029 -1.47760229666 -0.586335834438 1.56407633179 2.95831879493 0.209692874198 0.328852287362 0.200400786616 1.46177629821 0.197239170644 -0.0437935582446
7.13896954178 -1.47749299314 -0.587297826234 1.56415307692 2.95816530468 0.211011280095 0.329902018178 0.201956051374 1.46155706847 0.190311225928 -0.0441538821647
7.15234637942 -1.47738535953 -0.588298885382 1.5642271826 2.9580170933 0.212317055383 0.330943879776 0.203503248089 1.46133346348 0.183419485772 -0.0445138548823
7.16513447249 -1.47727941177 -0.589338765977 1.56429861393 2.95787423064 0.213609950478 0.331977575054 0.205042074354 1.46110550802 0.176564416372 -0.0448734236521
7.17735833942 -1.47717516497 -0.590417215514 1.56436733718 2.95773678415 0.214889723324 0.333002813201 0.206572233926 1.46087322935 0.169746461727 -0.0452325385057
7.18915839311 -1.47707263302 -0.59153397522 1.56443331986 2.95760481879 0.216156140552 0.334019310003 0.208093435825 1.46063665698 0.162966042764 -0.0455911520191
7.20054806651 -1.47697182902 -0.592688780251 1.56449653073 2.95747839705 0.21740897641 0.335026787893 0.209605396034 1.46039582281 0.156223558637 -0.0459492195071
7.21154043209 -1.47687276502 -0.59388136001 1.56455693983 2.95735757886 0.21864801375 0.336024976219 0.211107836728 1.46015076095 0.149519386058 -0.0463066988114
7.22204318288 -1.47677545211 -0.595111438401 1.56461451846 2.95724242159 0.2198730437 0.337013611351 0.212600487028 1.45990150769 0.142853879899 -0.0466635503264
7.23227874645 -1.47667990052 -0.596378734099 1.56466923925 2.95713298001 0.221083865722 0.33799243681 0.214083083274 1.45964810143 0.136227373438 -0.0470197369449
7.24225288381 -1.47658611945 -0.597682960843 1.56472107614 2.95702930624 0.222280288051 0.338961203443 0.215555368787 1.4593905826 0.129640178264 -0.0473752239297
7.25197127798 -1.47649411725 -0.599023827689 1.56477000439 2.95693144974 0.223462127317 0.339919669479 0.217017094592 1.45912899361 0.123092584944 -0.0477299789166
7.2617264328 -1.47640390131 -0.600401039303 1.56481600061 2.95683945729 0.224629209035 0.340867600685 0.218468019057 1.45886337876 0.116584862916 -0.048083971768
7.27161543124 -1.47631547818 -0.601814296219 1.56485904276 2.95675337299 0.225781367219 0.341804770386 0.219907908555 1.45859378415 0.11011726117 -0.0484371745594
7.2816391382 -1.47622885353 -0.603263295106 1.56489911017 2.95667323818 0.226918444529 0.342730959556 0.221336537454 1.45832025762 0.103690008459 -0.0487895614765
7.2917984217 -1.47614403216 -0.604747728968 1.56493618351 2.9565990915 0.228040292399 0.343645956817 0.222753687839 1.45804284868 0.0973033139568 -0.0491411086829
7.30209415603 -1.47606101806 -0.606267287742 1.56497024483 2.95653096884 0.229146771062 0.344549558784 0.224159150564 1.45776160839 0.0909573659354 -0.0494917943411
7.3125272174 -1.47597981439 -0.607821658048 1.56500127758 2.95646890335 0.230237749221 0.345441569598 0.225552724242 1.45747658929 0.0846523349017 -0.0498415983954
7.32320420305 -1.47590042342 -0.609410523804 1.56502926653 2.95641292546 0.231313104586 0.346321801338 0.226934215601 1.45718784535 0.0783883718489 -0.0501905025162
7.33412985502 -1.47582284673 -0.61103356637 1.56505419785 2.9563630628 0.232372723124 0.347190073829 0.228303440172 1.45689543186 0.0721656096662 -0.0505384900706
7.34530900213 -1.47574708516 -0.612690464814 1.5650760591 2.95631934031 0.233416499302 0.348046214682 0.229660221962 1.45659940533 0.0659841632996 -0.0508855459901
7.35674656318 -1.47567313865 -0.614380896178 1.56509483916 2.95628178019 0.234444336581 0.34889005939 0.231004392777 1.45629982344 0.0598441297419 -0.0512316566097
7.36856455658 -1.4756010065 -0.616104535693 1.5651105283 2.95625040192 0.23545614652 0.349721451141 0.232335793253 1.45599674495 0.053745589122 -0.05157680967
7.38077465219 -1.47553068729 -0.617861057028 1.56512311811 2.95622522229 0.236451849073 0.35054024085 0.233654272383 1.45569022959 0.0476886048404 -0.0519209941795
7.39338886515 -1.47546217902 -0.619650132503 1.56513260159 2.95620625534 0.237431372044 0.351346287013 0.23495968807 1.45538033801 0.041673224359 -0.0522642003694
7.40654987403 -1.47539547869 -0.621471433381 1.56513897296 2.95619351258 0.238394652472 0.352139455981 0.23625190519 1.4550671317 0.0356994785353 -0.0526064194497
7.42028034989 -1.47533058293 -0.62332463 1.56514222787 2.95618700277 0.239341634474 0.352919621435 0.237530798166 1.4547506729 0.0297673836207 -0.052947643722
7.43474711733 -1.47526748759 -0.625209392055 1.5651423632 2.95618673212 0.240272270622 0.353686664651 0.238796248994 1.45443102451 0.0238769405985 -0.053287866347
7.45014098349 -1.47520618803 -0.627125388763 1.56513937716 2.95619270418 0.241186520857 0.354440474188 0.240048148416 1.45410825004 0.0180281363501 -0.0536270813459
7.46668400924 -1.47514667881 -0.629072289113 1.56513326922 2.95620492007 0.242084353448 0.355180946067 0.241286394416 1.45378241354 0.0122209433349 -0.0539652834208
7.48481808527 -1.475088954 -0.631049762021 1.56512404009 2.95622337834 0.242965743913 0.355907983442 0.242510893353 1.45345357948 0.00645532072541 -0.0543024679518
7.50525459037 -1.47503300711 -0.633057476539 1.56511169173 2.95624807505 0.243830675177 0.356621496571 0.243721559473 1.45312181275 0.000731214652838 -0.0546386308924
7.52955931481 -1.47497883112 -0.635095102033 1.56509622734 2.95627900384 0.244679137455 0.357321402713 0.244918314752 1.45278717852 -0.00495144136402 -0.0549737686902
7.55651329635 -1.47492641842 -0.637162308364 1.56507765128 2.95631615596 0.245511128152 0.358007626028 0.246101088712 1.45244974223 -0.0105927259906 -0.0553078782097
7.59684529742 -1.47488410667 -0.639421520744 1.56503610881 2.95639924088 0.246224949108 0.358583895299 0.247156112611 1.45211264653 -0.0159233097387 -0.0556383353467
7.62251723496 -1.47484350282 -0.641707151261 1.56499159069 2.95648827714 0.24692247656 0.359146397636 0.248196940668 1.45177334436 -0.0212128644153 -0.055967707343
7.64293577708 -1.47480459484 -0.644018882821 1.56494411094 2.95658323663 0.247603769616 0.359695115836 0.249223569317 1.45143189797 -0.0264615765603 -0.0562959936269
7.66048446364 -1.47476737007 -0.646356400521 1.56489368446 2.95668408959 0.248268893645 0.360230038475 0.250235999911 1.45108836943 -0.0316696412123 -0.0566231934947
7.67607914117 -1.47473181553 -0.648719391589 1.56484032701 2.95679080449 0.248917919154 0.360751159459 0.251234239685 1.45074282055 -0.0368372606392 -0.0569493061121
7.69021534651 -1.47469791802 -0.651107545473 1.56478405526 2.95690334799 0.249550921355 0.361258477801 0.252218301939 1.45039531274 -0.0419646438329 -0.0572743304888
7.70328651974 -1.47466566401 -0.65352055394 1.5647248867 2.95702168511 0.250167980434 0.361751997598 0.253188205215 1.45004590709 -0.0470520063672 -0.0575982654181
7.71549329296 -1.47463503959 -0.655958111165 1.5646628396 2.95714577931 0.250769181423 0.362231727895 0.254143973047 1.4496946643 -0.0520995700468 -0.0579211094426
7.72700639564 -1.47460603065 -0.658419913796 1.56459793302 2.95727559247 0.251354613682 0.362697682435 0.255085634255 1.44934164462 -0.0571075623858 -0.0582428608401
7.73888213564 -1.4745786228 -0.660905661039 1.56453018677 2.95741108497 0.251924370931 0.363149879573 0.256013222465 1.44898690785 -0.0620762163633 -0.0585635175876
7.75137772676 -1.47455280137 -0.663415054719 1.56445962135 2.9575522158 0.252478551079 0.363588342127 0.256926775926 1.44863051331 -0.0670057700836 -0.0588830773379
7.76452508824 -1.47452855146 -0.665947799344 1.56438625796 2.95769894258 0.253017256051 0.364013097232 0.257826337328 1.4482725198 -0.0718964664463 -0.0592015373984
7.77849610562 -1.47450585794 -0.668503602163 1.56431011846 2.9578512216 0.253540591484 0.364424176149 0.258711953806 1.44791298557 -0.0767485527699 -0.0595188947171
7.79366216121 -1.47448470553 -0.671082173216 1.56423122533 2.95800900785 0.254048666598 0.364821614136 0.259583676712 1.44755196831 -0.0815622805042 -0.0598351458652
7.81039366364 -1.47446507863 -0.673683225388 1.56414960163 2.95817225526 0.25454159434 0.365205450401 0.260441560982 1.44718952515 -0.0863379050597 -0.0601502870163
7.82946050631 -1.4744469616 -0.67630647444 1.56406527103 2.95834091644 0.255019490559 0.365575727744 0.261285665933 1.44682571255 -0.0910756852397 -0.0604643139496
7.85271030226 -1.47443033853 -0.678951639065 1.56397825772 2.95851494307 0.255482474587 0.365932492665 0.262116053992 1.44646058644 -0.0957758832743 -0.0607772220272
7.88000051698 -1.47441519335 -0.681618440908 1.56388858639 2.95869428574 0.255930668601 0.366275795065 0.262932791244 1.44609420204 -0.100438764346 -0.0610890061951
7.9344787899 -1.4744187961 -0.684845698598 1.56374409979 2.95898325893 0.256165630095 0.366403023276 0.263530643217 1.44571527807 -0.104763378824 -0.0614163887092
7.96398495562 -1.47442386432 -0.688091789659 1.56359712869 2.95927720113 0.256385673549 0.366516324075 0.264114201124 1.44533596079 -0.109048458624 -0.0617422961111
7.98718217788 -1.47443037412 -0.691356437626 1.56344771201 2.95957603449 0.256591014653 0.366615826985 0.264683620789 1.44495629974 -0.113294424894 -0.0620667198263
8.00707606612 -1.4744383016 -0.694639370709 1.56329588865 2.95987968121 0.256781869304 0.366701662889 0.265239058506 1.44457634348 -0.11750169662 -0.0623896507203
8.02465201794 -1.47444762315 -0.697940321575 1.56314169761 2.96018806329 0.256958452878 0.366773963679 0.26578067174 1.44419613947 -0.121670690095 -0.0627110791176
8.04080884843 -1.47445831505 -0.701259027296 1.56298517776 2.96050110299 0.257120981013 0.36683286246 0.26630861756 1.4438157343 -0.125801819011 -0.0630309948228
8.05580807186 -1.4744703539 -0.7045952293 1.56282636804 2.96081872243 0.257269668476 0.366878493056 0.266823054105 1.44343517346 -0.129895494092 -0.0633493871474
8.07001104428 -1.47448371628 -0.707948673316 1.56266530725 2.96114084401 0.257404729867 0.366910990205 0.267324139158 1.44305450156 -0.133952123185 -0.0636662449354
8.08531571133 -1.47449837907 -0.71131910932 1.5625020342 2.9614673901 0.257526378771 0.366930489165 0.267812031202 1.44267376209 -0.137972110976 -0.0639815565858
8.10197081543 -1.47451431906 -0.714706291476 1.56233658747 2.96179828357 0.257634828653 0.366937125998 0.268286887723 1.4422929978 -0.141955859143 -0.0642953100857
8.12045805668 -1.4745315134 -0.718109978089 1.56216900563 2.96213344725 0.257730291597 0.366931037014 0.268748866943 1.4419122503 -0.145903765986 -0.0646074930242
8.14160457249 -1.47454993926 -0.721529931537 1.56199932705 2.96247280442 0.257812979075 0.366912359014 0.269198126356 1.44153156038 -0.149816226558 -0.0649180926277
8.16305684202 -1.474569574 -0.724965918222 1.56182758994 2.96281627864 0.2578831015 0.366881229059 0.269634823199 1.44115096786 -0.153693632509 -0.065227095781
8.18914695255 -1.47459039513 -0.728417708506 1.56165383233 2.96316379385 0.257940868246 0.366837784423 0.270059114201 1.44077051169 -0.15753637205 -0.0655344890532
8.22564484432 -1.47461238039 -0.73188507666 1.56147809211 2.9635152743 0.2579864873 0.366782162394 0.270471155921 1.44039022984 -0.161344829819 -0.0658402587168
8.25481840683 -1.47466322715 -0.735794257421 1.5612322537 2.9640069511 0.257649291691 0.366338121778 0.270421285936 1.44005921688 -0.163902877575 -0.066121597101
8.28432094575 -1.47471468567 -0.73971108649 1.56098566319 2.96450013214 0.257305732028 0.365886904181 0.270364111246 1.439729374 -0.166437034381 -0.0664010511073
8.3083764277 -1.47476673771 -0.743635457674 1.56073834918 2.96499476014 0.256955984821 0.365428640664 0.270299778244 1.43940071014 -0.168947621116 -0.0666786107299
8.32926432453 -1.47481936578 -0.747567266926 1.56049034004 2.96549077844 0.25660022202 0.364963459631 0.270228432165 1.4390732335 -0.171434952093 -0.0669542659838
8.34806384097 -1.47487255254 -0.751506412247 1.5602416635 2.96598813151 0.256238612641 0.364491487654 0.270150215178 1.43874695194 -0.173899336502 -0.0672280070203
8.36528456382 -1.47492628114 -0.755452793626 1.55999234693 2.96648676464 0.255871321944 0.364012849029 0.270065267479 1.43842187277 -0.17634107764 -0.0674998240709
8.38141080856 -1.47497992125 -0.759414940365 1.55971677342 2.9668 0.255501504265 0.363571075096 0.269957355995 1.43814666695 -0.178752620794 -0.0677244763042
8.39845161479 -1.47503299391 -0.763398584797 1.55939738067 2.9668 0.255131307165 0.363196160659 0.269815110735 1.43795471996 -0.181129059633 -0.0678711795147
8.41693609284 -1.47508652079 -0.767389078631 1.55907721984 2.9668 0.254755572595 0.362815448169 0.269665758583 1.43776434629 -0.183484041777 -0.0680159850109
8.43738901986 -1.47514048937 -0.771386327358 1.55875632341 2.9668 0.254374439232 0.362429045092 0.269509441759 1.43757553609 -0.18581786129 -0.0681589035847
8.46093830281 -1.47519488633 -0.775390236037 1.55843472213 2.9668 0.253988045208 0.36203705853 0.269346294058 1.43738828184 -0.188130800972 -0.0682999446993
8.48948153066 -1.47524969862 -0.779400711581 1.55811244621 2.9668 0.253596525923 0.361639593875 0.269176446879 1.43720257591 -0.190423138658 -0.0684391176343
8.53008350416 -1.47530491344 -0.783417662719 1.5577895253 2.9668 0.253200014093 0.361236754838 0.269000029264 1.43701841052 -0.192695147321 -0.0685764314924
8.56206877182 -1.47539648417 -0.787949418263 1.55735017809 2.9668 0.25228568428 0.360334094465 0.268146640181 1.43697498567 -0.193021356548 -0.0686213680939
8.59977752556 -1.47548772784 -0.792482125001 1.5569123898 2.9668 0.251375102477 0.359434087389 0.267296068672 1.4369320676 -0.19334615708 -0.0686652713819
8.62829850317 -1.47557864737 -0.797015782874 1.55647615725 2.9668 0.25046824187 0.358536719245 0.266448308652 1.43688964604 -0.19366956068 -0.0687081507976
8.65220399883 -1.47566924412 -0.801550386511 1.55604147478 2.9668 0.249565078281 0.357641978613 0.265603344636 1.43684771653 -0.193991563883 -0.0687500121607
8.67342331132 -1.4757595194 -0.806085930568 1.55560833679 2.9668 0.248665587947 0.356749854256 0.264761161459 1.43680627463 -0.194312163484 -0.0687908612539
8.69263683928 -1.47584947453 -0.810622409728 1.55517673772 2.9668 0.247769747505 0.35586033511 0.263921744268 1.4367653159 -0.194631356532 -0.0688307038228
8.71303656613 -1.47593911079 -0.8151598187 1.55474667206 2.9668 0.246877533981 0.354973410285 0.263085078509 1.43672483595 -0.194949140325 -0.0688695455777
8.73602817333 -1.47602842943 -0.819698152223 1.55431813435 2.9668 0.245988924777 0.354089069054 0.262251149921 1.43668483039 -0.195265512398 -0.0689073921921
8.76272612235 -1.47611743169 -0.82423740506 1.55389111917 2.9668 0.245103897665 0.35320730085 0.261419944525 1.43664529486 -0.195580470521 -0.0689442493053
8.79634377691 -1.47620611879 -0.828777572002 1.55346562115 2.9668 0.24422243077 0.352328095264 0.260591448615 1.43660622501 -0.195894012691 -0.068980122522
8.85237644325 -1.47629449193 -0.833318647865 1.55304163495 2.9668 0.243344502569 0.351451442034 0.259765648752 1.43656761653 -0.196206137125 -0.0690150174129
8.88450681617 -1.47640527553 -0.83761988046 1.55256742617 2.9668 0.242063644273 0.350180978895 0.258338485811 1.43669710579 -0.194189792486 -0.0689352735499
8.91021937516 -1.47651528278 -0.841925768378 1.55209592919 2.9668 0.24079319046 0.348920207697 0.256922923311 1.43682442726 -0.19219224539 -0.0688558382867
8.93227496883 -1.47662452584 -0.846236236686 1.55162711961 2.9668 0.239532983889 0.347669002544 0.255518802176 1.43694961548 -0.190213276359 -0.0687767262044
8.95206456449 -1.47673301574 -0.850551206318 1.55116097085 2.9668 0.238282870456 0.346427242595 0.254125959752 1.43707271061 -0.188252650219 -0.068697946318
8.97017753191 -1.47684076326 -0.854870600028 1.5506974568 2.9668 0.237042699476 0.345194809304 0.252744236612 1.43719375199 -0.186310134955 -0.0686195071646
8.98708883209 -1.47694777892 -0.859194342342 1.55023655176 2.9668 0.235812323594 0.343971586362 0.251373476485 1.43731277814 -0.18438550169 -0.0685414168277
9.00560275928 -1.47705407299 -0.863522359508 1.54977823049 2.9668 0.234591598693 0.342757459656 0.250013526188 1.4374298268 -0.182478524657 -0.0684636829531
9.02587083015 -1.4771596555 -0.867854579445 1.54932246817 2.9668 0.233380383808 0.34155231721 0.248664235547 1.43754493492 -0.180588981169 -0.0683863127701
9.0487311852 -1.47726453625 -0.872190931697 1.54886924038 2.9668 0.232178541038 0.340356049142 0.247325457339 1.43765813871 -0.178716651589 -0.0683093131096
9.07556186767 -1.47736872482 -0.876531347392 1.54841852314 2.9668 0.23098593547 0.339168547612 0.245997047213 1.43776947359 -0.176861319306 -0.0682326904204
9.11042012268 -1.47747223054 -0.880875759191 1.54797029284 2.9668 0.229802435092 0.337989706782 0.244678863635 1.43787897431 -0.175022770699 -0.0681564507865
9.15810185705 -1.47757577173 -0.884405562217 1.54755310555 2.9668 0.228509508227 0.336704114534 0.243124105242 1.43809086133 -0.171680836081 -0.068005460307
9.18734905344 -1.47767873487 -0.887947556252 1.54713785084 2.9668 0.227225716928 0.335427914728 0.241581016251 1.4382992567 -0.168361216663 -0.0678555350128
9.21067017736 -1.47778112562 -0.891501584244 1.54672452292 2.9668 0.225950969542 0.334161034329 0.240049488742 1.43850420863 -0.16506379792 -0.0677066946853
9.23082493515 -1.47788294916 -0.895067487517 1.54631311364 2.9668 0.224685174443 0.33290340328 0.238529411438 1.43870577008 -0.161788450525 -0.0675589537077
9.24894949252 -1.47798421058 -0.898645109712 1.54590361476 2.9668 0.223428240956 0.331654951769 0.237020673628 1.43890399341 -0.158535044025 -0.0674123258387
9.26557506633 -1.47808491489 -0.902234296757 1.54549601795 2.9668 0.22218007936 0.330415610248 0.235523165191 1.4390989303 -0.15530344692 -0.0672668242261
9.28113134908 -1.47818506703 -0.90583489684 1.5450903148 2.9668 0.220940600884 0.329185309448 0.23403677663 1.4392906318 -0.152093526755 -0.0671224614224
9.29568636396 -1.47828467184 -0.909446760374 1.54468649686 2.9668 0.219709717712 0.327963980395 0.232561399091 1.43947914833 -0.148905150191 -0.0669792493995
9.31118435665 -1.47838373409 -0.913069739971 1.5442845556 2.9668 0.218487342974 0.326751554423 0.231096924388 1.43966452962 -0.145738183088 -0.0668371995623
9.32785061732 -1.47848225845 -0.916703690413 1.54388448245 2.9668 0.217273390752 0.325547963189 0.229643245025 1.4398468248 -0.142592490578 -0.0666963227631
9.34613257312 -1.47858024954 -0.920348468617 1.54348626879 2.9668 0.216067776072 0.324353138685 0.22820025422 1.44002608232 -0.139467937133 -0.0665566293164
9.36658897726 -1.4786777119 -0.924003933611 1.54308990595 2.9668 0.214870414904 0.323167013251 0.226767845916 1.44020235 -0.136364386642 -0.0664181290124
9.39042670385 -1.47877464998 -0.927669946501 1.54269538523 2.9668 0.213681224157 0.321989519585 0.225345914807 1.44037567501 -0.133281702472 -0.0662808311306
9.41539895257 -1.47886998023 -0.930806925408 1.54232451383 2.9668 0.212450282386 0.320771140631 0.223814748054 1.44060017198 -0.129344989306 -0.0661024113713
9.43609564223 -1.4789649421 -0.933961002045 1.54195489458 2.9668 0.211226471119 0.319560824442 0.222293734382 1.44082092174 -0.125429756904 -0.0659254706298
9.45437857046 -1.47905953601 -0.937131992842 1.54158653447 2.9668 0.210009754976 0.318358546349 0.220782816017 1.44103797087 -0.121535983871 -0.0657500307577
9.47101719036 -1.47915376216 -0.940319713534 1.54121943813 2.9668 0.20880009734 0.317164283539 0.219281931981 1.44125137008 -0.117663636597 -0.0655761087494
9.48630951517 -1.47924762077 -0.943523981593 1.54085360989 2.9668 0.207597461199 0.315978012275 0.21779102039 1.44146116971 -0.113812678364 -0.0654037209718
9.50064579658 -1.47934111207 -0.94674461623 1.54048905378 2.9668 0.206401809176 0.314799707941 0.216310018507 1.44166741973 -0.10998306944 -0.0652328831715
9.5142191036 -1.47943423627 -0.9499814384 1.54012577354 2.9668 0.205213103555 0.31362934507 0.2148388628 1.44187016972 -0.106174767166 -0.0650636104839
9.52719751758 -1.47952699361 -0.953234270799 1.53976377264 2.9668 0.204031306306 0.312466897381 0.213377488992 1.44206946884 -0.102387726046 -0.0648959174395
9.53973023228 -1.47961938433 -0.956502937867 1.53940305425 2.9668 0.202856379112 0.311312337813 0.211925832118 1.44226536585 -0.0986218978403 -0.0647298179729
9.55296535057 -1.47971140867 -0.959787265785 1.5390436213 2.9668 0.201688283388 0.310165638556 0.210483826571 1.44245790908 -0.0948772316457 -0.0645653254307
9.56694119363 -1.47980306687 -0.963087082475 1.53868547645 2.9668 0.200526980308 0.309026771084 0.209051406154 1.44264714643 -0.0911536739861 -0.0644024525816
9.58184570225 -1.47989435919 -0.966402217596 1.53832862212 2.9668 0.199372430826 0.307895706187 0.207628504128 1.44283312535 -0.0874511688951 -0.0642412116237
9.59805890497 -1.4799852859 -0.969732502543 1.53797306049 2.9668 0.198224595696 0.306772413998 0.206215053255 1.44301589282 -0.0837696579999 -0.0640816141945
9.61587082296 -1.48007584724 -0.973077770441 1.5376187935 2.9668 0.197083435494 0.305656864029 0.204810985846 1.4431954954 -0.0801090806027 -0.0639236713797
9.63612624527 -1.48016604351 -0.976437856143 1.53726582288 2.9668 0.195948910637 0.304549025194 0.203416233802 1.44337197914 -0.0764693737616 -0.0637673937228
9.65599668881 -1.48024805746 -0.979268821363 1.53695302728 2.9668 0.194889224514 0.303514658643 0.202087367343 1.44355506199 -0.0727025109852 -0.0636046612844
9.67342026853 -1.48032984383 -0.98211563062 1.53664103539 2.9668 0.193834553435 0.302486455418 0.200766071383 1.4437352025 -0.0689532536904 -0.0634434670408
9.68912356114 -1.48041140103 -0.9849781393 1.53632985582 2.9668 0.192784887123 0.301464408471 0.199452313258 1.44391243367 -0.0652216052594 -0.0632838264386
9.70370408951 -1.48049272742 -0.987856202659 1.53601949523 2.9668 0.191740214307 0.300448512589 0.198146058289 1.44408679176 -0.0615075619149 -0.0631257510352
9.71737643257 -1.48057382136 -0.990749676954 1.53570996006 2.9668 0.190700523208 0.29943876172 0.196847270988 1.44425831283 -0.0578111174553 -0.0629692519462
9.73032436207 -1.48065468125 -0.993658419454 1.53540125654 2.9668 0.189665801551 0.298435148999 0.195555915093 1.44442703267 -0.0541322633081 -0.0628143398493
9.742707939 -1.4807353055 -0.996582288446 1.53509339066 2.9668 0.188636036583 0.297437666767 0.194271953608 1.44459298682 -0.0504709885834 -0.0626610249899
9.75490972992 -1.48081569257 -0.999521143241 1.5347863682 2.9668 0.187611215092 0.296446306598 0.192995348832 1.44475621059 -0.0468272801264 -0.062509317185
9.76779871835 -1.48089584094 -1.00247484419 1.53448019471 2.9668 0.186591323422 0.295461059318 0.191726062395 1.44491673898 -0.0432011225706 -0.0623592258296
9.78154876617 -1.4809757491 -1.00544325267 1.53417487556 2.9668 0.18557634749 0.294481915028 0.190464055294 1.44507460674 -0.0395924983896 -0.0622107599007
9.7963630372 -1.4810554156 -1.00842623111 1.5338704159 2.9668 0.184566272799 0.293508863127 0.189209287922 1.44522984833 -0.0360013879488 -0.062063927963
9.81248238936 -1.48113483897 -1.01142364299 1.53356682069 2.9668 0.183561084455 0.29254189233 0.187961720101 1.44538249793 -0.0324277695573 -0.0619187381749
9.8305520256 -1.48121401782 -1.01443535284 1.53326409469 2.9668 0.182560767185 0.291580990693 0.186721311112 1.44553258943 -0.0288716195182 -0.0617751982925
9.85142737326 -1.48129295075 -1.01746122625 1.53296224247 2.9668 0.181565305344 0.290626145631 0.185488019729 1.44568015639 -0.0253329121797 -0.0616333156788
9.87157434717 -1.48137163641 -1.02050112987 1.53266126841 2.9668 0.180574682937 0.289677343941 0.184261804243 1.44582523212 -0.0218116199845 -0.0614930973049
9.8959207699 -1.48145007346 -1.02355493141 1.53236117673 2.9668 0.179588883628 0.288734571816 0.183042622495 1.44596784956 -0.0183077135197 -0.061354549761
9.92977223946 -1.4815282606 -1.02662249966 1.53206197145 2.9668 0.178607890756 0.287797814874 0.181830431904 1.4461080414 -0.0148211615656 -0.0612176792581
10.0 -1.48160619656 -1.02970370446 1.53176365643 2.9668 0.177631687346 0.28686705817 0.18062518949 1.44624583996 -0.0113519311438 -0.0610824916374
