liuchen18/hilsys_old/sim_sys/data/fwx_planned_trajectory_hou.txt
this is the FWX joint values,the following info is time,x,y,theta,joint1,joint2,joint3,joint4,joint5,joint6,joint7
0.0 -0.721887826597 2.49552204336 -0.703382072492 -1.82802564384 0.203638235991 -1.91177934623 -0.137422647822 -2.3807078778 1.820104545 3.05044569111
0.237045678617 -0.722046220654 2.4910428544 -0.703618208705 -1.82755337142 0.202072443308 -1.91238914757 -0.135867856754 -2.38118693444 1.81839204437 3.05068820335
0.407228051748 -0.722204600074 2.48656267864 -0.70385290082 -1.82708398719 0.200508750242 -1.91299464301 -0.134309824582 -2.38166287201 1.81668088684 3.05092963093
0.51488953209 -0.722323338934 2.48320191215 -0.704027710574 -1.82673436768 0.199337360247 -1.91344565253 -0.133139446598 -2.38201761349 1.81539818417 3.05110960927
0.612372724502 -0.722442085684 2.47984050233 -0.704201879531 -1.82638602976 0.198167381167 -1.91389403782 -0.13196650974 -2.38237040864 1.81411670875 3.05128942017
0.702412051942 -0.72256084487 2.47647852363 -0.704375196119 -1.82603939659 0.196998523771 -1.91434004096 -0.130791935734 -2.38272150214 1.81283586738 3.05146848517
0.78640695208 -0.722679593084 2.47311600065 -0.704547697279 -1.82569439427 0.195830823666 -1.91478360138 -0.129615583494 -2.38307084034 1.81155577024 3.05164694539
0.865543125523 -0.722798268139 2.46975308785 -0.704719245381 -1.82535129806 0.194664062154 -1.91522484261 -0.128438086405 -2.38341855646 1.81027605434 3.05182453909
0.94085305984 -0.722916967314 2.46638952365 -0.704890115429 -1.82500955797 0.19349864972 -1.91566348688 -0.127258216232 -2.38376436831 1.80899744992 3.05200184001
1.01251958016 -0.723035666227 2.4630254102 -0.705060146943 -1.82466949494 0.192334356245 -1.91609970655 -0.126076680373 -2.38410845431 1.80771952101 3.05217846314
1.08140064131 -0.723154351783 2.45966076212 -0.705229360255 -1.82433106832 0.191171198964 -1.91653346541 -0.124893406112 -2.38445078391 1.80644232675 3.05235448643
1.15029008847 -0.723272975675 2.4562957046 -0.705397637796 -1.82399451323 0.190008995161 -1.9169648749 -0.123708926399 -2.38479147693 1.80516555946 3.05252968453
1.22199035087 -0.723391620189 2.4529300072 -0.705565233364 -1.8236593221 0.188848114777 -1.9173936661 -0.122522126457 -2.38513026141 1.80388988647 3.0527045873
1.29736012509 -0.723510261897 2.44956377052 -0.705731987796 -1.82332581323 0.187688332524 -1.91782001538 -0.121333698701 -2.38546731969 1.80261488073 3.05287881883
1.37658686313 -0.723628887925 2.44619700903 -0.705897921547 -1.82299394573 0.186529665451 -1.91824388604 -0.120143571641 -2.38580262064 1.80134060036 3.05305245603
1.46069767674 -0.723747451582 2.44282984572 -0.706062917957 -1.82266395291 0.1853719348 -1.9186653931 -0.118952268005 -2.38613628747 1.80006674296 3.05322527843
1.5527056032 -0.723866032549 2.4394620542 -0.706227228641 -1.82233533154 0.184215501719 -1.91908426117 -0.11775869673 -2.38646804189 1.79879396265 3.05339780334
1.6533491228 -0.723984608293 2.43609373352 -0.706390695776 -1.82200839727 0.183060145759 -1.9195006704 -0.116563535088 -2.38679806998 1.7975218414 3.05356966409
1.76677410087 -0.724103166264 2.43272489792 -0.706553339755 -1.82168310932 0.18190588359 -1.91991458391 -0.115366713529 -2.38712634032 1.79625043581 3.05374093593
1.89978936277 -0.724221661226 2.42935566823 -0.706715045013 -1.8213596988 0.180752540598 -1.92032611987 -0.114168743797 -2.38745297905 1.79497944931 3.05391140393
2.07029486918 -0.72434017034 2.42598582222 -0.706876061009 -1.82103766681 0.179600469205 -1.92073499665 -0.112968558503 -2.38777770183 1.79370952282 3.05408157292
2.38265054693 -0.724434445278 2.42261142381 -0.707036190621 -1.82071740759 0.178550188606 -1.92114574454 -0.11168470526 -2.38811816906 1.79241735895 3.0541
2.55315345365 -0.724525772513 2.41923624015 -0.707195479611 -1.8203988296 0.177512694463 -1.92155474731 -0.110390178365 -2.38845909281 1.79112286562 3.0541
2.72678026295 -0.724647600632 2.41473540877 -0.707406909105 -1.81997597062 0.176130405848 -1.92209692668 -0.108662527894 -2.38891125734 1.78939781315 3.0541
2.86897740414 -0.72476950235 2.41023380813 -0.707617060352 -1.81955566812 0.174749465306 -1.92263491013 -0.106932771469 -2.38936033614 1.78767398765 3.0541
2.99346613066 -0.724891481108 2.40573144273 -0.707825932632 -1.81913792356 0.173369842303 -1.92316868841 -0.105200939779 -2.3898063282 1.78595139354 3.0541
3.10595297729 -0.725013539984 2.40122831708 -0.70803352512 -1.81872273859 0.171991508267 -1.92369825248 -0.103467062399 -2.39024923299 1.78423003431 3.0541
3.20985016121 -0.725135670154 2.39672443407 -0.708239835329 -1.81831011817 0.170614490041 -1.92422359738 -0.101731132989 -2.39068906089 1.78250989377 3.0541
3.30677313639 -0.72525787504 2.39221979831 -0.708444862581 -1.81790006367 0.169238757413 -1.92474471406 -0.0999931819014 -2.3911258111 1.78079097607 3.0541
3.39809413007 -0.725380158052 2.38771441437 -0.708648606189 -1.81749257645 0.167864280344 -1.92526159347 -0.0982532393231 -2.39155948297 1.7790732853 3.0541
3.48499729097 -0.725502510135 2.38320828518 -0.708851063634 -1.81708766156 0.166491086965 -1.92577423097 -0.0965112979726 -2.39199008697 1.77735680466 3.0541
3.56687745801 -0.725624934694 2.37870141538 -0.709052234286 -1.81668532026 0.165119147385 -1.92628261768 -0.0947673878742 -2.39241762255 1.7756415381 3.0541
3.64557553888 -0.725747435118 2.37419380962 -0.7092521175 -1.81628555383 0.163748431892 -1.92678674471 -0.0930215388771 -2.39284208927 1.77392748946 3.0541
3.72121514533 -0.725870002471 2.36968547087 -0.70945071082 -1.81588836719 0.162378968124 -1.92728660757 -0.0912737437091 -2.39326349732 1.77221464217 3.0541
3.79464206187 -0.725992640138 2.36517640383 -0.709648013656 -1.81549376152 0.161010726512 -1.92778219753 -0.0895240320614 -2.39368184639 1.77050299995 3.0541
3.86592093891 -0.72611535149 2.3606666132 -0.709844025409 -1.81510173801 0.159643677664 -1.9282735059 -0.0877724334559 -2.39409713622 1.76879256641 3.0541
3.93511456892 -0.726238127708 2.35615610199 -0.710038743679 -1.81471230147 0.158277848732 -1.9287605283 -0.086018940629 -2.39450937674 1.76708332521 3.0541
4.00295557745 -0.726360972158 2.35164487496 -0.710232167919 -1.81432545299 0.156913210472 -1.9292432562 -0.084263582941 -2.39491856783 1.76537527984 3.0541
4.06947032877 -0.726483888187 2.34713293689 -0.710424297573 -1.81394119368 0.155549733814 -1.92972168107 -0.0825063895797 -2.39532470942 1.76366843369 3.0541
4.13468471185 -0.726606867098 2.34262029079 -0.710615130296 -1.81355952823 0.154187445423 -1.93019579867 -0.0807473533045 -2.39572781118 1.76196277065 3.0541
4.19862407557 -0.726729912234 2.33810694149 -0.710804665583 -1.81318045766 0.152826316385 -1.93066560062 -0.0789865031383 -2.39612787314 1.76025829397 3.0541
4.26131327909 -0.726853026922 2.33359289382 -0.710992902917 -1.81280398299 0.151466317942 -1.93113107859 -0.0772238679451 -2.39652489545 1.75855500685 3.0541
4.32277672432 -0.72697620258 2.32907815083 -0.711179840008 -1.81243010881 0.150107476298 -1.93159222845 -0.0754594404946 -2.39691888746 1.75685289337 3.0541
4.38303831263 -0.727099442531 2.32456271741 -0.71136547639 -1.81205883605 0.148749762848 -1.93204904201 -0.0736932494877 -2.3973098494 1.7551519566 3.0541
4.44212147374 -0.727222750079 2.32004659844 -0.711549811587 -1.81169016565 0.14739314916 -1.9325015111 -0.0719253234552 -2.39769778155 1.75345219951 3.0541
4.50062849895 -0.72734611676 2.31552979701 -0.711732843359 -1.81132410211 0.146037660966 -1.93294963174 -0.0701556551941 -2.39808269301 1.7517536064 3.0541
4.55856493334 -0.727469545874 2.31101231804 -0.711914571281 -1.81096064626 0.144683269977 -1.9333933959 -0.068384273079 -2.39846458413 1.75005618013 3.0541
4.61593627876 -0.727593040704 2.30649416646 -0.712094994914 -1.810599799 0.143329948084 -1.93383279558 -0.0666112053077 -2.39884345537 1.74835992348 3.0541
4.67274800826 -0.7277165929 2.30197534542 -0.712274112069 -1.81024156469 0.141977720555 -1.93426782693 -0.0648364447087 -2.39921931552 1.74666482096 3.0541
4.72900551928 -0.727840205739 2.29745585987 -0.712451922356 -1.80988594411 0.140626559421 -1.93469848211 -0.0630600193259 -2.39959216509 1.74497087521 3.0541
4.78471415165 -0.727963882483 2.2929357148 -0.712628425375 -1.80953293808 0.139276436883 -1.93512475327 -0.0612819570361 -2.39996200467 1.74327808884 3.0541
4.83987922358 -0.728087614895 2.28841491338 -0.712803618985 -1.80918255086 0.137927377756 -1.9355466367 -0.0595022506972 -2.40032884275 1.74158644655 3.0541
4.89450597769 -0.72821140623 2.28389346062 -0.712977502833 -1.80883478316 0.136579354382 -1.93596412473 -0.0577209280296 -2.40069267998 1.7398959508 3.0541
4.94859959896 -0.728335259727 2.27937136154 -0.713150076553 -1.80848963572 0.135232339277 -1.9363772097 -0.0559380165858 -2.40105351707 1.73820660401 3.0541
5.00216526161 -0.728459167262 2.27484861935 -0.713321338053 -1.80814711272 0.133886356806 -1.93678588801 -0.0541535092588 -2.4014113622 1.73651839107 3.0541
5.05520804979 -0.728583132067 2.27032523911 -0.713491287013 -1.8078072148 0.132541379622 -1.93719015217 -0.0523674334465 -2.40176621615 1.73483131427 3.0541
5.10773301168 -0.728707157357 2.26580122588 -0.713659923103 -1.80746994262 0.131197380548 -1.93758999468 -0.0505798163826 -2.40211807975 1.73314537585 3.0541
5.15974516666 -0.728831235122 2.2612765829 -0.713827244275 -1.80713530028 0.129854383505 -1.9379854121 -0.0487906509981 -2.40246696087 1.73146056089 3.0541
5.21124945485 -0.72895536857 2.25675131527 -0.713993250244 -1.80680328834 0.128512361453 -1.93837639708 -0.0469999643725 -2.40281286038 1.72977687151 3.0541
5.26225078401 -0.729079560891 2.2522254281 -0.714157940713 -1.8064739074 0.127171287524 -1.93876294231 -0.0452077834168 -2.40315577923 1.72809430977 3.0541
5.31275402588 -0.729203804187 2.24769892465 -0.714321313677 -1.80614716147 0.1258311852 -1.93914504447 -0.0434141011063 -2.40349572498 1.72641286095 3.0541
5.36276398377 -0.729328101643 2.24317181007 -0.714483368883 -1.80582305106 0.124492027741 -1.9395226964 -0.0416189442054 -2.40383269859 1.72473252701 3.0541
5.41228542501 -0.729452456425 2.23864408951 -0.714644106069 -1.80550157669 0.123153788581 -1.93989589095 -0.0398223393103 -2.4041667011 1.72305330981 3.0541
5.46083755641 -0.729576860745 2.23411576625 -0.714803523269 -1.80518274229 0.12181649077 -1.94026462493 -0.0380242794405 -2.40449773976 1.72137519487 3.0541
5.50939609705 -0.729701317763 2.22958684549 -0.714961620264 -1.8048665483 0.120480107872 -1.94062889135 -0.0362247910431 -2.40482581562 1.71969818395 3.0541
5.55796098931 -0.729825830623 2.22505733241 -0.715118396822 -1.80455299518 0.119144613613 -1.94098868323 -0.0344239004072 -2.40515092977 1.71802227877 3.0541
5.60653219357 -0.729950391645 2.22052723034 -0.715273851018 -1.80424208679 0.117810030616 -1.94134399753 -0.0326216006002 -2.40547308918 1.71634746502 3.0541
5.65510965945 -0.730075003963 2.21599654448 -0.715427982663 -1.8039338235 0.116476332742 -1.94169482742 -0.0308179177562 -2.40579229495 1.71467374433 3.0541
5.70369332571 -0.730199670699 2.21146528008 -0.715580791555 -1.80362820572 0.115143494007 -1.94204116608 -0.0290128778579 -2.40610854825 1.71300111826 3.0541
5.75228315996 -0.730324384281 2.20693344047 -0.715732275809 -1.80332523721 0.113811536612 -1.94238301061 -0.0272064740253 -2.40642185572 1.71132957268 3.0541
5.80087910818 -0.730449147819 2.20240103093 -0.715882435264 -1.8030249183 0.112480434709 -1.94272035435 -0.0253987320838 -2.40673221853 1.70965910907 3.0541
5.84948110917 -0.730573964411 2.19786805669 -0.71603126975 -1.80272724933 0.111150162595 -1.94305319066 -0.0235896777168 -2.40703963789 1.70798972884 3.0541
5.89808912691 -0.730698826587 2.19333452115 -0.716178777416 -1.80243223399 0.10982074207 -1.94338151678 -0.0217793040852 -2.40734412014 1.70632141807 3.0541
5.9467031074 -0.730823737438 2.18880042959 -0.716324958133 -1.80213987256 0.108492147558 -1.94370532619 -0.0199676367237 -2.40764566649 1.70465417808 3.0541
5.99532299302 -0.730948700037 2.18426578731 -0.716469811755 -1.80185016532 0.107164353638 -1.94402461245 -0.0181547010114 -2.40794427818 1.70298801015 3.0541
6.04394874417 -0.731073707017 2.17973059772 -0.716613336472 -1.80156311588 0.105837381705 -1.94433937291 -0.0163404901631 -2.40823996125 1.70132290053 3.0541
6.09258031043 -0.731198761447 2.17519486613 -0.716755532177 -1.80127872447 0.104511206453 -1.94464960124 -0.01452502942 -2.40853271694 1.69965885042 3.0541
6.14219524003 -0.731323866373 2.17065859786 -0.716896398758 -1.80099699131 0.103185802744 -1.94495529116 -0.0127083438611 -2.40882254653 1.69799586096 3.0541
6.19231220688 -0.731449014536 2.16612179636 -0.717035934433 -1.80071791996 0.101861191562 -1.94525644015 -0.0108904267616 -2.40910945572 1.6963339186 3.0541
6.24293623756 -0.731574208976 2.16158446698 -0.717174139126 -1.80044151057 0.100537347882 -1.94555304208 -0.00907130306343 -2.40939344578 1.69467302438 3.0541
6.29407239462 -0.73169945272 2.15704661506 -0.71731101275 -1.80016776333 0.0992142468217 -1.94584509079 -0.00725099756313 -2.40967451803 1.69301317935 3.0541
6.34572581987 -0.731824738606 2.15250824408 -0.717446553557 -1.79989668171 0.0978919089776 -1.94613258394 -0.00542950358767 -2.40995267784 1.69135437011 3.0541
6.3979016839 -0.731950069654 2.14796935941 -0.717580761496 -1.79962826583 0.0965703095855 -1.94641551553 -0.00360684579157 -2.41022792649 1.68969659762 3.0541
6.4506052113 -0.732075448866 2.14342996644 -0.717713636506 -1.79936251582 0.0952494240219 -1.94669387961 -0.00178304868794 -2.41050026531 1.68803986277 3.0541
6.50384169149 -0.73220086918 2.13889006865 -0.71784517687 -1.79909943509 0.0939292724952 -1.94696767394 4.18943395062e-05 -2.41076969935 1.68638415236 3.0541
6.55761644991 -0.732326333592 2.13434967145 -0.717975382563 -1.7988390237 0.0926098304971 -1.94723689272 0.00186795891897 -2.4110362299 1.68472946724 3.0541
6.61193486598 -0.732451845082 2.12980878024 -0.718104253549 -1.79858128173 0.0912910736585 -1.94750153014 0.00369512081856 -2.41129985829 1.68307580818 3.0541
6.66680239474 -0.732577396686 2.12526739856 -0.718231788141 -1.79832621254 0.0899730217999 -1.94776158412 0.00552338659282 -2.41156058924 1.68142316218 3.0541
6.72222451646 -0.732702991377 2.12072553183 -0.718357986339 -1.79807381615 0.0886556506601 -1.94801704901 0.00735273214602 -2.41181842404 1.67977152996 3.0541
6.76421090881 -0.732797218597 2.11731879609 -0.718451611958 -1.79788656491 0.0876680657342 -1.94820523967 0.00872543979283 -2.41200971156 1.67853352103 3.0541
6.80620060659 -0.732891467291 2.11391179225 -0.718544484916 -1.79770081899 0.0866808642662 -1.94839084518 0.0100987487965 -2.41219937312 1.67729607456 3.0541
6.8481935774 -0.732985739796 2.11050452279 -0.718636605347 -1.79751657813 0.0856940314787 -1.94857386294 0.0114726456655 -2.412387409 1.67605919209 3.0541
6.89018979963 -0.733080035981 2.10709698974 -0.718727973022 -1.79733384278 0.0847075633427 -1.94875429113 0.0128471246279 -2.41257382016 1.67482287199 3.0541
6.93218923728 -0.733174358366 2.10368919561 -0.718818588118 -1.79715261259 0.0837214442559 -1.94893212705 0.0142221716941 -2.41275860682 1.67358711608 3.0541
6.97419187955 -0.733268701732 2.10028114153 -0.718908449648 -1.79697288953 0.082735692374 -1.94910737065 0.0155977969736 -2.41294177123 1.67235191621 3.0541
7.01619769402 -0.733363068393 2.09687282997 -0.718997557755 -1.79679467332 0.0817502930779 -1.94928001937 0.016973987131 -2.41312331369 1.67111727385 3.0541
7.05820665551 -0.733457458226 2.09346426299 -0.719085912223 -1.79661796438 0.0807652423457 -1.94945007148 0.0183507364557 -2.41330323512 1.66988318736 3.0541
7.10021873519 -0.733551873528 2.09005544306 -0.71917351319 -1.79644276245 0.0797805256666 -1.94961752445 0.019728031717 -2.41348153583 1.66864965819 3.0541
7.14223391866 -0.733646309344 2.08664637136 -0.719260359726 -1.79626906937 0.0787961599953 -1.94978237817 0.0211058823136 -2.4136582178 1.66741667863 3.0541
7.18425217713 -0.733740767968 2.08323705039 -0.719346451987 -1.79609688485 0.0778121308628 -1.94994463017 0.0224842750598 -2.41383328134 1.66618425008 3.0541
7.22627347818 -0.733835249281 2.07982748219 -0.719431789764 -1.7959262093 0.0768284342598 -1.95010427877 0.0238632043103 -2.41400672732 1.66495237092 3.0541
7.26829779661 -0.733929755561 2.07641766925 -0.719516373208 -1.79575704241 0.0758450558242 -1.95026132153 0.0252426569831 -2.41417855606 1.66372104254 3.0541
7.31032511802 -0.734024281916 2.07300761277 -0.719600201397 -1.79558938603 0.0748620122424 -1.95041575838 0.0266226423678 -2.41434876935 1.66249025734 3.0541
7.35235541 -0.734118830617 2.06959731525 -0.719683274495 -1.79542323984 0.073879289194 -1.95056758693 0.0280031474278 -2.41451736751 1.66126001667 3.0541
7.39438864374 -0.734213401552 2.06618677874 -0.719765592306 -1.79525860422 0.0728968826849 -1.95071680557 0.0293841665849 -2.41468435134 1.66003031893 3.0541
7.43642479765 -0.73430799698 2.06277600574 -0.719847154988 -1.79509547885 0.07191477849 -1.95086341191 0.030765686897 -2.41484972119 1.65880116544 3.0541
7.47846384651 -0.734402612068 2.05936499746 -0.719927961628 -1.79493386557 0.0709329930366 -1.95100740596 0.0321477175502 -2.41501347864 1.65757254872 3.0541
7.52050576872 -0.734497249067 2.05595375641 -0.720008012401 -1.79477376402 0.0699515121509 -1.95114878538 0.0335302456557 -2.41517562404 1.65634447008 3.0541
7.56255053188 -0.734591907873 2.05254228465 -0.720087307119 -1.79461517459 0.068970331842 -1.95128754865 0.0349132656925 -2.41533615811 1.65511692791 3.0541
7.60459810718 -0.734686590724 2.04913058468 -0.720165845951 -1.79445809693 0.0679894380251 -1.95142369342 0.0362967648619 -2.41549508122 1.65388992349 3.0541
7.64664848022 -0.734781292845 2.04571865774 -0.72024362799 -1.79430253285 0.0670088468787 -1.95155721978 0.0376807522525 -2.41565239474 1.65266344946 3.0541
7.68870161859 -0.73487601647 2.04230650632 -0.720320653423 -1.79414848198 0.0660285443552 -1.95168812546 0.0390652151081 -2.41580809904 1.65143750708 3.0541
7.73075749708 -0.734970761499 2.0388941325 -0.720396922067 -1.79399594469 0.0650485264764 -1.95181640898 0.0404501479726 -2.41596219478 1.65021209476 3.0541
7.7728160905 -0.735065530151 2.0354815388 -0.720472434105 -1.79384492062 0.0640687792895 -1.95194206809 0.0418355381838 -2.41611468231 1.64898721372 3.0541
7.81487737363 -0.735160317713 2.03206872645 -0.720547188636 -1.79369541156 0.0630893187142 -1.95206510292 0.0432213947242 -2.41626556285 1.64776285672 3.0541
7.85694132488 -0.735255126393 2.02865569796 -0.720621185853 -1.79354741712 0.0621101308524 -1.95218551128 0.0446077049886 -2.41641483673 1.64653902498 3.0541
7.89900791183 -0.735349956104 2.02524245543 -0.720694425587 -1.79340093765 0.0611312117123 -1.95230329175 0.0459944635649 -2.41656250456 1.6453157169 3.0541
7.94107710569 -0.735444809041 2.02182900136 -0.720766908026 -1.79325597277 0.0601525474778 -1.95241844214 0.047381657932 -2.4167085667 1.6440929337 3.0541
7.98314888844 -0.735539680548 2.018415337 -0.720838632278 -1.79311252427 0.059174153829 -1.95253096266 0.0487692969797 -2.41685302417 1.64287066823 3.0541
8.02522323488 -0.735634572818 2.01500146488 -0.720909598544 -1.79297059174 0.0581960169813 -1.95264085115 0.0501573682264 -2.4169958773 1.64164892167 3.0541
8.06730011621 -0.735729485766 2.01158738709 -0.720979806664 -1.7928301755 0.0572181329527 -1.95274810629 0.0515458663221 -2.41713712665 1.64042769244 3.0541
8.10937950362 -0.735824421571 2.00817310615 -0.721049256836 -1.79269127515 0.0562404880481 -1.95285272596 0.0529347788752 -2.41727677255 1.63920698172 3.0541
8.15146137551 -0.735919375633 2.00475862331 -0.721117948172 -1.79255389248 0.0552630977055 -1.9529547104 0.0543241146796 -2.41741481583 1.63798678247 3.0541
8.19354570667 -0.736014350126 2.00134394111 -0.721185880885 -1.79241802706 0.0542859482566 -1.95305405754 0.0557138613801 -2.41755125685 1.63676709584 3.0541
8.2356324683 -0.73610934497 1.99792906165 -0.72125305482 -1.79228367919 0.0533090357337 -1.95315076612 0.0571040136921 -2.41768609606 1.63554792028 3.0541
8.27772162799 -0.736204362327 1.99451398746 -0.721319470187 -1.79215084845 0.0523323465484 -1.95324483407 0.058494559343 -2.41781933381 1.63432925691 3.0541
8.31981317494 -0.73629939765 1.99109871979 -0.721385126101 -1.79201953663 0.051355895903 -1.9533362617 0.0598855070348 -2.41795097075 1.63311109882 3.0541
8.36190707314 -0.736394453097 1.9876832612 -0.721450022785 -1.79188974326 0.0503796702484 -1.95342504703 0.0612768445414 -2.4180810072 1.63189344712 3.0541
8.40400330098 -0.736489528595 1.98426761377 -0.721514160093 -1.79176146864 0.0494036656019 -1.95351118883 0.0626685666213 -2.41820944357 1.63067630028 3.0541
8.44610182247 -0.736584626286 1.98085178006 -0.721577538241 -1.79163471234 0.0484278685044 -1.95359468511 0.0640606611388 -2.41833628019 1.6294596594 3.0541
8.4882026232 -0.736679741678 1.97743576134 -0.721640156353 -1.79150947612 0.047452293912 -1.95367553625 0.0654531366948 -2.41846151751 1.62824351767 3.0541
8.53030567436 -0.73677487691 1.97401956014 -0.721702014658 -1.79138575951 0.0464769283941 -1.95375374031 0.0668459811926 -2.41858515586 1.62702787618 3.0541
8.57241094714 -0.736870031914 1.97060317858 -0.721763113018 -1.79126356279 0.0455017679672 -1.95382929614 0.0682391894446 -2.41870719558 1.62581273342 3.0541
8.61451841275 -0.736965208817 1.9671866192 -0.721823451659 -1.79114288551 0.0445267992668 -1.95390220182 0.0696327494259 -2.41882763697 1.62459809047 3.0541
8.65662805677 -0.73706040318 1.9637698833 -0.721883029709 -1.79102372941 0.0435520370259 -1.95397245777 0.0710266696538 -2.41894648031 1.62338394062 3.0541
8.69873983961 -0.737155617122 1.9603529734 -0.721941847405 -1.79090609402 0.0425774679214 -1.95404006214 0.0724209381525 -2.41906372591 1.62217028495 3.0541
8.74085374325 -0.737250850584 1.95693589165 -0.721999904617 -1.79078997959 0.0416030879575 -1.95410501382 0.0738155497801 -2.41917937403 1.62095712195 3.0541
8.7829697353 -0.737346105676 1.95351864057 -0.722057201581 -1.79067538566 0.0406288838718 -1.95416731097 0.0752104926288 -2.41929342498 1.6197444527 3.0541
8.82508779414 -0.737441378005 1.95010122147 -0.722113737426 -1.79056231398 0.0396548701873 -1.95422695406 0.0766057751414 -2.41940587884 1.6185322706 3.0541
8.86720789457 -0.737536669681 1.9466836369 -0.722169512401 -1.79045076403 0.0386810336537 -1.9542839413 0.0780013854378 -2.4195167359 1.6173205767 3.0541
8.90933001139 -0.737631980646 1.94326588899 -0.722224526381 -1.79034073607 0.0377073702869 -1.95433827166 0.0793973184396 -2.41962599636 1.61610936953 3.0541
8.95145410499 -0.737727312995 1.93984798028 -0.72227877961 -1.79023222961 0.0367338669096 -1.95438994335 0.0807935623441 -2.4197336605 1.61489865014 3.0541
8.99358016457 -0.737822662386 1.93642991209 -0.722332271223 -1.79012524638 0.0357605378244 -1.95443895691 0.0821901255114 -2.41983972823 1.61368841203 3.0541
9.03570816132 -0.737918030909 1.93301168696 -0.722385001477 -1.79001978587 0.0347873698877 -1.9544853106 0.083586996183 -2.41994419981 1.61247865627 3.0541
9.07783806284 -0.738013418516 1.92959330704 -0.722436970253 -1.78991584832 0.0338143590841 -1.95452900345 0.0849841693124 -2.42004707538 1.61126938139 3.0541
9.11996984392 -0.738108827287 1.92617477488 -0.722488177804 -1.78981343322 0.0328414923344 -1.95457003374 0.0863816332119 -2.42014835518 1.61006058843 3.0541
9.16210348295 -0.738204252924 1.92275609179 -0.722538623268 -1.78971254229 0.0318687837301 -1.95460840207 0.0877793961659 -2.42024803896 1.60885227102 3.0541
9.20423895114 -0.738299697504 1.91933726033 -0.722588306911 -1.78961317501 0.0308962202138 -1.95464410676 0.0891774465227 -2.42034612696 1.60764443018 3.0541
9.24637621967 -0.738395160985 1.91591828265 -0.72263722862 -1.78951533159 0.0299237977502 -1.9546771469 0.0905757792765 -2.42044261922 1.60643706451 3.0541
9.28851525974 -0.738490645431 1.9124991613 -0.722685388658 -1.78941901151 0.0289515033519 -1.95470752083 0.0919743828507 -2.42053751599 1.60523017502 3.0541
9.33065605695 -0.738586146593 1.90907989761 -0.722732786164 -1.7893242165 0.0279793508857 -1.95473522921 0.0933732654435 -2.42063081682 1.60402375545 3.0541
9.37279857169 -0.738681666534 1.90566049414 -0.722779421412 -1.789230946 0.0270073273788 -1.95476027043 0.0947724155095 -2.42072252194 1.60281780683 3.0541
9.41494278596 -0.738777205213 1.90224095304 -0.722825294299 -1.78913920023 0.026035428791 -1.95478264363 0.0961718280954 -2.42081263131 1.60161232776 3.0541
9.45708866375 -0.738872764683 1.89882127688 -0.722870405092 -1.78904897864 0.0250636422073 -1.9548023472 0.0975714917216 -2.42090114515 1.60040731928 3.0541
9.49923619065 -0.73896834074 1.89540146698 -0.722914752936 -1.78896028295 0.0240919812796 -1.95481938188 0.0989714145077 -2.42098806285 1.59920277522 3.0541
9.54138533426 -0.739063935431 1.89198152592 -0.722958338112 -1.7888731126 0.0231204331219 -1.9548337461 0.100371585017 -2.4210733846 1.59799869661 3.0541
9.58353606938 -0.739159548724 1.88856145585 -0.723001160522 -1.78878746778 0.0221489936666 -1.95484543907 0.101771998332 -2.42115711029 1.59679508209 3.0541
9.62568836 -0.739255182659 1.88514125933 -0.723043220444 -1.78870334794 0.0211776500627 -1.95485445925 0.103172643065 -2.42123924012 1.5955919327 3.0541
9.66784219172 -0.739350833069 1.88172093771 -0.723084517023 -1.78862075478 0.0202064157881 -1.95486080741 0.104573527287 -2.42131977329 1.59438924236 3.0541
9.70999753572 -0.739446501993 1.87830049357 -0.723125050549 -1.78853968773 0.0192352779999 -1.95486448206 0.105974639639 -2.42139870998 1.59318701212 3.0541
9.75215436321 -0.739542189406 1.87487992905 -0.723164820931 -1.78846014696 0.0182642326112 -1.95486548247 0.107375975246 -2.42147605 1.59198524066 3.0541
9.79431264178 -0.739637897332 1.87145924674 -0.723203828455 -1.78838213192 0.0172932668395 -1.95486380714 0.108777522815 -2.42155179351 1.59078392902 3.0541
9.83647235703 -0.739733621647 1.86803844798 -0.723242072266 -1.7883056443 0.0163223939684 -1.95485945692 0.110179290356 -2.42162593955 1.58958307122 3.0541
9.87863347294 -0.739829364379 1.86461753534 -0.723279552664 -1.7882306835 0.0153516012111 -1.95485243035 0.111581266595 -2.42169848827 1.58838266833 3.0541
9.92079596792 -0.739925125505 1.861196511 -0.723316269563 -1.7881572497 0.0143808844622 -1.95484272678 0.112983446702 -2.42176943941 1.58718271905 3.0541
9.96295980596 -0.740020907039 1.85777537754 -0.723352223258 -1.78808534231 0.0134102309988 -1.95483034475 0.114385819474 -2.42183879309 1.58598322444 3.0541
10.0051249726 -0.7401167049 1.8543541363 -0.723387412896 -1.78801496303 0.0124396539013 -1.95481528518 0.115788392852 -2.42190654819 1.58478417864 3.0541
10.0472914356 -0.740212521101 1.85093278987 -0.723421838785 -1.78794611126 0.0114691404421 -1.95479754667 0.117191155652 -2.42197270482 1.5835855827 3.0541
10.0894591696 -0.740308355624 1.84751134042 -0.723455500843 -1.78787878714 0.0104986864976 -1.9547771286 0.11859410309 -2.42203726265 1.5823874354 3.0541
10.1316281422 -0.740404210475 1.84408979054 -0.723488399376 -1.78781299008 0.00952827938921 -1.9547540296 0.119997224041 -2.42210022177 1.58118973778 3.0541
10.1737983355 -0.740500081608 1.84066814158 -0.72352053353 -1.78774872177 0.00855793201123 -1.95472825061 0.121400526391 -2.42216158088 1.5799924841 3.0541
10.2159697169 -0.740595971027 1.83724639613 -0.723551903621 -1.78768598158 0.00758763168572 -1.95469979031 0.12280399904 -2.42222134008 1.57879567543 3.0541
10.2581422579 -0.74069187872 1.83382455636 -0.723582509576 -1.78762476967 0.00661737425798 -1.95466864814 0.12420763724 -2.42227949894 1.57759931058 3.0541
10.300315933 -0.740787806681 1.83040262488 -0.723612351705 -1.78756508542 0.00564714709294 -1.95463482276 0.125611429945 -2.42233605755 1.57640339063 3.0541
10.3424907207 -0.740883750902 1.82698060303 -0.723641429158 -1.78750693051 0.00467696290257 -1.95459831518 0.127015384991 -2.42239101442 1.57520790993 3.0541
10.3846665923 -0.740979713377 1.82355849342 -0.723669742258 -1.78745030431 0.00370680905351 -1.95455912413 0.128419491358 -2.42244436962 1.57401286958 3.0541
10.4268435152 -0.741075694097 1.82013629823 -0.723697290937 -1.78739520695 0.00273668135862 -1.95451724909 0.129823744332 -2.42249612265 1.57281826843 3.0541
10.4690214608 -0.741171695051 1.81671402005 -0.723724075515 -1.7873416378 0.00176656721809 -1.95447268879 0.131228132946 -2.42254627356 1.57162410757 3.0541
10.5112004145 -0.741267712263 1.81329166025 -0.72375009514 -1.78728959855 0.000796479163913 -1.9544254443 0.132632664982 -2.42259482071 1.57043038148 3.0541
10.5533803404 -0.741363747717 1.80986922143 -0.723775350145 -1.78723908854 -0.000173595391931 -1.95437551438 0.134037329506 -2.42264176413 1.56923709126 3.0541
10.5955612169 -0.741459801412 1.80644670577 -0.723799840466 -1.78719010789 -0.00114366068406 -1.95432289859 0.13544212183 -2.42268710324 1.56804423583 3.0541
10.6377430044 -0.741555875326 1.80302411588 -0.723823566433 -1.78714265596 -0.00211372927344 -1.95426759569 0.136847031062 -2.42273083805 1.5668518163 3.0541
10.6799256921 -0.741651965518 1.79960145314 -0.723846527194 -1.78709673444 -0.00308378880698 -1.9542096068 0.138252064939 -2.42277296678 1.56565982726 3.0541
10.7221092439 -0.741748073962 1.79617872014 -0.72386872309 -1.78705234265 -0.00405385183903 -1.95414893074 0.139657212601 -2.4228134894 1.56446826983 3.0541
10.7642936347 -0.741844200665 1.79275591907 -0.723890154062 -1.7870094807 -0.00502392264855 -1.95408556711 0.14106246939 -2.42285240528 1.56327714299 3.0541
10.806478832 -0.741940347593 1.78933305255 -0.723910820449 -1.78696814793 -0.00599401376027 -1.95401951473 0.142467824491 -2.42288971439 1.56208644787 3.0541
10.8486648215 -0.74203651084 1.78591012196 -0.723930721397 -1.78692834603 -0.00696411300031 -1.95395077478 0.143873285596 -2.42292541478 1.56089617918 3.0541
10.8908515672 -0.742132692372 1.78248712989 -0.723949857257 -1.78689007431 -0.00793423290288 -1.95387934611 0.145278841909 -2.42295950639 1.55970633806 3.0541
10.9330390402 -0.742228892199 1.77906407856 -0.723968227975 -1.78685333288 -0.00890437777725 -1.95380522838 0.146684488814 -2.42299198852 1.55851692355 3.0541
10.9752272153 -0.742325112282 1.77564097057 -0.723985833899 -1.78681812103 -0.00987456013953 -1.95372842046 0.148090215554 -2.42302286109 1.55732793682 3.0541
11.0174160709 -0.742421348744 1.7722178073 -0.724002674174 -1.78678444048 -0.010844767975 -1.95364892357 0.14949602979 -2.42305212201 1.55613937268 3.0541
11.0596055747 -0.742517603545 1.76879459137 -0.724018749158 -1.78675229051 -0.0118150138069 -1.95356673662 0.150901920788 -2.42307977119 1.55495123232 3.0541
11.1017957014 -0.742613876701 1.76537132499 -0.724034058805 -1.78672167122 -0.0127853019917 -1.9534818593 0.15230788396 -2.42310580783 1.55376351483 3.0541
11.143986415 -0.742710170164 1.76194801078 -0.724048603469 -1.78669258189 -0.0137556450245 -1.95339429054 0.153713908618 -2.42313023185 1.5525762214 3.0541
11.1861777047 -0.742806480087 1.75852465011 -0.724062382296 -1.78666502424 -0.0147260310606 -1.95330403159 0.155120002387 -2.42315304098 1.55138934697 3.0541
11.2283695345 -0.742902808423 1.75510124561 -0.724075395651 -1.78663899752 -0.0156964726073 -1.95321108144 0.156526154598 -2.42317423509 1.55020289277 3.0541
11.2705618756 -0.742999155193 1.7516777995 -0.724087643493 -1.78661450184 -0.016666974067 -1.9531154398 0.157932360695 -2.42319381333 1.54901685794 3.0541
11.3127546956 -0.743095522345 1.74825431439 -0.724099126187 -1.78659153645 -0.0176375479325 -1.95301710564 0.159338610046 -2.42321177557 1.54783124373 3.0541
11.3549479801 -0.743191906059 1.74483079167 -0.724109842875 -1.78657010308 -0.0186081825253 -1.95291608029 0.160744910244 -2.42322811939 1.54664604518 3.0541
11.3971416967 -0.743288308282 1.74140723398 -0.724119793933 -1.78655020096 -0.0195788903408 -1.95281236274 0.162151250684 -2.42324284463 1.54546126355 3.0541
11.4393358165 -0.743384729038 1.73798364353 -0.724128979323 -1.78653183018 -0.0205496758328 -1.95270595277 0.16355762684 -2.42325595036 1.54427689807 3.0541
11.4815303109 -0.743481170272 1.73456002295 -0.72413739942 -1.78651498999 -0.021520551497 -1.9525968494 0.164964028132 -2.42326743642 1.54309295002 3.0541
11.5237251545 -0.74357762819 1.73113637363 -0.724145053364 -1.7864996821 -0.022491505807 -1.95248505398 0.166370462133 -2.42327730022 1.54190941455 3.0541
11.5659203221 -0.743674104734 1.72771269821 -0.724151941539 -1.78648590575 -0.0234625512692 -1.95237056555 0.167776918288 -2.4232855416 1.54072629298 3.0541
11.608115785 -0.743770599934 1.72428899892 -0.724158063914 -1.786473661 -0.0244336923881 -1.95225338395 0.169183392102 -2.42329215954 1.53954358459 3.0541
11.6503115072 -0.743867115728 1.72086527838 -0.724163420872 -1.78646294708 -0.0254049416606 -1.95213350822 0.17058987305 -2.42329715385 1.53836129072 3.0541
11.6925074742 -0.743963648348 1.71744153799 -0.72416801155 -1.78645376573 -0.0263762877178 -1.95201093976 0.171996368686 -2.42330052179 1.53717940665 3.0541
11.7347036573 -0.744060199728 1.71401778041 -0.724171836342 -1.78644611614 -0.0273477430624 -1.95188567767 0.173402868513 -2.42330226316 1.53599793372 3.0541
11.7769000203 -0.744156769909 1.71059400784 -0.724174895222 -1.78643999838 -0.0283193122727 -1.95175772179 0.174809368054 -2.42330237687 1.5348168713 3.0541
11.8190965383 -0.744253360822 1.70717022295 -0.724177188582 -1.78643541166 -0.0292910078521 -1.95162707122 0.176215856837 -2.4233008627 1.53363622078 3.0541
11.8612931894 -0.744349968721 1.70374642713 -0.724178715556 -1.78643235772 -0.030262818581 -1.95149372742 0.177622342404 -2.42329771777 1.53245597755 3.0541
11.9034899414 -0.744446595542 1.70032262303 -0.724179476547 -1.78643083573 -0.031234756988 -1.95135768949 0.179028814298 -2.42329294183 1.53127614302 3.0541
11.9456867689 -0.744543241324 1.69689881288 -0.724179471536 -1.78643084576 -0.0322068277005 -1.95121895735 0.180435268077 -2.42328653374 1.53009671662 3.0541
11.9878836397 -0.744639907998 1.69347499934 -0.724178700922 -1.78643238698 -0.0331790432369 -1.9510775301 0.181841693319 -2.42327849324 1.52891769979 3.0541
12.0300805321 -0.744736591842 1.69005118381 -0.724177163838 -1.78643546115 -0.0341513925397 -1.95093340924 0.183248097547 -2.42326881729 1.52773908806 3.0541
12.0722774173 -0.744833294784 1.68662736895 -0.724174860695 -1.78644006744 -0.0351238881487 -1.95078659394 0.184654470356 -2.42325750563 1.52656088287 3.0541
12.1144742701 -0.744930016873 1.68320355699 -0.724171791479 -1.78644620587 -0.036096534759 -1.95063708413 0.186060807329 -2.42324455703 1.52538308376 3.0541
12.1566710508 -0.745026760034 1.67977975061 -0.7241679566 -1.78645387563 -0.0370693449097 -1.95048487894 0.187467098091 -2.42322997123 1.52420569222 3.0541
12.1988677452 -0.745123520565 1.67635595119 -0.724163355185 -1.78646307846 -0.0380423076914 -1.95032997994 0.188873350158 -2.42321374502 1.52302870387 3.0541
12.2410643207 -0.745220300394 1.67293216142 -0.724157987658 -1.78647381351 -0.0390154356733 -1.9501723863 0.190279553166 -2.42319587811 1.52185212026 3.0541
12.2832607522 -0.745317099573 1.66950838354 -0.724151854007 -1.78648608081 -0.0399887336102 -1.95001209799 0.191685702731 -2.42317636921 1.52067594098 3.0541
12.3254570037 -0.745413920026 1.66608462022 -0.724144954654 -1.78649987952 -0.0409622140815 -1.94984911419 0.193091788514 -2.42315521803 1.51950016758 3.0541
12.3676530571 -0.745510758072 1.66266087286 -0.724137288722 -1.78651521138 -0.0419358663217 -1.94968343648 0.194497818027 -2.42313242121 1.51832479583 3.0541
12.4098488801 -0.745607615632 1.65923714415 -0.724128856642 -1.78653207554 -0.0429097029187 -1.94951506408 0.19590378096 -2.42310797845 1.51714982733 3.0541
12.4520444474 -0.745704492768 1.65581343633 -0.72411965841 -1.78655047201 -0.0438837287161 -1.94934399698 0.197309672942 -2.42308188838 1.51597526174 3.0541
12.4942397231 -0.745801391402 1.65238975209 -0.724109694458 -1.78657039991 -0.0448579563244 -1.9491702344 0.198715483675 -2.42305415067 1.5148011007 3.0541
12.5364346927 -0.745898307867 1.64896609284 -0.724098963903 -1.78659186102 -0.0458323751145 -1.94899377795 0.200121220682 -2.42302476184 1.5136273401 3.0541
12.5786293203 -0.745995244089 1.64554246125 -0.724087467188 -1.78661485445 -0.0468069977223 -1.94881462687 0.201526873683 -2.42299372155 1.51245398159 3.0541
12.6208235769 -0.746092200129 1.6421188596 -0.724075204313 -1.7866393802 -0.0477818290594 -1.9486327812 0.20293243834 -2.42296102837 1.51128102495 3.0541
12.6630174339 -0.74618917791 1.63869529058 -0.72406217572 -1.78666543739 -0.0487568817762 -1.94844824016 0.204337904393 -2.42292668196 1.51010847187 3.0541
12.7052108697 -0.746286173786 1.63527175559 -0.724048380523 -1.78669302778 -0.0497321453992 -1.94826100541 0.205743279361 -2.42289067867 1.50893631838 3.0541
12.7474038553 -0.746383189675 1.63184825733 -0.724033819174 -1.78672215048 -0.0507076325958 -1.94807107621 0.207148553012 -2.42285301815 1.50776456619 3.0541
12.7895963585 -0.746480225648 1.62842479808 -0.724018491678 -1.78675280547 -0.0516833483548 -1.94787845262 0.208553721036 -2.42281369891 1.50659321518 3.0541
12.8317883467 -0.746577283627 1.62500138053 -0.724002398488 -1.78678499185 -0.0526593053867 -1.9476831339 0.209958773197 -2.42277272057 1.50542226711 3.0541
12.8739798056 -0.746674359978 1.62157800609 -0.723985538712 -1.7868187114 -0.0536354933417 -1.94748512173 0.211363717041 -2.42273007936 1.50425171814 3.0541
12.9161706957 -0.746771456625 1.61815467748 -0.723967912814 -1.7868539632 -0.0546119249558 -1.9472844154 0.212768542356 -2.42268577489 1.50308157007 3.0541
12.9583609988 -0.746868573638 1.61473139697 -0.723949520804 -1.78689074722 -0.0555886052859 -1.94708101498 0.214173244868 -2.42263980563 1.50191182285 3.0541
13.0005506718 -0.746965712945 1.61130816728 -0.723930363146 -1.78692906253 -0.0565655471082 -1.94687491976 0.215577814369 -2.42259217116 1.50074247835 3.0541
13.0427397003 -0.747062870921 1.60788498981 -0.723910438942 -1.78696891094 -0.057542740201 -1.94666613145 0.216982258427 -2.42254286758 1.49957353284 3.0541
13.0849280554 -0.747160049491 1.6044618673 -0.723889748666 -1.78701029149 -0.0585201973525 -1.94645464935 0.218386566868 -2.42249189448 1.4984049882 3.0541
13.1271157012 -0.747257248735 1.60103880202 -0.723868292336 -1.78705320416 -0.0594979237273 -1.94624047357 0.21979073543 -2.42243925025 1.4972368445 3.0541
13.1693026125 -0.747354470575 1.59761579671 -0.723846070424 -1.78709764798 -0.0604759321428 -1.94602360339 0.221194753947 -2.42238493448 1.49606910368 3.0541
13.211488764 -0.747451711404 1.59419285277 -0.723823082028 -1.78714362477 -0.0614542125194 -1.94580404057 0.222598630009 -2.42232894313 1.49490176213 3.0541
13.2536741234 -0.747548973146 1.59076997294 -0.723799327633 -1.78719113356 -0.0624327777113 -1.94558178442 0.22400235347 -2.42227127575 1.49373482184 3.0541
13.295858669 -0.747646255886 1.58734715953 -0.723774807261 -1.7872401743 -0.0634116329716 -1.94535683506 0.225405920096 -2.4222119307 1.49256828298 3.0541
13.3380423613 -0.747743561549 1.58392441527 -0.723749521398 -1.78729074603 -0.0643907911867 -1.9451291918 0.226809319751 -2.42215090753 1.49140214756 3.0541
13.3802251822 -0.747840886538 1.58050174156 -0.723723469134 -1.78734285056 -0.0653702424096 -1.94489885641 0.228212560055 -2.42208820206 1.49023641212 3.0541
13.4224070993 -0.74793823278 1.57707914117 -0.723696650965 -1.7873964869 -0.0663499995674 -1.94466582822 0.229615630887 -2.42202381385 1.48907107875 3.0541
13.4645880874 -0.748035600363 1.57365661639 -0.72366906692 -1.78745165499 -0.0673300680003 -1.94443010737 0.231018528048 -2.42195774119 1.48790614769 3.0541
13.5067681069 -0.748132991216 1.57023417001 -0.723640717495 -1.78750835384 -0.0683104606741 -1.94419169317 0.232421241424 -2.42188998362 1.48674162108 3.0541
13.5489471435 -0.748230401751 1.56681180339 -0.723611601775 -1.78756658528 -0.0692911677695 -1.94395058742 0.233823778675 -2.42182053682 1.48557749559 3.0541
13.5911251611 -0.748327833898 1.56338951934 -0.723581720267 -1.78762634829 -0.0702722023014 -1.94370678945 0.235226129701 -2.42174940034 1.48441377339 3.0541
13.6333021344 -0.74842528775 1.55996732015 -0.723551073006 -1.78768764282 -0.0712535696972 -1.94346029942 0.236628290337 -2.42167657241 1.48325045485 3.0541
13.6754780276 -0.74852276524 1.55654520862 -0.7235196605 -1.78775046783 -0.0722352830079 -1.94321111665 0.238030250495 -2.42160205256 1.48208754218 3.0541
13.7176528261 -0.748620262786 1.55312318613 -0.723487481825 -1.78781482518 -0.0732173325458 -1.94295924296 0.239432017874 -2.42152583635 1.48092503222 3.0541
13.7598264868 -0.748717782324 1.54970125549 -0.723454537504 -1.78788071382 -0.0741997314073 -1.94270467769 0.240833582401 -2.42144792331 1.47976292722 3.0541
13.8019989917 -0.748815323949 1.546279419 -0.723420827573 -1.78794813368 -0.0751824851194 -1.94244742099 0.242234939945 -2.42136831162 1.47860122768 3.0541
13.8441703012 -0.748912889601 1.54285767949 -0.723386352557 -1.78801708371 -0.0761656068316 -1.9421874722 0.243636080434 -2.42128700081 1.47743993591 3.0541
13.8863403973 -0.7490104757 1.53943603834 -0.723351111522 -1.78808756578 -0.0771490869642 -1.94192483315 0.24503701163 -2.42120398628 1.47627904887 3.0541
13.9285092439 -0.749108084191 1.53601449836 -0.723315105002 -1.78815957882 -0.0781329387271 -1.94165950319 0.246437723469 -2.42111926758 1.47511856894 3.0541
13.9706768194 -0.749205715173 1.53259306189 -0.723278333043 -1.78823312274 -0.0791171677454 -1.94139148248 0.247838211859 -2.42103284283 1.47395849673 3.0541
14.0128430807 -0.749303370587 1.52917173175 -0.723240796179 -1.78830819647 -0.0801017872544 -1.94112077034 0.249238466756 -2.42094471156 1.47279883464 3.0541
14.055008017 -0.749401046866 1.52575050933 -0.72320249347 -1.78838480189 -0.081086787824 -1.94084736864 0.250638495962 -2.42085486905 1.47163957981 3.0541
14.0971715885 -0.749498745951 1.52232939746 -0.723163425463 -1.7884629379 -0.082072182738 -1.9405712767 0.252038289455 -2.42076331481 1.47048073471 3.0541
14.1393337703 -0.749596467951 1.5189083985 -0.723123592208 -1.78854260441 -0.0830579777462 -1.94029249471 0.253437843165 -2.42067004695 1.46932230006 3.0541
14.1814945261 -0.749694214811 1.51548751529 -0.723082994254 -1.78862380032 -0.08404418618 -1.94001102197 0.254837147074 -2.42057506497 1.46816427839 3.0541
14.2236538345 -0.749791982968 1.51206674921 -0.723041630652 -1.78870652752 -0.0850307987412 -1.93972686036 0.256236209045 -2.42047836403 1.46700666699 3.0541
14.2658116702 -0.749889774369 1.50864610311 -0.722999501963 -1.7887907849 -0.0860178288169 -1.93944000922 0.257635019078 -2.42037994366 1.46584946842 3.0541
14.3079679936 -0.749987589127 1.50522557938 -0.722956608242 -1.78887657234 -0.0870052822676 -1.93915046871 0.259033573143 -2.42027980189 1.46469268356 3.0541
14.3501227722 -0.750085429193 1.50180518086 -0.722912950051 -1.78896388872 -0.0879931725344 -1.93885823814 0.260431861243 -2.42017793825 1.46353631504 3.0541
14.3922759954 -0.750183291006 1.49838490894 -0.722868526434 -1.78905273596 -0.0889814904459 -1.93856331939 0.26182989131 -2.42007434777 1.46238036029 3.0541
14.4344276199 -0.750281176523 1.49496476651 -0.722823337964 -1.7891431129 -0.0899702495088 -1.93826571178 0.263227653361 -2.41996902996 1.46122482201 3.0541
14.4765776205 -0.750379085857 1.49154475593 -0.722777384703 -1.78923501942 -0.0909594556932 -1.93796541549 0.264625143411 -2.41986198282 1.4600697012 3.0541
14.5187259576 -0.750477020968 1.48812488011 -0.722730667228 -1.78932845437 -0.0919491225632 -1.93766242981 0.266022351479 -2.41975320589 1.45891500061 3.0541
14.5608726203 -0.750574978297 1.48470514042 -0.722683184571 -1.78942341968 -0.0929392410708 -1.93735675662 0.267419285577 -2.41964269406 1.45776071783 3.0541
14.6030175691 -0.750672959805 1.48128553976 -0.722634937321 -1.78951991418 -0.0939298248377 -1.93704839523 0.268815935747 -2.41953044687 1.45660685568 3.0541
14.6451607716 -0.750770965612 1.47786608053 -0.722585925547 -1.78961793773 -0.0949208799618 -1.93673734581 0.270212298042 -2.41941646226 1.4554534153 3.0541
14.6873021989 -0.750868997685 1.47444676565 -0.722536149838 -1.78971748915 -0.0959124201285 -1.93642360763 0.271608362505 -2.41930073978 1.45430039955 3.0541
14.7294418295 -0.750967052467 1.4710275965 -0.722485609219 -1.78981857039 -0.0969044364251 -1.93610718259 0.273004137224 -2.4191832742 1.45314780621 3.0541
14.7715796273 -0.751065131924 1.467608576 -0.722434304292 -1.78992118024 -0.097896942591 -1.93578806996 0.274399612271 -2.41906406506 1.45199563822 3.0541
14.81371556 -0.751163236184 1.46418970657 -0.722382235132 -1.79002531856 -0.0988899448629 -1.93546626991 0.275794783735 -2.41894311029 1.45084389683 3.0541
14.8558495987 -0.751261367215 1.46077099114 -0.722329402344 -1.79013098414 -0.0998834570399 -1.93514178169 0.277189641695 -2.41882040941 1.44969258507 3.0541
14.8979817219 -0.751359521465 1.45735243111 -0.722275804941 -1.79023817894 -0.100877470347 -1.93481460719 0.278584194322 -2.4186959571 1.44854170086 3.0541
14.9401118934 -0.751457700908 1.45393402942 -0.722221443541 -1.79034690174 -0.101871998658 -1.93448474568 0.279978431711 -2.41856975289 1.44739124727 3.0541
14.9822400846 -0.751555905674 1.45051578851 -0.722166318227 -1.79045715237 -0.102867048339 -1.93415219728 0.281372350002 -2.41844179469 1.44624122573 3.0541
15.0243662558 -0.751654137741 1.44709771134 -0.722110429617 -1.79056892959 -0.103862633329 -1.93381696124 0.282765939295 -2.41831208204 1.44509163936 3.0541
15.066490389 -0.751752393557 1.4436797993 -0.722053776716 -1.79068223539 -0.104858744986 -1.93347903944 0.284159207858 -2.41818060949 1.44394248628 3.0541
15.1086124555 -0.7518506751 1.44026205537 -0.721996360155 -1.79079706852 -0.105855397318 -1.93313843112 0.285552145816 -2.41804737658 1.44279376969 3.0541
15.1507324191 -0.75194898251 1.436844482 -0.721938180024 -1.79091342878 -0.106852596837 -1.93279513639 0.286944749353 -2.4179123812 1.44164549116 3.0541
15.1928502403 -0.75204731777 1.43342708219 -0.721879236958 -1.79103131491 -0.107850357619 -1.93244915445 0.288337008602 -2.41777562289 1.44049765397 3.0541
15.2349659082 -0.752145677327 1.43000985733 -0.721819529949 -1.79115072893 -0.108848671157 -1.93210048718 0.289728931935 -2.4176370961 1.43935025639 3.0541
15.2770793834 -0.75224406317 1.42659281043 -0.721759059646 -1.79127166953 -0.109847551618 -1.9317491338 0.291120509495 -2.41749680039 1.43820330179 3.0541
15.3191906333 -0.752342475441 1.42317594395 -0.721697826144 -1.79139413654 -0.110847005641 -1.93139509437 0.292511737534 -2.41735473361 1.43705679188 3.0541
15.361299622 -0.752440916133 1.41975926094 -0.721635830096 -1.79151812863 -0.111847047463 -1.93103836809 0.293902606206 -2.41721089533 1.43591073008 3.0541
15.4034063315 -0.752539381691 1.41634276278 -0.721573070481 -1.79164364786 -0.112847668715 -1.9306789568 0.295293123993 -2.41706527987 1.43476511486 3.0541
15.4455107293 -0.752637874111 1.4129264525 -0.721509547966 -1.7917706929 -0.113848883704 -1.93031685969 0.296683281082 -2.41691788683 1.43361994972 3.0541
15.4876127759 -0.752736393542 1.40951033262 -0.721445262651 -1.79189926352 -0.114850699234 -1.9299520768 0.298073073771 -2.41676871403 1.43247523654 3.0541
15.5297124424 -0.752834941986 1.40609440618 -0.721380215206 -1.79202935842 -0.115853129695 -1.92958460727 0.299462492249 -2.41661776105 1.43133097889 3.0541
15.5718097072 -0.752933515886 1.40267867459 -0.721314404599 -1.79216097963 -0.116856166864 -1.92921445295 0.300851545117 -2.41646502212 1.43018717543 3.0541
15.6139045308 -0.753032117247 1.39926314092 -0.721247831513 -1.7922941258 -0.117859825207 -1.92884161296 0.302240222593 -2.41631049685 1.4290438298 3.0541
15.6559968843 -0.753130746223 1.39584780769 -0.721180496057 -1.79242879671 -0.118864111687 -1.92846608732 0.303628521041 -2.41615418303 1.42790094405 3.0541
15.6980867281 -0.753229404824 1.392432678 -0.721112398915 -1.792564991 -0.119869040848 -1.92808787513 0.305016430692 -2.4159960803 1.42675852192 3.0541
15.7401740479 -0.753328089491 1.38901775325 -0.721043539045 -1.79270271074 -0.120874604621 -1.9277069782 0.306403960268 -2.41583618275 1.42561656225 3.0541
15.7822588039 -0.753426802241 1.38560303654 -0.720973917147 -1.79284195453 -0.121880817644 -1.92732339562 0.307791100023 -2.41567449002 1.42447506885 3.0541
15.8243409639 -0.753525543229 1.38218853043 -0.720903533336 -1.79298272216 -0.122887687034 -1.92693712737 0.309177846397 -2.4155109999 1.42333404393 3.0541
15.8664204881 -0.753624314478 1.37877423805 -0.720832388314 -1.7931250122 -0.123895227516 -1.92654817248 0.310564189653 -2.41534571204 1.4221934914 3.0541
15.9084973658 -0.753723112425 1.37536016081 -0.720760481028 -1.79326882677 -0.124903431169 -1.92615653276 0.311950138653 -2.41517862043 1.42105341029 3.0541
15.9505715466 -0.753821939096 1.37194630185 -0.720687812193 -1.79341416444 -0.125912312805 -1.92576220722 0.313335683693 -2.41500972476 1.41991380458 3.0541
15.9926430089 -0.753920794653 1.36853266375 -0.720614381934 -1.79356102496 -0.126921879715 -1.92536519581 0.314720821286 -2.41483902277 1.41877467667 3.0541
16.0347117131 -0.754019681128 1.36511924969 -0.72054019097 -1.79370940689 -0.127932146804 -1.92496549752 0.316105541738 -2.41466651417 1.41763603062 3.0541
16.0767776339 -0.754118594955 1.36170606108 -0.720465238234 -1.79385931236 -0.128943106306 -1.92456311408 0.317489854058 -2.41449219285 1.41649786567 3.0541
16.118840739 -0.754217538169 1.3582931011 -0.72038952446 -1.79401073991 -0.129954773218 -1.92415804449 0.318873748589 -2.41431605851 1.41536018597 3.0541
16.1609009923 -0.75431651094 1.35488037237 -0.72031304978 -1.79416368927 -0.130967155012 -1.92375028863 0.320257221921 -2.4141381089 1.41422299411 3.0541
16.2029583579 -0.75441551531 1.35146787811 -0.720235814932 -1.79431815896 -0.131980266779 -1.92333984541 0.321640264415 -2.41395834376 1.41308629432 3.0541
16.2450128177 -0.754514547707 1.34805561972 -0.720157818836 -1.79447415115 -0.132994100912 -1.92292671656 0.323022885233 -2.41377675687 1.41195008606 3.0541
16.2870643286 -0.754613610179 1.34464360045 -0.720079062244 -1.79463166434 -0.134008672601 -1.92251090098 0.324405074771 -2.41359334797 1.41081437366 3.0541
16.3291128581 -0.754712702901 1.34123182293 -0.719999545295 -1.79479069824 -0.13502398951 -1.9220923985 0.325786829705 -2.41340811482 1.40967915989 3.0541
16.3711583702 -0.754811827925 1.33782029043 -0.719919268747 -1.79495125133 -0.136040066921 -1.92167120799 0.327168140453 -2.41322105718 1.40854444915 3.0541
16.4132008433 -0.754910981678 1.33440900437 -0.719838231506 -1.79511332581 -0.137056897402 -1.9212473311 0.328549016337 -2.41303216875 1.40741024114 3.0541
16.4552402414 -0.755010166215 1.33099796804 -0.719756434343 -1.79527692014 -0.138074496345 -1.92082076667 0.329929447815 -2.4128414493 1.40627654037 3.0541
16.4972765249 -0.755109381721 1.32758718412 -0.719673877405 -1.79544203402 -0.139092871601 -1.92039151448 0.331309431661 -2.41264889659 1.40514334979 3.0541
16.5393096615 -0.755208630257 1.3241766559 -0.719590561469 -1.79560866589 -0.140112038665 -1.9199595733 0.332688958349 -2.41245451041 1.40401067403 3.0541
16.5813396258 -0.755307908246 1.32076638483 -0.719506485427 -1.79577681797 -0.14113199028 -1.91952494474 0.33406803738 -2.41225828438 1.40287851297 3.0541
16.6233663819 -0.755407217758 1.31735637425 -0.719421650069 -1.79594648869 -0.142152742054 -1.91908762758 0.335446659272 -2.41206021832 1.40174687133 3.0541
16.6653898902 -0.755506558978 1.31394662685 -0.719336055552 -1.79611767772 -0.143174302027 -1.9186476215 0.336824820914 -2.41186030996 1.40061575227 3.0541
16.7074101182 -0.755605933982 1.31053714602 -0.719249702669 -1.79629038349 -0.14419668592 -1.91820492521 0.338202512842 -2.41165855917 1.3994851606 3.0541
16.7494270408 -0.755705339191 1.30712793318 -0.719162590301 -1.79646460822 -0.145219886662 -1.91775954026 0.339579744744 -2.41145495947 1.39835509646 3.0541
16.7914406184 -0.755804776682 1.30371899174 -0.719074719257 -1.79664035031 -0.146243920072 -1.91731146532 0.340956507214 -2.41124951071 1.39722556474 3.0541
16.8334508185 -0.755904246653 1.30031032444 -0.718986089701 -1.79681760943 -0.147268794421 -1.91686070002 0.342332797246 -2.41104221065 1.39609656884 3.0541
16.875457598 -0.756003751188 1.2969019347 -0.718896702447 -1.79699638393 -0.148294525639 -1.91640724298 0.343708605463 -2.41083305919 1.39496811375 3.0541
16.9174609352 -0.756103286704 1.29349382399 -0.718806556362 -1.7971766761 -0.149321106857 -1.91595109567 0.345083941744 -2.41062204976 1.39384019985 3.0541
16.9603049907 -0.756202855292 1.29008599574 -0.718715652274 -1.79735848428 -0.150348554125 -1.91549225668 0.346458796767 -2.41040918227 1.39271283226 3.0541
17.0035738666 -0.756302457153 1.28667845275 -0.718623990355 -1.79754180812 -0.151376875922 -1.91503072554 0.347833167661 -2.41019445449 1.39158601457 3.0541
17.0472717254 -0.756402094389 1.28327119849 -0.718531571442 -1.79772664594 -0.152406088437 -1.91456650079 0.349207045118 -2.40997786637 1.39045975201 3.0541
17.091402805 -0.75650176341 1.27986423446 -0.718438394384 -1.79791300006 -0.153436184992 -1.91409958381 0.350580439237 -2.40975941125 1.38933404519 3.0541
17.1359713506 -0.756601466323 1.27645756414 -0.718344460031 -1.79810086876 -0.154467181886 -1.9136299731 0.351953340783 -2.4095390891 1.38820889945 3.0541
17.1809816652 -0.756701203333 1.27305119038 -0.718249768565 -1.7982902517 -0.155499087831 -1.9131576681 0.353325747019 -2.4093168977 1.38708431862 3.0541
17.2264380802 -0.756800976556 1.26964511672 -0.718154320841 -1.79848114714 -0.156531919258 -1.91268266724 0.354697648738 -2.40909283705 1.38596030813 3.0541
17.2723449886 -0.756900782398 1.26623934465 -0.718058115695 -1.79867355744 -0.157565669701 -1.91220497181 0.356069056267 -2.40886690041 1.38483686886 3.0541
17.3187068156 -0.757000622979 1.26283387775 -0.717961153997 -1.79886748083 -0.158600355726 -1.91172458022 0.357439960461 -2.40863908782 1.38371400637 3.0541
17.3655280224 -0.757100498514 1.25942871891 -0.717863435937 -1.79906291695 -0.159635986278 -1.91124149179 0.35881035874 -2.40840939705 1.38259172472 3.0541
17.4128131172 -0.757200411131 1.25602387172 -0.717764962393 -1.79925986404 -0.160672578054 -1.91075570485 0.360180242001 -2.40817782818 1.38147002957 3.0541
17.4605666656 -0.757300357235 1.25261933772 -0.717665732184 -1.79945832446 -0.161710124823 -1.91026722059 0.3615496208 -2.40794437438 1.38034892209 3.0541
17.508793262 -0.757400338955 1.24921512052 -0.717565746201 -1.79965829642 -0.162748643392 -1.9097760373 0.362918486129 -2.40770903575 1.37922840804 3.0541
17.5574975515 -0.757500356518 1.24581122309 -0.717465004644 -1.79985977954 -0.163788142987 -1.9092821542 0.364286835546 -2.40747181009 1.37810849174 3.0541
17.6066842076 -0.757600412066 1.24240764909 -0.717363508412 -1.800062772 -0.164828640573 -1.90878556949 0.365654660074 -2.40723269754 1.37698917909 3.0541
17.6563579869 -0.757700501999 1.23900440008 -0.717261256309 -1.80026727621 -0.165870130151 -1.90828628426 0.367021970528 -2.40699169119 1.37587047153 3.0541
17.7065236603 -0.757800628463 1.23560147974 -0.717158249247 -1.80047329033 -0.166912628815 -1.90778429668 0.368388758022 -2.4067487912 1.37475237506 3.0541
17.7571860527 -0.757900791693 1.2321988911 -0.717054487435 -1.80068081396 -0.167956146063 -1.90727960584 0.369755020285 -2.4065039954 1.37363489428 3.0541
17.8083500215 -0.758000993847 1.2287966379 -0.716949971794 -1.80088984524 -0.169000699145 -1.9067722098 0.371120748478 -2.40625730398 1.3725180353 3.0541
17.860537217 -0.758101231318 1.22539472172 -0.71684470111 -1.80110038661 -0.170046282305 -1.90626210956 0.372485953692 -2.40600870997 1.37140179986 3.0541
17.9137680441 -0.758201506272 1.22199314633 -0.716738676319 -1.80131243619 -0.171092912948 -1.90574930314 0.373850627167 -2.4057582136 1.37028619422 3.0541
17.9680633185 -0.758301818953 1.21859191481 -0.71663189764 -1.80152599355 -0.172140600849 -1.9052337895 0.375214766833 -2.40550581271 1.36917122323 3.0541
18.0234442663 -0.758402171532 1.21519103097 -0.716524366014 -1.8017410568 -0.17318936356 -1.90471556657 0.376578363995 -2.40525150758 1.36805689327 3.0541
18.0799325709 -0.758502560403 1.21179049644 -0.716416080213 -1.8019576284 -0.174239195602 -1.9041946352 0.377941430026 -2.40499529115 1.36694320637 3.0541
18.1375503044 -0.758602987746 1.20839031508 -0.716307041193 -1.80217570644 -0.175290114677 -1.90367099328 0.379303956334 -2.40473716373 1.36583016906 3.0541
18.1963199965 -0.758703453814 1.20499049002 -0.716197249182 -1.80239529046 -0.176342130869 -1.90314463963 0.380665941047 -2.40447712318 1.36471778645 3.0541
18.2562646051 -0.758803960798 1.20159102517 -0.716086705146 -1.80261637853 -0.177395262046 -1.90261557202 0.382027375638 -2.40421516987 1.3636060652 3.0541
18.3180190222 -0.758904505088 1.19819192218 -0.715975407838 -1.80283897315 -0.178449503014 -1.90208379118 0.383388271785 -2.40395129665 1.36249500765 3.0541
18.3816378128 -0.759005088881 1.19479318501 -0.715863358238 -1.80306307235 -0.179504871803 -1.90154929482 0.384748621069 -2.40368550393 1.36138462058 3.0541
18.4471772015 -0.759105712444 1.19139481685 -0.715750556583 -1.80328867566 -0.180561378816 -1.9010120816 0.386108421842 -2.40341778958 1.36027490941 3.0541
18.5153702641 -0.75920637798 1.18799682171 -0.715637003861 -1.80351578111 -0.181619042255 -1.90047214916 0.387467665759 -2.40314815404 1.35916588107 3.0541
18.5863244127 -0.759307081883 1.18459920129 -0.715522698808 -1.80374439121 -0.182677857229 -1.89992949805 0.388826364827 -2.40287659012 1.35805753821 3.0541
18.6601513553 -0.759407826366 1.18120195962 -0.715407642427 -1.80397450397 -0.183737842113 -1.89938412582 0.390184510816 -2.40260309827 1.35694988791 3.0541
18.7377354865 -0.759508611705 1.1778051 -0.715291834964 -1.8042061189 -0.184799007643 -1.89883603097 0.391542102327 -2.40232767643 1.35584293587 3.0541
18.820083243 -0.759609440127 1.17440862651 -0.715175277432 -1.80443923396 -0.185861372383 -1.89828521095 0.392899131212 -2.40205032511 1.35473668932 3.0541
18.9083611012 -0.759710308022 1.1710125409 -0.715057968548 -1.80467385173 -0.186924931761 -1.89773166615 0.394255609825 -2.40177103704 1.35363115124 3.0541
19.0039423398 -0.759811217623 1.16761684732 -0.714939909338 -1.80490997015 -0.187989704519 -1.89717539394 0.395611530153 -2.40148981277 1.35252632901 3.0541
19.1095111953 -0.759912169219 1.16422154912 -0.714821100058 -1.80514758871 -0.189055701743 -1.89661639264 0.396966891062 -2.40120665026 1.35142222863 3.0541
19.2296442586 -0.760013165057 1.16082665053 -0.714701541743 -1.80538670534 -0.190122942381 -1.89605465951 0.398321684622 -2.40092155011 1.35031885763 3.0541
19.372884387 -0.760114201526 1.15743215332 -0.714581233093 -1.80562732264 -0.191191422195 -1.89549019475 0.399675923569 -2.40063450499 1.34921621934 3.0541
19.5645891788 -0.760215280881 1.15403806174 -0.714460175158 -1.80586943851 -0.192261160316 -1.89492299555 0.401029600116 -2.40034551553 1.34811432143 3.0541
20.0 -0.760316403425 1.15064437927 -0.714338368203 -1.80611305242 -0.19333216822 -1.89435306001 0.402382713416 -2.40005457973 1.34701317026 3.0541
