liuchen18/hilsys_old/sim_sys/data/fwx_planned_trajectory.txt
this is the FWX joint values,the following info is time,x,y,theta,joint1,joint2,joint3,joint4,joint5,joint6,joint7
0.0 -1.54873956399 0.115180123458 3.17715450578 -0.958420696999 -0.773286359331 -0.689645952673 0.696503083326 -1.0003195547 -0.109706627844 -1.6921080346
0.0779258711686 -1.5487911404 0.113057814209 3.17811742368 -0.96034653281 -0.784459047692 -0.690874101889 0.691977368159 -0.998430316239 -0.108285564612 -1.68714612499
0.136913923313 -1.5488411287 0.110952320707 3.17908729114 -0.96228626772 -0.795787686563 -0.6921916758 0.687170574512 -0.996521644023 -0.106920563807 -1.68212057543
0.187131297874 -1.54888967641 0.108859839628 3.1800632456 -0.964238176632 -0.80725965405 -0.693598841353 0.682081882966 -0.994595504838 -0.105619166291 -1.67703638968
0.231718660188 -1.54893695537 0.106776510901 3.18104443149 -0.966200548421 -0.818861905385 -0.69509550095 0.676711472517 -0.992654062392 -0.104388831408 -1.67189851459
0.272255998293 -1.54898315953 0.104698440081 3.18203000627 -0.968171697978 -0.830581052335 -0.696681303376 0.671060492164 -0.990699679894 -0.103236880582 -1.66671179883
0.310035412645 -1.54902850265 0.102621719367 3.1830191455 -0.970149976448 -0.842403438832 -0.698355655831 0.665131025353 -0.988734920926 -0.102170444947 -1.66148095728
0.345539379884 -1.54907321585 0.100542447142 3.18401104709 -0.972133779629 -0.854315212245 -0.700117736841 0.65892604848 -0.986762548575 -0.101196417461 -1.65621054125
0.379356019738 -1.54911985917 0.0985250132063 3.18500623677 -0.974124158983 -0.866358865387 -0.701991571166 0.652403959474 -0.984776556338 -0.100329196067 -1.65087061159
0.411686600115 -1.54916649724 0.0964968109902 3.18600211158 -0.976115908599 -0.87846061478 -0.703948892907 0.645618823122 -0.982789751296 -0.0995689412997 -1.64550209936
0.442561051226 -1.54921340271 0.0944541665808 3.18699797723 -0.978107639899 -0.890606824275 -0.705988285364 0.638576060011 -0.980805445955 -0.0989214308448 -1.64010872357
0.472306198309 -1.54926085472 0.0923934738766 3.18799317027 -0.980098025972 -0.902783903938 -0.708108169048 0.631281744827 -0.978827125918 -0.0983920640706 -1.63469397621
0.500931463069 -1.54930913682 0.0903112047441 3.18898705762 -0.982085800677 -0.914978348528 -0.71030681151 0.623742559381 -0.976858439707 -0.097985840125 -1.6292611231
0.528723919579 -1.54935853487 0.0882039175452 3.18997903552 -0.984069756478 -0.927176768395 -0.71258233559 0.615965749339 -0.974903187183 -0.0977073400693 -1.62381321007
0.555948044823 -1.54940933504 0.086068264528 3.19096852794 -0.986048741314 -0.939365915437 -0.714932726361 0.607959083949 -0.972965306318 -0.0975607120697 -1.61835307316
0.583977283237 -1.54946182181 0.083900998228 3.19195498458 -0.98802165461 -0.951532704553 -0.7173558366 0.599730819372 -0.971048858357 -0.0975496590856 -1.61288335247
0.613203247693 -1.54952091527 0.081825146084 3.19293845775 -0.989988600943 -0.963737728249 -0.719897679906 0.591198861204 -0.969145927611 -0.0977052332712 -1.60735358427
0.643487601266 -1.54958253252 0.0797112170305 3.19391698787 -0.991945661187 -0.975891261835 -0.722503666103 0.582471659453 -0.967274178194 -0.0980045817318 -1.60182217998
0.674838072868 -1.54964693972 0.0775564908086 3.19489014205 -0.993891969542 -0.987981722889 -0.725171452999 0.573558387408 -0.965437857071 -0.0984497534525 -1.59629084705
0.707584842166 -1.54971439346 0.0753583567083 3.19585750195 -0.995826689335 -0.99999773517 -0.727898595296 0.564468534316 -0.963641255212 -0.0990423519095 -1.59076118685
0.741756805462 -1.54978513907 0.0731143169353 3.19681866116 -0.997749007756 -1.01192813456 -0.73068254338 0.555211890665 -0.961888686323 -0.0997835310664 -1.58523471866
0.777737449769 -1.54985940893 0.0708219901828 3.19777322278 -0.999658131 -1.02376197541 -0.733520641662 0.545798535866 -0.960184464192 -0.100673991369 -1.57971290396
0.816261153356 -1.54993742066 0.0684791155829 3.19872079723 -1.00155327991 -1.03548853821 -0.736410126773 0.536238827463 -0.958532878616 -0.101713975625 -1.57419717059
0.851815934331 -1.55001937535 0.066083557141 3.1996610004 -1.00343368623 -1.04709733916 -0.739348125934 0.526543391002 -0.956938169919 -0.102903264879 -1.56868893624
0.896117251863 -1.55012530691 0.0634832675126 3.20072575908 -1.00556320359 -1.06028779204 -0.74283549239 0.515176429709 -0.955176036011 -0.104498037484 -1.56233435258
0.944471178371 -1.55023740138 0.0608095586858 3.2017786372 -1.00766895983 -1.07329637125 -0.74637153158 0.503676127473 -0.953501369469 -0.106287736326 -1.55599658291
0.998788864694 -1.55035585373 0.0580601498879 3.20281917227 -1.00975002998 -1.08611029023 -0.74995199425 0.492058210127 -0.951919829662 -0.108269584982 -1.54967709009
1.04698038364 -1.55048081918 0.0552329763455 3.20384690084 -1.01180548713 -1.09871718737 -0.753572466258 0.480338711974 -0.950436800198 -0.110440088624 -1.5433774942
1.09016016298 -1.55061240996 0.0523262016133 3.20486135925 -1.01383440393 -1.11110516586 -0.757228371885 0.468533951673 -0.949057334772 -0.112795032183 -1.53709960014
1.13135100041 -1.55075069225 0.0493382304563 3.20586208535 -1.01583585615 -1.12326284194 -0.760914981202 0.456660498557 -0.947786102869 -0.115329482165 -1.53084541952
1.17595102 -1.55089568341 0.0462677220487 3.20684862127 -1.01780892798 -1.13517940021 -0.764627421549 0.44473512895 -0.946627336236 -0.118037793612 -1.52461718612
1.22126463242 -1.55105907029 0.0433642546731 3.20781649594 -1.01974467732 -1.14688634152 -0.768450883293 0.432602275005 -0.945584100995 -0.121010676997 -1.51834115402
1.26229375116 -1.55122972843 0.040377898178 3.20876810168 -1.0216478888 -1.15833688508 -0.772283934465 0.420464601002 -0.944662914749 -0.124146556652 -1.51209671714
1.30012394694 -1.55140750606 0.0373082610326 3.20970310943 -1.0235179043 -1.16952354236 -0.776122111025 0.408337491136 -0.943866281002 -0.127437801382 -1.50588606568
1.33533351853 -1.55159219948 0.0341552062965 3.21062120803 -1.02535410151 -1.18043950097 -0.779960889881 0.396236273353 -0.943196115992 -0.130876246624 -1.49971164555
1.36838991283 -1.55178355326 0.0309188595334 3.21152210966 -1.02715590476 -1.19107868317 -0.783795715189 0.38417614088 -0.94265372103 -0.134453232721 -1.4935761401
1.39969574875 -1.55198126131 0.0275996137692 3.21240555537 -1.02892279618 -1.20143580291 -0.787622028412 0.372172064413 -0.942239762699 -0.138159652065 -1.48748244487
1.43050904129 -1.55218496884 0.024198131502 3.21327132052 -1.03065432648 -1.21150641787 -0.791435300643 0.360238698866 -0.94195426167 -0.14198600484 -1.48143363662
1.46223206772 -1.55240974161 0.0210099164494 3.21411258057 -1.03233684657 -1.22129519911 -0.795331426741 0.348195088859 -0.941810490578 -0.146054829954 -1.47535159702
1.49527185952 -1.55264045303 0.0177435083436 3.2149347597 -1.03398120484 -1.23080017398 -0.799200744672 0.336260361136 -0.941796371887 -0.15022683141 -1.46931903554
1.52999015933 -1.55287660927 0.0144002882129 3.2157378377 -1.03558736084 -1.24002021018 -0.803039731495 0.324446131013 -0.941909994548 -0.154491949283 -1.46333883005
1.56679853006 -1.55311768501 0.010981846006 3.21652184089 -1.03715536721 -1.24895497897 -0.806844995355 0.312763411738 -0.94214888147 -0.158840047663 -1.45741392774
1.60669116628 -1.55336312864 0.00748996953677 3.21728684384 -1.03868537312 -1.25760495764 -0.810613300181 0.301222545641 -0.942510022578 -0.163260983454 -1.45154730247
1.64293424514 -1.55361236789 0.00392662990815 3.21803297042 -1.04017762628 -1.26597142294 -0.814341589622 0.289833140236 -0.942989915652 -0.167744676858 -1.44574191152
1.67796320387 -1.55386481579 0.00029396448794 3.21876039381 -1.04163247306 -1.27405643357 -0.818027007991 0.278604014119 -0.943584613328 -0.172281180691 -1.44000065386
1.7214643066 -1.55418387217 -0.00363568843166 3.21957719465 -1.04326607475 -1.28312839995 -0.822395962541 0.265464280074 -0.944444559913 -0.17781625057 -1.43328734427
1.76633021325 -1.55450674755 -0.00765050154586 3.2203679452 -1.04484757584 -1.29184261553 -0.826694873101 0.252572880794 -0.945452641897 -0.183401499729 -1.4266638177
1.81539030831 -1.55483246554 -0.0117467577668 3.22113323376 -1.04637815297 -1.30020567257 -0.830921260768 0.239937832823 -0.946601009906 -0.189022782063 -1.42013363072
1.87096261828 -1.55516006623 -0.0159206178733 3.22187371863 -1.04785912271 -1.30822509589 -0.835073025471 0.227565708188 -0.947881443628 -0.194666625127 -1.41370006461
1.92218607391 -1.55548861634 -0.0201681580975 3.22259011936 -1.04929192416 -1.31590923565 -0.839148445125 0.215461655299 -0.949285465806 -0.200320303454 -1.40736607882
1.96905234508 -1.55581721804 -0.0244854085365 3.22328320771 -1.05067810085 -1.32326715553 -0.843146170837 0.203629437586 -0.950804452864 -0.205971897921 -1.40113427431
2.02216960937 -1.55617213236 -0.0284436662629 3.22394001757 -1.05199172058 -1.33024808466 -0.847197078856 0.191801005522 -0.952490848723 -0.211846703925 -1.39489898077
2.06697361318 -1.55652655728 -0.0324620768864 3.22457401456 -1.05325971455 -1.336939112 -0.851165982477 0.180253836284 -0.954280617219 -0.217704963147 -1.38876338001
2.11373715028 -1.55687968543 -0.0365370556896 3.22518613021 -1.05448394587 -1.34334992394 -0.855053127727 0.168987125698 -0.956165270667 -0.223537395759 -1.38272896595
2.16684272081 -1.55723076486 -0.0406650909325 3.22577730986 -1.05566630516 -1.3494904092 -0.858858997056 0.157999132929 -0.958136513263 -0.229335561673 -1.37679688427
2.23165885793 -1.55757910129 -0.0448427613592 3.22634850359 -1.05680869263 -1.35537057323 -0.862584285054 0.147287274548 -0.960186296814 -0.235091843273 -1.37096793765
2.30760075016 -1.55792405919 -0.0490667523252 3.22690065857 -1.05791300259 -1.36100046119 -0.866229875873 0.136848217784 -0.962306867513 -0.240799421295 -1.36524259632
2.36442822497 -1.55829642863 -0.0528802287911 3.22741797132 -1.05894762808 -1.36630280566 -0.869933655906 0.126389899556 -0.964576539904 -0.246727175586 -1.35950696129
2.41082538413 -1.5586653814 -0.0567330001331 3.22791706256 -1.05994581055 -1.37139103166 -0.873558804984 0.116199342834 -0.966908706649 -0.252602406803 -1.3538678798
2.45075471827 -1.5590303876 -0.0606224011847 3.22839887994 -1.06090944533 -1.37627389605 -0.877106948082 0.106271265948 -0.969296577872 -0.258420282845 -1.34832525989
2.4861466255 -1.55939097174 -0.064545890791 3.22886434735 -1.06184038014 -1.38095998435 -0.880579772921 0.0966000457261 -0.971733733915 -0.264176590532 -1.34287877107
2.51876808325 -1.55974671076 -0.0685010525865 3.22931436081 -1.06274040706 -1.38545767908 -0.883979012804 0.0871797873703 -0.974214129733 -0.269867692175 -1.33752786394
2.54911724176 -1.5600972315 -0.0724855956692 3.22974978559 -1.06361125663 -1.3897751351 -0.887306432623 0.0780043874359 -0.976732095366 -0.275490483043 -1.3322717905
2.58343922074 -1.56055185711 -0.0767305787133 3.23023291404 -1.06457751352 -1.39461593717 -0.891379134874 0.0669366394738 -0.979920270099 -0.282515736914 -1.32594519877
2.61637260324 -1.5609994959 -0.0810115947015 3.23069615405 -1.06550399354 -1.399243254 -0.895354027698 0.0562043649193 -0.983156549683 -0.289447341205 -1.31974140774
2.65056612049 -1.56143962223 -0.0853256942292 3.23114087657 -1.06639343858 -1.40366798799 -0.899234422055 0.0457966860498 -0.986432832306 -0.296281808723 -1.31365903233
2.68604349117 -1.56187179058 -0.0896701331246 3.23156838208 -1.06724844961 -1.4079005589 -0.903023563701 0.0357027203863 -0.989741687046 -0.303016387005 -1.30769643375
2.72355051616 -1.56229562914 -0.0940423618328 3.2319798992 -1.06807148384 -1.411950898 -0.906724618777 0.0259116569779 -0.993076320527 -0.309648975631 -1.30185175656
2.75900299231 -1.56275698931 -0.0978569792345 3.23235024601 -1.06881217746 -1.41568219694 -0.910514736768 0.0160344625938 -0.996591556592 -0.316591004734 -1.29597369095
2.792615296 -1.56321074212 -0.101696092437 3.23270565766 -1.06952300076 -1.41927066283 -0.914224230937 0.00644037809285 -1.00013055262 -0.323440730992 -1.29019915333
2.82779906146 -1.56365657603 -0.105557889653 3.23304721022 -1.07020610589 -1.42272330135 -0.917856028378 -0.00288038717362 -1.00368780557 -0.330196877259 -1.28452665587
2.86535047173 -1.5640942329 -0.109440690941 3.2333759169 -1.07086351924 -1.42604675627 -0.921412939896 -0.0119374133921 -1.00725829763 -0.336858569585 -1.27895457824
2.90632214289 -1.56452350315 -0.113342938493 3.23369272924 -1.07149714392 -1.42924732018 -0.924897658546 -0.020740042901 -1.01083746244 -0.343425287006 -1.27348119039
2.94439753145 -1.56499364546 -0.116676617208 3.23396962048 -1.07205092641 -1.43217528228 -0.928491301912 -0.0296869907033 -1.01460960193 -0.350345665111 -1.26795012211
2.98179985263 -1.56545627832 -0.12002927609 3.23423527749 -1.07258224043 -1.43501204647 -0.932020400019 -0.0383971570326 -1.01839274096 -0.357183881871 -1.26250394964
3.02268754774 -1.56591119323 -0.123399806886 3.23449053248 -1.07309275039 -1.43776167844 -0.935487242732 -0.0468784321325 -1.02218302606 -0.363939483847 -1.25714153805
3.06908057011 -1.56635821794 -0.12678717897 3.23473616877 -1.07358402298 -1.44042802585 -0.938894011718 -0.0551384868656 -1.02597693728 -0.37061224617 -1.25186166933
3.1174756071 -1.56679721321 -0.130190432847 3.23497292238 -1.0740575302 -1.44301472796 -0.942242782843 -0.0631847635534 -1.02977126326 -0.377202143586 -1.24666305642
3.17228361898 -1.56728000991 -0.13302934331 3.23517046874 -1.07445262292 -1.44536754044 -0.94571844613 -0.0714214976395 -1.03377750654 -0.384189984226 -1.24138502238
3.21590560915 -1.56775566052 -0.135885719501 3.23535951254 -1.07483071052 -1.44766686604 -0.949143631118 -0.0794590885948 -1.03778926482 -0.391109174851 -1.23617552859
3.25441460957 -1.56822399499 -0.138758858973 3.23554070857 -1.07519310259 -1.44991474543 -0.952519998953 -0.0873035516153 -1.04180364504 -0.397959412948 -1.2310339203
3.29760293249 -1.56868486959 -0.141648104101 3.23571467536 -1.07554103616 -1.45211310711 -0.955849127301 -0.09496074058 -1.04581798642 -0.404740540408 -1.22595947449
3.34951165698 -1.56913816489 -0.144552838051 3.23588199625 -1.07587567793 -1.45426377303 -0.959132512882 -0.102436343387 -1.04982984358 -0.411452526156 -1.22095140948
3.39460713704 -1.5696374069 -0.146910932783 3.23601065156 -1.07613298855 -1.45621580492 -0.962558639499 -0.110135667953 -1.05407544399 -0.418603194101 -1.21584543408
3.43281819237 -1.57012987156 -0.149287628147 3.23613287207 -1.07637742959 -1.4581425091 -0.965946382827 -0.117665108052 -1.0583253634 -0.425699517934 -1.21079431044
3.46956964054 -1.57061539284 -0.15168244846 3.23624919198 -1.07661006939 -1.46004457931 -0.969296863803 -0.12502909298 -1.062577232 -0.432741059796 -1.20579784927
3.51102039929 -1.57109382555 -0.154094944756 3.23636011855 -1.07683192255 -1.46192266194 -0.972611144061 -0.132231957457 -1.06682884907 -0.439727486776 -1.20085579473
3.56061434437 -1.57156504396 -0.156524692196 3.2364661329 -1.07704395124 -1.46377735886 -0.975890227662 -0.139277936855 -1.07107817166 -0.446658559596 -1.19596783175
3.60497332642 -1.5720833128 -0.158437503524 3.23653417673 -1.0771800389 -1.46546811531 -0.97932572345 -0.146568146197 -1.07558312261 -0.454063235213 -1.19096705666
3.64315850178 -1.57259502822 -0.160371849728 3.23659744551 -1.07730657645 -1.46715526502 -0.98273323389 -0.153710471439 -1.08009353204 -0.461427497921 -1.18601005064
3.68465699447 -1.57310001048 -0.162327382109 3.23665639597 -1.07742447739 -1.46883860895 -0.986113434095 -0.160708079558 -1.08460728862 -0.468750673738 -1.18109702877
3.73381992053 -1.57359809768 -0.164303769175 3.23671146449 -1.07753461442 -1.47051793554 -0.989466958536 -0.16756409958 -1.08912241123 -0.476032174508 -1.17622813769
3.7995039391 -1.57408914483 -0.166300694835 3.23676306731 -1.07763782007 -1.47219302218 -0.992794402004 -0.174281616844 -1.09363704134 -0.483271489873 -1.17140346141
3.85224698231 -1.57462709452 -0.167820914899 3.23677783147 -1.07766734839 -1.47373978991 -0.996289502063 -0.181251315701 -1.09842682056 -0.491011618791 -1.16645506327
3.89616940772 -1.57515847486 -0.169366859973 3.2367892749 -1.07769023523 -1.47530022724 -0.99976554343 -0.188089021133 -1.10322421021 -0.498724310401 -1.1615418117
3.94913323151 -1.57568308365 -0.170938256819 3.23679780847 -1.07770730238 -1.47687352801 -1.00322283096 -0.194796925202 -1.10802719871 -0.506408635454 -1.1566642581
3.9925069618 -1.57620073502 -0.172534844576 3.23680382686 -1.07771933916 -1.47845888921 -1.00666164167 -0.201377225267 -1.11283388081 -0.51406374008 -1.15182288318
4.03634796014 -1.57671125876 -0.174156373339 3.23680770856 -1.07772710256 -1.48005551213 -1.01008222526 -0.207832117519 -1.11764245217 -0.52168883969 -1.14701810191
4.08484784979 -1.57717534643 -0.175149297867 3.23678101365 -1.07767371274 -1.48130783592 -1.01307979123 -0.213422614719 -1.1218924662 -0.528477203559 -1.14290234659
4.12742015712 -1.57763466341 -0.176163633203 3.23675296506 -1.07761761556 -1.48257945919 -1.01606939379 -0.218928807695 -1.12614942586 -0.535254675764 -1.13880660392
4.17966744792 -1.57808907592 -0.17719925033 3.23672378857 -1.07755926258 -1.48386965932 -1.01905102603 -0.224351536223 -1.13041216068 -0.542020570279 -1.13473136006
4.22995235411 -1.57853845785 -0.178256025134 3.23669370328 -1.07749909199 -1.48517771729 -1.02202467143 -0.229691658765 -1.13467954477 -0.54877423464 -1.13067706564
4.27069757436 -1.57898269055 -0.17933383783 3.23666292156 -1.07743752855 -1.48650291818 -1.02499030399 -0.234950049483 -1.13895049522 -0.555515047846 -1.12664413757
4.30603290983 -1.5794216626 -0.180432572664 3.23663164901 -1.07737498347 -1.48784455178 -1.02794788861 -0.240127595923 -1.14322397089 -0.562242418785 -1.1226329606
4.33970440813 -1.57989688365 -0.181217174581 3.23657344474 -1.07725857491 -1.4891371076 -1.03105694045 -0.245513692587 -1.14774471657 -0.569408662385 -1.11850841351
4.37487910844 -1.58036687715 -0.182027114299 3.23651491346 -1.07714151235 -1.49045668248 -1.03416227671 -0.250820079961 -1.15227344286 -0.576570927479 -1.11440109674
4.4151385357 -1.58083149532 -0.182862288878 3.23645627515 -1.07702423574 -1.4918023495 -1.03726372389 -0.256047290125 -1.15680895429 -0.583728401674 -1.1103116211
4.46333014812 -1.5812905981 -0.183722599591 3.23639774359 -1.07690717261 -1.49317318482 -1.04036110139 -0.261195884544 -1.16135009564 -0.59088030312 -1.1062405615
4.50967218483 -1.58174405293 -0.184607951364 3.23633952622 -1.07679073787 -1.49456826846 -1.04345422157 -0.266266451147 -1.16589575079 -0.598025878772 -1.10218845841
4.57067058629 -1.58219173463 -0.185518252475 3.2362818241 -1.07667533365 -1.49598668509 -1.04654289026 -0.271259601888 -1.17044484182 -0.605164403089 -1.09815581926
4.62019909755 -1.58267181499 -0.186164743295 3.23620009617 -1.07651187778 -1.49738429224 -1.04978186466 -0.276437667408 -1.17524001635 -0.612733848306 -1.0940143048
4.66162804272 -1.58314596926 -0.186840725714 3.23611916854 -1.07635002253 -1.4988146252 -1.05302022456 -0.28153826009 -1.18004329351 -0.620304760431 -1.08988880043
4.69862299088 -1.58361403946 -0.187546122889 3.23603925871 -1.07619020287 -1.50027657384 -1.05625764096 -0.286561711242 -1.18485344246 -0.6278762148 -1.08578000788
4.74141237935 -1.58407587552 -0.188280861583 3.23596057783 -1.0760328411 -1.50176902999 -1.05949377952 -0.291508388686 -1.1896692703 -0.635447314296 -1.08168859271
4.79428539361 -1.58453133526 -0.18904487159 3.2358833306 -1.07587834665 -1.50329088828 -1.06272830077 -0.296378693937 -1.19448962114 -0.643017187843 -1.07761518562
4.83712485616 -1.58498028421 -0.189838085422 3.23580771519 -1.07572711582 -1.50484104715 -1.06596086063 -0.301173059834 -1.19931337545 -0.650584989321 -1.07356038359
4.87095758964 -1.58538915463 -0.190334934878 3.23572490554 -1.07556149653 -1.50617195157 -1.06885517151 -0.30541682215 -1.20365057822 -0.65742349881 -1.06999797096
4.90576090404 -1.58579301348 -0.190856546385 3.23564358144 -1.07539884832 -1.50752955098 -1.07175040513 -0.30960404954 -1.20799304131 -0.664265890222 -1.06644745217
4.9456522248 -1.58619175815 -0.191402888205 3.23556387806 -1.07523944156 -1.50891303531 -1.07464626223 -0.313734880653 -1.21233996781 -0.671111516131 -1.06290930785
4.9938986308 -1.58658529062 -0.191973930153 3.23548592688 -1.07508353921 -1.51032159505 -1.07754244161 -0.317809476409 -1.21669058079 -0.677959742382 -1.0593839989
5.04087192976 -1.58697351735 -0.192569643297 3.23540985564 -1.07493139672 -1.51175442167 -1.08043864024 -0.321828018762 -1.22104412287 -0.684809947439 -1.05587196702
5.10469323762 -1.58735634932 -0.1931899998 3.23533578825 -1.07478326193 -1.51321070824 -1.08333455356 -0.3257907096 -1.22539985602 -0.691661521953 -1.05237363519
5.15139703776 -1.58773370194 -0.193834972745 3.23526384479 -1.07463937501 -1.5146896499 -1.08622987572 -0.329697769663 -1.22975706122 -0.698513868311 -1.04888940821
5.19216842992 -1.58813014133 -0.194340152966 3.23517802114 -1.07446772773 -1.51618591256 -1.08923862777 -0.333713704101 -1.23429894043 -0.705687017816 -1.04533016004
5.22775494813 -1.58852079343 -0.194873069875 3.23509465641 -1.07430099826 -1.51770957558 -1.09224856452 -0.337672779501 -1.23884433353 -0.712865325131 -1.04178393309
5.26896168879 -1.58890555983 -0.195433707659 3.23501387923 -1.0741394439 -1.51925972287 -1.09525930389 -0.341575124465 -1.24339243937 -0.720048089045 -1.03825121678
5.3191000122 -1.58928434695 -0.196022051419 3.23493581409 -1.07398331363 -1.52083543928 -1.09827046318 -0.345420890687 -1.24794247653 -0.727234619747 -1.03473248086
5.36004229318 -1.58965706607 -0.196638086821 3.23486058131 -1.07383284806 -1.52243581116 -1.10128165922 -0.34921025174 -1.25249368293 -0.734424238216 -1.03122817593
5.39581649313 -1.59002363323 -0.197281799915 3.23478829698 -1.0736882794 -1.52405992694 -1.10429250872 -0.352943402031 -1.2570453155 -0.741616275843 -1.02773873389
5.4279283965 -1.5903839692 -0.197953176957 3.23471907297 -1.07354983138 -1.52570687768 -1.10730262851 -0.356620555764 -1.26159664992 -0.748810074049 -1.02426456837
5.46387331334 -1.59075760939 -0.19852853404 3.2346401951 -1.07339207564 -1.52738243897 -1.11041067759 -0.360371599206 -1.26630702999 -0.756281426824 -1.02073151356
5.50495930387 -1.59112465724 -0.199134329875 3.23456475538 -1.0732411962 -1.52908408722 -1.11351908073 -0.36406529956 -1.27101825676 -0.763757640455 -1.0172133376
5.5543468692 -1.59148502624 -0.199770560451 3.23449286965 -1.07309742474 -1.53081081303 -1.11662738889 -0.367701822724 -1.27572954589 -0.771237969061 -1.01371051072
5.60488409936 -1.59183863498 -0.200437221719 3.23442464914 -1.07296098372 -1.5325616094 -1.11973515421 -0.371281357041 -1.28044013242 -0.778721676236 -1.01022348382
5.64635451273 -1.59218540714 -0.201134309211 3.2343602005 -1.07283208644 -1.53433547226 -1.12284193015 -0.374804112161 -1.28514927038 -0.786208034498 -1.00675268894
5.68260424967 -1.59252527141 -0.201861817862 3.23429962575 -1.07271093695 -1.53613140109 -1.12594727181 -0.378270318105 -1.28985623243 -0.793696324974 -1.0032985396
5.71520308495 -1.59285816146 -0.202619741806 3.23424302236 -1.07259773016 -1.53794839949 -1.12905073629 -0.381680224254 -1.29456030953 -0.801185837088 -0.999861431277
5.74247431871 -1.59315632956 -0.203232870479 3.23418837974 -1.07248844492 -1.53956591686 -1.13183385954 -0.38469920784 -1.29878621109 -0.807933284553 -0.996818022297
5.76799881239 -1.59344889112 -0.203871026351 3.23413705616 -1.07238579776 -1.54120092297 -1.1346158927 -0.387674204943 -1.30301020341 -0.81468306511 -0.993787730361
5.79223349151 -1.59373580089 -0.204534209477 3.2340891164 -1.07228991823 -1.54285269621 -1.13739650558 -0.390605372863 -1.30723178704 -0.821434656259 -0.990770840705
5.81547340716 -1.59401701673 -0.20522241921 3.23404462236 -1.07220093016 -1.5445205177 -1.1401753699 -0.393492881044 -1.31145047355 -0.828187540071 -0.987767627508
5.83775917824 -1.5942924995 -0.205935653966 3.23400363309 -1.07211895162 -1.54620367161 -1.14295215931 -0.396336910483 -1.31566578523 -0.834941202911 -0.984778354177
5.85912977587 -1.59456221312 -0.20667391114 3.2339662048 -1.07204409504 -1.54790144543 -1.14572654957 -0.399137653303 -1.31987725493 -0.841695135329 -0.981803273491
5.87982752075 -1.59482612447 -0.207437186996 3.23393239085 -1.07197646714 -1.54961313027 -1.14849821874 -0.401895312266 -1.32408442589 -0.848448831933 -0.978842627829
5.8998734118 -1.59508420338 -0.208225476572 3.2339022418 -1.07191616905 -1.55133802117 -1.15126684726 -0.404610100328 -1.32828685154 -0.855201791288 -0.975896649356
5.91972607194 -1.59534435056 -0.208993560774 3.23387071087 -1.07185310719 -1.55308717266 -1.15408097349 -0.407334451181 -1.33256336473 -0.862089469697 -0.972932062586
5.93914684878 -1.59559845881 -0.209787887299 3.23384306536 -1.07179781616 -1.55484986228 -1.15689198793 -0.41001538933 -1.33683498939 -0.868976900415 -0.969982407029
5.95814492863 -1.59584650077 -0.210608451273 3.23381935237 -1.07175039019 -1.55662535103 -1.15969955206 -0.412653133825 -1.34110127048 -0.875863550516 -0.96704791826
5.97672930971 -1.59608845207 -0.211455246323 3.23379961613 -1.07171091771 -1.55841290456 -1.16250333051 -0.41524791396 -1.34536176324 -0.882748890886 -0.964128821435
5.99490880099 -1.5963242913 -0.212328264348 3.23378389799 -1.07167948141 -1.56021179339 -1.16530299116 -0.417799968771 -1.34961603288 -0.889632396002 -0.961225331529
6.01269202797 -1.59655399999 -0.21322749543 3.23377223644 -1.07165615832 -1.56202129319 -1.16809820516 -0.420309546621 -1.35386365439 -0.896513543865 -0.958337653505
6.0300874373 -1.59677756256 -0.214152927753 3.23376466719 -1.07164101983 -1.56384068504 -1.17088864717 -0.422776904814 -1.35810421236 -0.903391815947 -0.955465982473
6.04710329678 -1.59699496625 -0.215104547501 3.23376122318 -1.0716341318 -1.56566925573 -1.17367399542 -0.425202309163 -1.3623373008 -0.91026669714 -0.952610503893
6.06393953 -1.5972098642 -0.216062401783 3.23375963396 -1.07163095337 -1.56751406554 -1.17647932953 -0.427610363347 -1.36660379935 -0.917208528891 -0.949754894963
6.08057327447 -1.59741849389 -0.217047059421 3.23376230511 -1.07163629566 -1.5693674094 -1.17927915884 -0.429976471616 -1.37086232229 -0.924146598412 -0.946915809094
6.0970067607 -1.5976208485 -0.218058502053 3.23376926341 -1.07165021226 -1.57122856734 -1.18207315915 -0.43230091583 -1.37511247275 -0.931080378479 -0.94409341839
6.11324219729 -1.59781692397 -0.219096709088 3.2337805329 -1.07167275124 -1.5730968261 -1.18486101056 -0.434583985701 -1.37935386312 -0.938009345367 -0.941287885439
6.1296041582 -1.59800671897 -0.220161657488 3.23379613495 -1.07170395534 -1.57497147927 -1.18764239737 -0.436825978337 -1.38358611464 -0.944932978673 -0.938499363544
6.14625830848 -1.59819023482 -0.221253321699 3.23381608827 -1.07174386199 -1.57685182752 -1.19041700822 -0.4390271979 -1.38780885728 -0.951850761313 -0.935727996871
6.16320964111 -1.59836747544 -0.222371673587 3.23384040898 -1.07179250341 -1.5787371789 -1.19318453618 -0.441187955268 -1.39202172952 -0.958762179539 -0.932973920598
6.18046322293 -1.59853844732 -0.22351668237 3.23386911064 -1.07184990672 -1.580626849 -1.1959446788 -0.443308567684 -1.39622437822 -0.965666722948 -0.93023726108
6.19802420039 -1.59870315949 -0.224688314419 3.23390220429 -1.07191609402 -1.58252016111 -1.19869713805 -0.445389358398 -1.40041645821 -0.972563884336 -0.927518136026
6.21589779842 -1.59886162334 -0.225886533751 3.2339396985 -1.07199108244 -1.58441644686 -1.20144162113 -0.447430656522 -1.40459763303 -0.979453160417 -0.924816654498
6.23408931463 -1.59901385272 -0.227111301156 3.23398159942 -1.07207488428 -1.58631504579 -1.20417783939 -0.449432796455 -1.40876757343 -0.986334050824 -0.922132917285
6.25260412857 -1.59915986383 -0.228362574684 3.23402791085 -1.07216750713 -1.58821530597 -1.20690550916 -0.451396117727 -1.41292595811 -0.993206058846 -0.91946701693
6.2714476994 -1.59929967511 -0.229640309484 3.23407863422 -1.07226895389 -1.5901165841 -1.20962435166 -0.453320964736 -1.41707247333 -1.00006869131 -0.916819037827
6.29081734056 -1.59943330727 -0.23094445774 3.23413376874 -1.07237922292 -1.5920182457 -1.21233409302 -0.455207686381 -1.42120681279 -1.00692145863 -0.914189056454
6.3107274206 -1.59956078317 -0.232274968646 3.23419331134 -1.07249830812 -1.59391966532 -1.21503446432 -0.457056635833 -1.42532867746 -1.01376387488 -0.911577141458
6.33119267959 -1.59968212778 -0.233631788373 3.23425725681 -1.07262619906 -1.59582022667 -1.21772520166 -0.458868170256 -1.42943777544 -1.02059545786 -0.908983353798
6.35197308507 -1.59979449812 -0.235028996121 3.2343272401 -1.07276616565 -1.59770909064 -1.22037982336 -0.46062267596 -1.43349090485 -1.02734155612 -0.906422869678
6.373331667 -1.59990090136 -0.2364517324 3.23440151647 -1.07291471838 -1.59959539342 -1.2230242143 -0.462341068533 -1.43753059964 -1.034075464 -0.903880500645
6.39550365874 -1.60000136936 -0.237899933278 3.2344800737 -1.07307183285 -1.60147857196 -1.22565813781 -0.464023715764 -1.44155660263 -1.04079673239 -0.901356275937
6.41851963323 -1.60009593573 -0.239373531979 3.2345628977 -1.07323748085 -1.60335807301 -1.22828136242 -0.465670988002 -1.44556866318 -1.04750491637 -0.898850218
6.44265019935 -1.60018463579 -0.240872458718 3.23464997255 -1.07341163054 -1.60523335311 -1.23089366165 -0.467283257867 -1.44956653684 -1.05419957509 -0.896362342683
6.46794886523 -1.60026750654 -0.242396640708 3.23474128053 -1.0735942465 -1.60710387875 -1.23349481405 -0.468860900063 -1.45354998525 -1.06088027188 -0.893892659339
6.49483218788 -1.6003445866 -0.243946002149 3.2348368022 -1.07378528985 -1.60896912644 -1.23608460321 -0.470404291155 -1.45751877602 -1.06754657435 -0.891441170964
6.52000426252 -1.60041591612 -0.24552046424 3.23493651646 -1.07398471835 -1.61082858287 -1.23866281777 -0.471913809391 -1.46147268263 -1.07419805445 -0.889007874298
6.54329530807 -1.60047668675 -0.24714233826 3.23504294286 -1.07419757115 -1.61266039978 -1.24117716296 -0.473354578 -1.46532570413 -1.08068535973 -0.886620947154
6.56629583974 -1.60053200802 -0.24878785683 3.23515332725 -1.07441833995 -1.61448471595 -1.24367949105 -0.474763347341 -1.46916335773 -1.08715646535 -0.884251879971
6.59040635084 -1.6005819248 -0.250456932526 3.23526764341 -1.07464697227 -1.61630109403 -1.24616962675 -0.476140494692 -1.47298545791 -1.09361099722 -0.881900638086
6.61593263078 -1.6006264831 -0.252149475375 3.23538586377 -1.07488341297 -1.6181091068 -1.24864739963 -0.477486397621 -1.47679182434 -1.10004858599 -0.879567181737
6.64322750015 -1.60066573005 -0.253865392739 3.23550795947 -1.07512760438 -1.61990833709 -1.25111264396 -0.478801433769 -1.4805822816 -1.10646886697 -0.877251466256
6.67270472813 -1.60069971383 -0.25560458934 3.23563390044 -1.07537948633 -1.62169837783 -1.25356519867 -0.480085980742 -1.48435665906 -1.11287148024 -0.874953442147
6.70499604544 -1.60072848364 -0.257366967289 3.23576365541 -1.07563899627 -1.62347883214 -1.25600490733 -0.481340415954 -1.48811479081 -1.11925607074 -0.872673055211
6.7343135764 -1.60075208965 -0.259152426118 3.23589719196 -1.07590606936 -1.6252493133 -1.25843161819 -0.482565116506 -1.49185651562 -1.12562228836 -0.870410246642
6.76391293228 -1.60076595708 -0.261249366797 3.2360576495 -1.07622698444 -1.62722492983 -1.26110160351 -0.483877052965 -1.49596739627 -1.13262223638 -0.867889542364
6.79147167745 -1.6007736293 -0.263373776878 3.23622259601 -1.07655687747 -1.62918563241 -1.26375437995 -0.485153214613 -1.50005661624 -1.13959673452 -0.865390901639
6.8173487021 -1.6007751836 -0.265525499852 3.23639197946 -1.07689564436 -1.63113097754 -1.26638978104 -0.486394142407 -1.50412399974 -1.14654536431 -0.862914198011
6.84188889714 -1.60077069822 -0.267704375973 3.23656574645 -1.07724317834 -1.63306053779 -1.26900764743 -0.487600374788 -1.50816937772 -1.15346771588 -0.860459299416
6.86516062965 -1.60076025229 -0.26991024212 3.23674384235 -1.07759937014 -1.6349739015 -1.27160782659 -0.488772447487 -1.51219258746 -1.16036338782 -0.858026068426
6.889537614 -1.60074392578 -0.272142931888 3.23692621131 -1.07796410806 -1.63687067279 -1.27419017265 -0.489910893378 -1.51619347239 -1.16723198735 -0.855614362418
6.91507155247 -1.60072179938 -0.27440227569 3.23711279636 -1.07833727816 -1.63875047151 -1.27675454648 -0.491016242364 -1.52017188208 -1.17407313042 -0.853224033721
6.940610642 -1.60068686064 -0.276714153654 3.23730603057 -1.07872374658 -1.640567037 -1.27918833237 -0.492029115312 -1.52393902623 -1.18055596688 -0.850908325537
6.96762600582 -1.60064677869 -0.279049432398 3.2375029335 -1.07911755244 -1.64236535715 -1.28160436782 -0.493012367811 -1.52768398593 -1.18701055895 -0.848612691545
6.99677651125 -1.60060163158 -0.281407945144 3.237703449 -1.07951858344 -1.64414518835 -1.28400257192 -0.493966488116 -1.53140667283 -1.19343663761 -0.846336959431
7.02841612705 -1.60055149754 -0.28378952324 3.23790752032 -1.07992672609 -1.6459063002 -1.28638286935 -0.494891960165 -1.53510700352 -1.199833942 -0.844080954042
7.05707201206 -1.60049645493 -0.286193996063 3.23811509021 -1.08034186585 -1.6476484752 -1.28874518999 -0.495789263524 -1.53878489918 -1.20620221925 -0.841844497547
7.08861131122 -1.60043658217 -0.288621191116 3.23832610088 -1.0807638872 -1.64937150862 -1.29108946891 -0.496658873355 -1.54244028548 -1.21254122455 -0.839627409543
7.1240207741 -1.60037195775 -0.291070934114 3.23854049415 -1.08119267374 -1.6510752084 -1.29341564628 -0.497501260318 -1.54607309254 -1.21885072123 -0.837429507246
7.16246677892 -1.60029596179 -0.293562231635 3.23875956235 -1.08163081015 -1.65270737053 -1.2955896826 -0.4982534153 -1.54945591138 -1.22473072954 -0.83531026046
7.19540623331 -1.60021591217 -0.296072514895 3.23898142413 -1.0820745337 -1.65431975097 -1.29774635158 -0.498981911159 -1.5528170475 -1.2305813972 -0.833208602378
7.22481856865 -1.60013188018 -0.298601623291 3.23920602632 -1.08252373809 -1.65591227601 -1.29988564188 -0.499687162677 -1.55615648342 -1.23640259659 -0.831124343265
7.25160856739 -1.60004393676 -0.301149395637 3.23943331572 -1.08297831688 -1.65748488136 -1.30200754609 -0.500369579658 -1.55947420506 -1.24219420689 -0.829057292691
7.27649976678 -1.59995215248 -0.303715670067 3.23966323909 -1.08343816362 -1.6590375119 -1.3041120604 -0.501029566926 -1.56277020145 -1.24795611384 -0.827007259668
7.30080573583 -1.59985659753 -0.306300284089 3.23989574322 -1.08390317187 -1.66057012146 -1.30619918452 -0.501667524271 -1.56604446465 -1.25368820982 -0.824974052817
7.32676303017 -1.59975734168 -0.308903074704 3.24013077489 -1.08437323523 -1.6620826727 -1.30826892167 -0.502283846571 -1.56929698979 -1.25939039379 -0.822957480312
7.35674609346 -1.59963016785 -0.311972616368 3.24040804097 -1.08492776739 -1.66376061474 -1.3104853117 -0.502902022197 -1.57276072237 -1.26547034854 -0.820698906231
7.39007975241 -1.59949890351 -0.315061964078 3.24068794495 -1.08548757534 -1.66541173835 -1.31267969685 -0.503495491091 -1.57619690344 -1.27151121474 -0.818460537825
7.42803775912 -1.59936364316 -0.318170894744 3.24097041511 -1.08605251566 -1.66703612659 -1.31485213813 -0.504064778261 -1.5796055875 -1.2775129762 -0.816242085397
7.46093292862 -1.59922448013 -0.321299185912 3.24125538023 -1.08662244591 -1.66863387276 -1.31700270083 -0.504610399795 -1.5829868329 -1.28347562559 -0.814043260733
7.49844628975 -1.59908150669 -0.324446615636 3.24154276959 -1.08719722462 -1.67020507992 -1.31913145419 -0.50513286302 -1.58634070146 -1.28939916413 -0.811863777172
7.54381163442 -1.59893481395 -0.327612962566 3.24183251297 -1.08777671138 -1.67174986058 -1.32123847124 -0.505632666548 -1.58966725845 -1.29528360151 -0.809703349769
7.58523424922 -1.59877920539 -0.330795199611 3.24212233975 -1.08835636493 -1.6732069928 -1.32313202928 -0.506037527012 -1.59263218073 -1.3005374412 -0.807637511977
7.62076887825 -1.5986207587 -0.333991675812 3.24241378109 -1.08893924763 -1.67463912997 -1.32500606865 -0.506424147319 -1.59557254631 -1.30575511289 -0.805588214486
7.65405847155 -1.59845954653 -0.337202213569 3.2427067818 -1.08952524904 -1.6760464744 -1.32686069467 -0.506792921332 -1.59848845861 -1.31093672832 -0.803555206185
7.69210899328 -1.59829564037 -0.340426636805 3.24300128734 -1.09011426012 -1.67742923264 -1.32869601476 -0.507144235446 -1.60138002306 -1.31608240433 -0.801538238639
7.73824124158 -1.59812911054 -0.343664770817 3.24329724385 -1.09070617314 -1.67878761517 -1.33051213809 -0.507478468677 -1.60424734679 -1.32119226256 -0.799537066215
7.7800009203 -1.59796002626 -0.346916442345 3.24359459813 -1.0913008817 -1.6801218362 -1.33230917561 -0.507795992871 -1.60709053868 -1.32626642934 -0.797551445977
7.81578733903 -1.59778467695 -0.350165118117 3.24388919599 -1.09189007742 -1.68137682476 -1.33388515045 -0.50802761694 -1.60955215841 -1.33067121959 -0.79565698083
7.84761247758 -1.59760753066 -0.35342324388 3.24418456659 -1.09248081862 -1.68260976754 -1.3354446634 -0.508246374668 -1.61199297427 -1.33504436865 -0.793775656127
7.87679472256 -1.59742863873 -0.356690691258 3.24448067159 -1.09307302863 -1.68382091535 -1.33698783422 -0.508452541858 -1.61441310821 -1.33938605554 -0.791907273565
7.90436308099 -1.5972480515 -0.359967333559 3.24477747331 -1.09366663206 -1.68501051922 -1.3385147832 -0.508646388717 -1.61681268288 -1.34369646125 -0.790051637685
7.93428600576 -1.59706581838 -0.363253045668 3.24507493465 -1.09426155473 -1.68617883015 -1.34002563102 -0.508828180009 -1.61919182147 -1.34797576856 -0.78820855584
7.96194858007 -1.59688198782 -0.366547704058 3.24537301913 -1.0948577237 -1.68732609906 -1.34152049876 -0.508998175167 -1.62155064774 -1.35222416195 -0.78637783816
7.99324956494 -1.59665649781 -0.370477818793 3.24572466252 -1.09556101049 -1.68862255981 -1.34304478378 -0.509108776116 -1.62390757135 -1.35648845025 -0.784285569257
8.02738857592 -1.59642959565 -0.374416083965 3.24607649482 -1.09626467508 -1.68989239192 -1.34455022395 -0.509207029308 -1.62624064889 -1.36071529619 -0.782207875989
8.06555382089 -1.59620133807 -0.378362355528 3.24642847556 -1.09696863656 -1.69113601777 -1.34603701023 -0.509293240968 -1.62855007874 -1.36490503113 -0.78014451352
8.10938305969 -1.59597178034 -0.382316492348 3.24678056527 -1.09767281597 -1.69235385575 -1.34750533301 -0.509367709703 -1.63083605925 -1.36905798648 -0.778095241755
8.15046304064 -1.59574097635 -0.386278356057 3.24713272536 -1.09837713617 -1.69354632023 -1.34895538208 -0.509430726846 -1.63309878864 -1.37317449336 -0.776059825117
8.19707326186 -1.59550766346 -0.390201215798 3.24747635097 -1.09906438738 -1.69467254266 -1.35013703297 -0.509408887664 -1.6348817851 -1.3764425257 -0.774124166115
8.23699159112 -1.59527377465 -0.394128428246 3.24781954903 -1.0997507835 -1.69577738434 -1.3513047465 -0.509379324482 -1.63664727806 -1.37968198629 -0.772199450465
8.27463733498 -1.59503934247 -0.398059909107 3.24816229846 -1.10043628236 -1.69686119674 -1.35245867077 -0.509342215465 -1.63839542179 -1.38289315745 -0.770285521117
8.31795622206 -1.59480439859 -0.401995576076 3.24850457879 -1.10112084302 -1.69792432643 -1.35359895289 -0.509297734475 -1.64012637006 -1.38607631994 -0.768382224032
8.37095753304 -1.59456897385 -0.405935348746 3.24884637012 -1.10180442567 -1.69896711511 -1.35472573895 -0.509246051231 -1.64184027609 -1.38923175292 -0.766489408087
8.41360544594 -1.59433284142 -0.40982453769 3.24917806195 -1.10246780935 -1.69996418409 -1.35559212165 -0.509118181533 -1.64307959214 -1.39154462185 -0.764689000585
8.45161652806 -1.59409667534 -0.413715954696 3.24950897871 -1.10312964287 -1.70094484371 -1.35644930377 -0.508985897922 -1.64430770299 -1.39383798618 -0.762896536591
8.49577095816 -1.59386049172 -0.417609553684 3.249839112 -1.10378990944 -1.70190934412 -1.35729737624 -0.508849288943 -1.64552469969 -1.39611203483 -0.761111931478
8.55034270625 -1.59362430624 -0.421505289769 3.25016845365 -1.10444859274 -1.70285793187 -1.35813642961 -0.50870844135 -1.64673067327 -1.39836695528 -0.759335101808
8.63297061585 -1.59338813415 -0.425403119134 3.25049699584 -1.10510567712 -1.70379084972 -1.35896655355 -0.508563439934 -1.64792571438 -1.40060293391 -0.757565965634
8.68655911421 -1.59315258271 -0.429244792429 3.25081462409 -1.10574093363 -1.70469889768 -1.35954976235 -0.508349871008 -1.6486612511 -1.40201890475 -0.755880862887
8.73001111099 -1.59291707852 -0.43308813586 3.25113142302 -1.10637453148 -1.7055947926 -1.36012656743 -0.508133474428 -1.6493894094 -1.40342173996 -0.754202014619
8.77449112126 -1.59268184031 -0.436933159892 3.25144732553 -1.10700633651 -1.70647884556 -1.36069860806 -0.507914913055 -1.65011241596 -1.40481397327 -0.752528622507
8.83056116838 -1.59244687407 -0.44077983413 3.25176233017 -1.10763634578 -1.70735119435 -1.36126590804 -0.507694216119 -1.65083028302 -1.40619566865 -0.750860660765
8.92144275384 -1.59221218623 -0.444628130404 3.25207643502 -1.10826455548 -1.70821197682 -1.36182849807 -0.507471415314 -1.65154303249 -1.40756690099 -0.749198099666
8.97635030808 -1.59197851106 -0.448420014861 3.25237964545 -1.10887097634 -1.70906742692 -1.3621572658 -0.50718496964 -1.65181307898 -1.40814698874 -0.747612561
9.02016884434 -1.59174501224 -0.452215147498 3.25268211176 -1.10947590895 -1.70991466392 -1.36248527074 -0.506897463654 -1.65208394748 -1.40872589886 -0.746030572057
9.05838960408 -1.59151192946 -0.456012953178 3.25298367823 -1.11007904189 -1.71075382109 -1.36281264484 -0.506609288798 -1.65235529519 -1.40930204678 -0.744451776219
9.10259067076 -1.5912791204 -0.459813250944 3.25328450238 -1.11068069019 -1.71158467105 -1.36313895156 -0.506320005202 -1.65262694036 -1.40987607896 -0.742876876175
9.15752372533 -1.59104675445 -0.463616184263 3.25358440221 -1.11128048986 -1.71240755801 -1.3634645524 -0.506030134462 -1.65289891772 -1.41044720899 -0.741305063519
9.20079870715 -1.59081534545 -0.467367581269 3.25387405737 -1.11185980017 -1.71324278419 -1.36357285924 -0.505680674763 -1.65275247765 -1.41026940912 -0.739802829663
9.23838772923 -1.59058405341 -0.471125659758 3.25416322301 -1.11243813145 -1.71407309365 -1.3636858627 -0.505331115603 -1.65261465646 -1.41010103919 -0.738301645622
9.27675817118 -1.59035307082 -0.474888502303 3.25445173534 -1.11301515612 -1.71489818245 -1.36380148752 -0.504981424365 -1.65248225052 -1.40993761278 -0.736802211663
9.32166260816 -1.59012238876 -0.478656054889 3.2547396048 -1.11359089504 -1.71571797844 -1.36391965276 -0.504631555748 -1.65235517317 -1.40977905397 -0.735304621179
9.37883598933 -1.58989201106 -0.482428268905 3.25502682759 -1.11416534062 -1.71653243379 -1.36404028625 -0.504281504262 -1.65223332054 -1.40962522067 -0.733808907078
9.47796462833 -1.5896619746 -0.486161796801 3.25530509682 -1.11472187907 -1.71737509634 -1.36396568468 -0.503875511704 -1.6517273529 -1.4087799636 -0.732373219665
9.53482865451 -1.58943207154 -0.489903265631 3.25558301203 -1.1152777095 -1.71821492688 -1.36389684477 -0.503469588929 -1.65123153543 -1.4079466548 -0.730937842727
9.57978460335 -1.58920230972 -0.493652597099 3.25586056357 -1.11583281259 -1.71905179575 -1.36383365193 -0.503063734876 -1.65074571133 -1.40712505521 -0.729502826366
9.61952462412 -1.58897269686 -0.497409713462 3.25613774199 -1.11638716943 -1.71988557742 -1.36377599309 -0.502657948305 -1.65026972556 -1.40631492981 -0.728068220335
9.66676366014 -1.58874324054 -0.501174537507 3.25641453803 -1.11694076149 -1.72071615038 -1.36372375655 -0.502252227852 -1.64980342464 -1.40551604778 -0.726634073961
9.71595599599 -1.58855172251 -0.504290452947 3.25663898151 -1.11738964846 -1.72144213268 -1.36353436921 -0.501869900814 -1.64912283559 -1.40432337286 -0.725482206209
9.7561693371 -1.58836014508 -0.507414539786 3.25686340556 -1.11783849656 -1.72216735636 -1.36335084392 -0.501487588272 -1.64845217234 -1.40314318645 -0.72432964058
9.79101184417 -1.58816851624 -0.510546731261 3.25708780027 -1.11828728598 -1.72289170903 -1.36317309628 -0.50110529749 -1.64779132136 -1.4019753064 -0.723176412142
9.82217221659 -1.58797684383 -0.513686960957 3.25731215587 -1.11873599719 -1.72361508087 -1.36300104324 -0.500723035253 -1.64714017028 -1.40081955222 -0.722022556237
9.85172371737 -1.58778513559 -0.516835162849 3.25753646277 -1.11918461097 -1.7243373643 -1.36283460165 -0.500340808149 -1.64649860691 -1.39967574612 -0.720868108054
9.88444894079 -1.58759339915 -0.519991271237 3.25776071148 -1.1196331084 -1.72505845426 -1.36267368985 -0.499958622308 -1.64586652036 -1.39854371185 -0.719713103043
9.92153624242 -1.58740054146 -0.523138977271 3.25798029627 -1.12007227798 -1.72582133281 -1.36238568214 -0.499534728352 -1.64497474292 -1.39694111803 -0.718593611715
9.96159839316 -1.58720746204 -0.526297739088 3.25820008705 -1.12051185953 -1.72658421962 -1.36210510543 -0.499110718827 -1.64409539959 -1.39535459002 -0.71747260633
9.99613282839 -1.58701417287 -0.529467465738 3.25842006912 -1.12095182369 -1.72734697196 -1.36183186236 -0.498686611179 -1.64322835993 -1.39378391019 -0.716350127095
10.0270296608 -1.58682068575 -0.53264806679 3.25864022805 -1.12139214153 -1.72810944963 -1.36156585543 -0.498262422338 -1.64237349348 -1.39222886348 -0.715226214379
10.0563962481 -1.58662701232 -0.535839452222 3.25886054957 -1.12183278457 -1.72887151522 -1.36130698842 -0.497838168414 -1.64153067079 -1.39068923631 -0.714100909217
10.0886216839 -1.58643316403 -0.539041532496 3.25908101965 -1.12227372475 -1.72963303387 -1.36105516522 -0.497413865008 -1.64069976258 -1.38916481754 -0.71297425281
10.1251478073 -1.5862374595 -0.54224903666 3.25929831576 -1.12270831697 -1.73044080193 -1.36069566229 -0.496950647035 -1.63964411932 -1.38723057616 -0.711875731208
10.1652057463 -1.58604138355 -0.545470490444 3.25951601949 -1.12314372441 -1.73124894079 -1.36034488938 -0.49648716712 -1.63860306238 -1.38531537129 -0.71077496944
10.2000963969 -1.5858449523 -0.548705777465 3.25973411135 -1.12357990814 -1.73205728238 -1.36000273816 -0.496023453471 -1.63757644729 -1.38341895678 -0.709672013148
10.2314753656 -1.58564818164 -0.551954781936 3.25995257218 -1.1240168298 -1.73286566138 -1.35966910021 -0.4955595334 -1.63656412934 -1.38154108856 -0.708566908562
10.260325872 -1.58545108723 -0.555217388568 3.26017138308 -1.1244544516 -1.73367391539 -1.35934386794 -0.495095433139 -1.63556596439 -1.37968152403 -0.707459702835
10.2873465023 -1.58525368446 -0.558493482644 3.26039052542 -1.12489273627 -1.7344818847 -1.35902693357 -0.494631178164 -1.63458180801 -1.37784002295 -0.706350443503
10.3106289812 -1.58508242466 -0.561316347609 3.26057675882 -1.12526520307 -1.73521517913 -1.35867915204 -0.494202786937 -1.63357598171 -1.37596358231 -0.705417961512
10.3328774647 -1.58491080333 -0.564151446298 3.26076341048 -1.1256385064 -1.7359487453 -1.35833854713 -0.493774121894 -1.63258218842 -1.37410286406 -0.704483375739
10.3541368123 -1.58473883312 -0.566998689441 3.26095046532 -1.12601261608 -1.73668246405 -1.35800504439 -0.493345207015 -1.63160032914 -1.37225769812 -0.703546719124
10.3746531297 -1.58456652648 -0.569857988104 3.26113790846 -1.12638750235 -1.73741621786 -1.35767856949 -0.492916065537 -1.63063030482 -1.37042791514 -0.702608025245
10.3944514221 -1.58439389575 -0.572729253674 3.26132572518 -1.12676313579 -1.73814989081 -1.35735904813 -0.492486720059 -1.6296720162 -1.36861334666 -0.70166732818
10.4137469485 -1.58422095305 -0.575612397857 3.26151390096 -1.12713948736 -1.73888336861 -1.35704640615 -0.492057192506 -1.62872536404 -1.36681382512 -0.700724662537
10.432551584 -1.58404771039 -0.578507332706 3.26170242146 -1.12751652836 -1.73961653856 -1.35674056921 -0.491627504247 -1.6277902488 -1.36502918407 -0.69978006327
10.452079489 -1.58387206284 -0.581425199027 3.26189037151 -1.12789242845 -1.74038890077 -1.35637466629 -0.491170886959 -1.62672382351 -1.36300101541 -0.698848047749
10.4711233873 -1.58369600033 -0.584356967797 3.26207881412 -1.12826931369 -1.74116125856 -1.35601647569 -0.490713972556 -1.62567042254 -1.36098977779 -0.697913580138
10.4896942018 -1.58351953757 -0.587302534898 3.26226773192 -1.12864714927 -1.74193348312 -1.35566591704 -0.49025678954 -1.624629939 -1.35899528874 -0.696976698845
10.5078026513 -1.58334268902 -0.590261796562 3.26245710772 -1.12902590088 -1.74270544741 -1.35532291026 -0.489799365457 -1.62360226599 -1.35701736621 -0.696037443153
10.5254592547 -1.58316546897 -0.593234649392 3.26264692459 -1.12940553461 -1.74347702612 -1.35498737505 -0.489341727147 -1.62258729619 -1.35505582914 -0.695095852834
10.5428464862 -1.58298789154 -0.596220990338 3.26283716577 -1.12978601699 -1.74424809572 -1.35465923125 -0.488883900629 -1.62158492215 -1.3531104972 -0.694151968324
10.5599675169 -1.58280997062 -0.599220716736 3.26302781475 -1.13016731494 -1.74501853438 -1.35433839844 -0.488425911274 -1.62059503601 -1.35118119118 -0.693205830433
10.577255093 -1.58262954666 -0.602249622777 3.26321865864 -1.13054900271 -1.74582388988 -1.35397341987 -0.487945212709 -1.61950557023 -1.34906405139 -0.692267242685
10.5942867715 -1.58244869312 -0.605293673817 3.26341002157 -1.13093172859 -1.74662873502 -1.35361645559 -0.48746425769 -1.61842977234 -1.34696451826 -0.691325987713
10.6110652859 -1.58226742611 -0.608352752926 3.26360188454 -1.13131545452 -1.74743293551 -1.35326741983 -0.486983077016 -1.61736752776 -1.34488239927 -0.690382110421
10.6275933723 -1.58208576154 -0.611426743603 3.26379422878 -1.131700143 -1.74823635894 -1.35292622672 -0.486501700581 -1.61631872149 -1.34281750271 -0.689435656382
10.6438737746 -1.58190371506 -0.614515529722 3.26398703577 -1.13208575699 -1.74903887489 -1.35259279067 -0.486020157316 -1.61528323846 -1.34076963742 -0.688486671949
10.659909238 -1.58172130212 -0.617618995583 3.26418028723 -1.13247225991 -1.74984035483 -1.35226702572 -0.485538475414 -1.61426096306 -1.33873861337 -0.687535203867
10.6757025099 -1.58153853797 -0.620737025888 3.26437396512 -1.13285961568 -1.75064067217 -1.3519488461 -0.485056682192 -1.61325177955 -1.33672424134 -0.686581299499
10.6897982469 -1.58137663057 -0.623492362305 3.26454395358 -1.13319959259 -1.75136563368 -1.35164439532 -0.484619562616 -1.61230787753 -1.33484416985 -0.685749910548
10.7038160428 -1.58121441148 -0.626259864142 3.26471432477 -1.13354033498 -1.75208968875 -1.35134612948 -0.484182319618 -1.61137465137 -1.33297769324 -0.684916430541
10.7177556311 -1.58105189197 -0.629039446497 3.26488506541 -1.13388181626 -1.752812747 -1.35105398818 -0.483744973849 -1.61045201962 -1.33112467791 -0.684080893996
10.7316167683 -1.58088908315 -0.631831024756 3.26505616237 -1.13422401019 -1.75353471927 -1.35076791091 -0.483307545429 -1.60953990055 -1.32928499082 -0.683243335738
10.7453992259 -1.58072599603 -0.634634514589 3.26522760267 -1.13456689079 -1.75425551755 -1.35048783692 -0.482870054029 -1.60863821204 -1.32745849963 -0.682403790769
10.7591027938 -1.58056264145 -0.637449831924 3.26539937349 -1.13491043242 -1.75497505514 -1.35021370559 -0.48243251876 -1.60774687195 -1.32564507249 -0.681562294454
10.7727272795 -1.58039903013 -0.640276892971 3.26557146215 -1.13525460974 -1.75569324655 -1.34994545623 -0.481994958262 -1.6068657979 -1.32384457821 -0.68071888237
10.7862725063 -1.58023517263 -0.643115614205 3.26574385613 -1.1355993977 -1.75641000761 -1.34968302847 -0.481557390591 -1.60599490762 -1.32205688603 -0.679873590493
10.7998017583 -1.58006971928 -0.645979341139 3.26591692213 -1.1359455297 -1.75714378246 -1.34940613743 -0.48110913221 -1.60508810142 -1.3201968306 -0.679028907761
10.8132545659 -1.57990399992 -0.648855362583 3.26609032083 -1.13629232711 -1.75787603896 -1.34913527967 -0.480660858223 -1.60419186464 -1.31835005362 -0.678182219497
10.8268995658 -1.57973802571 -0.651743589866 3.26626403905 -1.13663976353 -1.75860669038 -1.34887039262 -0.480212587755 -1.60330611191 -1.31651642016 -0.677333563945
10.8407388363 -1.57957180767 -0.654643934681 3.26643806375 -1.13698781294 -1.75933565124 -1.34861141319 -0.479764339552 -1.60243075731 -1.31469579626 -0.67648297929
10.8547744729 -1.57940535665 -0.65755630899 3.26661238208 -1.13733644961 -1.76006283751 -1.34835827899 -0.479316131672 -1.6015657153 -1.3128880482 -0.675630504261
10.8690085918 -1.57923868337 -0.660480625096 3.26678698134 -1.13768564813 -1.76078816639 -1.34811092724 -0.478867981801 -1.60071089992 -1.31109304325 -0.674776177533
10.8834433313 -1.57907179842 -0.663416795603 3.26696184899 -1.13803538341 -1.76151155653 -1.34786929559 -0.478419907047 -1.5998662254 -1.3093106492 -0.673920038115
10.8980808469 -1.57890471223 -0.66636473346 3.26713697263 -1.1383856307 -1.76223292783 -1.34763332132 -0.477971924163 -1.59903160558 -1.30754073483 -0.673062124922
10.9129652354 -1.57873666197 -0.669332710656 3.26731264034 -1.13873696613 -1.76296201788 -1.34739348537 -0.477518550828 -1.59818491046 -1.30574200524 -0.672203215011
10.928059208 -1.57856841236 -0.672312679825 3.26748856378 -1.13908881301 -1.76368895359 -1.3471593454 -0.477065284396 -1.59734837138 -1.30395585202 -0.671342512892
10.9433650126 -1.57839997393 -0.675304551784 3.26766473049 -1.13944114641 -1.76441365585 -1.34693083799 -0.476612141335 -1.59652190073 -1.30218214289 -0.670480058919
10.9588849178 -1.57823135702 -0.678308237722 3.26784112815 -1.13979394174 -1.76513604696 -1.34670789984 -0.47615913761 -1.59570541089 -1.30042074629 -0.669615893572
10.9747785768 -1.57806257182 -0.68132364917 3.26801774463 -1.1401471747 -1.76585605065 -1.3464904681 -0.475706288665 -1.59489881448 -1.29867153132 -0.668750057517
10.9910542688 -1.57789362841 -0.684350698034 3.26819456795 -1.14050082133 -1.76657359202 -1.34627847974 -0.475253609567 -1.59410202395 -1.29693436808 -0.667882591334
11.0077204498 -1.5777245367 -0.687389296575 3.26837158628 -1.140854858 -1.76728859758 -1.34607187211 -0.474801114899 -1.59331495193 -1.29520912739 -0.667013535715
11.0247857544 -1.57755530645 -0.690439357424 3.26854878796 -1.14120926135 -1.76800099526 -1.34587058284 -0.47434881879 -1.59253751122 -1.29349568087 -0.666142931412
11.0422589964 -1.57738594733 -0.69350079357 3.26872616147 -1.14156400838 -1.76871071433 -1.34567454947 -0.473896735031 -1.59176961452 -1.29179390121 -0.665270819029
11.0601491761 -1.5772164688 -0.696573518442 3.26890369546 -1.14191907637 -1.76941768556 -1.34548371021 -0.473444876835 -1.59101117499 -1.29010366162 -0.6643972394
11.0786486453 -1.57704688023 -0.699657445798 3.26908137874 -1.14227444293 -1.77012184101 -1.34529800305 -0.472993257173 -1.59026210556 -1.28842483656 -0.66352223307
11.0977773736 -1.57687719084 -0.702752489794 3.26925920025 -1.14263008595 -1.77082311422 -1.3451173666 -0.472541888509 -1.58952231968 -1.28675730114 -0.662645840734
11.1175559652 -1.57670740972 -0.705858564991 3.26943714911 -1.14298598365 -1.77152144005 -1.34494173945 -0.472090782986 -1.58879173071 -1.28510093156 -0.661768102876
11.1380056821 -1.57653754581 -0.708975586341 3.26961521455 -1.14334211454 -1.7722167548 -1.34477106076 -0.471639952291 -1.58807025249 -1.28345560473 -0.660889060059
11.1593598907 -1.57636760792 -0.712103469207 3.26979338599 -1.14369845742 -1.77290899612 -1.34460526967 -0.471189407806 -1.58735779882 -1.28182119871 -0.660008752603
11.1816577306 -1.57619760474 -0.715242129348 3.26997165298 -1.1440549914 -1.77359810308 -1.344444306 -0.470739160466 -1.58665428404 -1.28019759227 -0.659127220898
11.2050877269 -1.57602846682 -0.718380085328 3.2701495164 -1.14441071824 -1.77427350728 -1.34429618039 -0.470294868287 -1.58597945833 -1.27862267154 -0.658244719487
11.2299580682 -1.57585929428 -0.721528285728 3.27032743634 -1.14476655813 -1.77494567451 -1.34415261542 -0.469850900064 -1.58531314698 -1.27705799083 -0.657361159365
11.2535404504 -1.57569009502 -0.724686650591 3.27050540328 -1.14512249201 -1.77561455054 -1.34401355308 -0.469407264949 -1.58465526691 -1.27550343534 -0.6564765791
11.2760499237 -1.57552087677 -0.72785510039 3.27068340781 -1.14547850106 -1.77628008251 -1.34387893605 -0.468963971694 -1.58400573569 -1.27395889102 -0.655591017257
11.297749396 -1.57535164719 -0.731033556025 3.27086144067 -1.14583456678 -1.77694221881 -1.34374870702 -0.468521028816 -1.58336447089 -1.272424245 -0.65470451207
11.3186672902 -1.57518241377 -0.734221938813 3.27103949273 -1.1461906709 -1.77760090917 -1.34362280936 -0.468078444475 -1.58273139071 -1.27089938522 -0.653817101719
11.3390327069 -1.57501318391 -0.737420170499 3.271217555 -1.14654679545 -1.77825610454 -1.34350118648 -0.467636226597 -1.58210641344 -1.26938420077 -0.652928824056
11.3588595701 -1.57484396489 -0.740628173253 3.27139561863 -1.14690292269 -1.77890775721 -1.3433837825 -0.467194382765 -1.58148945801 -1.26787858155 -0.652039716857
11.3777660062 -1.57467671085 -0.743820483942 3.2715725524 -1.14725679024 -1.77953452957 -1.34328529537 -0.466764210577 -1.58091775013 -1.26645497275 -0.651151108097
11.3962199604 -1.57450950388 -0.747021735269 3.2717494393 -1.14761056405 -1.78015772902 -1.34319064568 -0.466334428265 -1.58035342809 -1.26504012224 -0.650261897059
11.4143604217 -1.5743423502 -0.750231856439 3.2719262717 -1.14796422884 -1.78077731612 -1.34309978159 -0.465905041388 -1.57979641601 -1.26363392953 -0.649372118163
11.4321921903 -1.57417525595 -0.753450777092 3.27210304205 -1.14831776955 -1.78139325266 -1.34301265192 -0.465476055226 -1.57924663868 -1.26223629493 -0.648481805707
11.449720009 -1.57400822712 -0.756678427287 3.27227974296 -1.14867117137 -1.78200550149 -1.34292920573 -0.465047474875 -1.57870402118 -1.26084711985 -0.647590993652
11.4669485624 -1.57384126963 -0.759914737508 3.27245636713 -1.1490244197 -1.7826140266 -1.34284939249 -0.464619305222 -1.57816848901 -1.25946630663 -0.646699715699
11.4838824779 -1.5736743893 -0.763159638657 3.27263290736 -1.14937750016 -1.78321879312 -1.34277316226 -0.464191550918 -1.57763996831 -1.25809375852 -0.645808005363
11.5005263271 -1.57350759185 -0.766413062064 3.2728093566 -1.14973039864 -1.7838197672 -1.34270046517 -0.46376421647 -1.57711838538 -1.25672937991 -0.644915895745
11.5193585054 -1.57332050413 -0.770094244977 3.27300881419 -1.15012931382 -1.7844655453 -1.34264468056 -0.463295528811 -1.57659052121 -1.25529823422 -0.643899251357
11.5386200883 -1.57313357273 -0.773785177121 3.2732080856 -1.15052785663 -1.78510645289 -1.34259289736 -0.46282738551 -1.5760706641 -1.2538764523 -0.642882434238
11.5583202565 -1.57294680442 -0.777485769712 3.27340716234 -1.15092601012 -1.78574245287 -1.34254505007 -0.46235979035 -1.57555871582 -1.2524639095 -0.641865487022
11.5784683808 -1.57276020584 -0.781195934661 3.27360603609 -1.15132375763 -1.78637350973 -1.34250107412 -0.461892746835 -1.57505457914 -1.25106048253 -0.640848451964
11.5992800827 -1.57257378347 -0.784915584548 3.27380469868 -1.15172108279 -1.78699958954 -1.34246090572 -0.461426258243 -1.57455815772 -1.24966604962 -0.639831370844
11.6207765769 -1.5723875437 -0.788644632621 3.27400314207 -1.15211796959 -1.78762065983 -1.34242448158 -0.460960327657 -1.57406935589 -1.24828049062 -0.638814284886
11.642979744 -1.57220149276 -0.792382992803 3.2742013584 -1.15251440225 -1.78823668968 -1.34239173946 -0.460494957914 -1.57358807911 -1.24690368674 -0.637797234928
11.6655020673 -1.57202033142 -0.796063564554 3.27439633632 -1.15290435808 -1.7887994948 -1.34239029583 -0.460055267764 -1.57318854308 -1.2456848192 -0.636786477669
11.6889882362 -1.57183940092 -0.799751886351 3.27459102394 -1.15329373332 -1.78935747972 -1.34239185017 -0.459616102442 -1.57279532456 -1.24447323818 -0.635776120975
11.713478926 -1.57165870574 -0.80344788774 3.2747854155 -1.15368251643 -1.78991062627 -1.34239635046 -0.459177462492 -1.57240834321 -1.2432688457 -0.634766197472
11.7392718835 -1.57147825029 -0.807151498866 3.27497950533 -1.1540706961 -1.79045891747 -1.34240374531 -0.458739348333 -1.5720275195 -1.2420715451 -0.633756739327
11.766707371 -1.57129803889 -0.810862650461 3.27517328787 -1.15445826117 -1.79100233745 -1.34241398449 -0.45830176023 -1.57165277513 -1.24088124076 -0.632747778403
11.7959902708 -1.57111807572 -0.814581273824 3.27536675769 -1.15484520082 -1.79154087143 -1.34242701756 -0.457864698417 -1.57128403187 -1.2396978388 -0.63173934583
11.8235357286 -1.57093836493 -0.818307300841 3.27555990945 -1.15523150434 -1.79207450572 -1.34244279539 -0.457428162969 -1.57092121288 -1.23852124629 -0.630731472489
11.8491252049 -1.57076478819 -0.821953471065 3.27574885712 -1.15560939967 -1.79254426898 -1.34249245064 -0.457022738918 -1.57065051235 -1.23752757362 -0.629733459981
11.873566078 -1.57059149384 -0.825605434826 3.27593743511 -1.15598655565 -1.79300949408 -1.34254414802 -0.456617769355 -1.5703844618 -1.23653918196 -0.628736349036
11.8970902014 -1.57041848448 -0.829263139982 3.27612563997 -1.15636296539 -1.79347017795 -1.3425978494 -0.456213252936 -1.57012300015 -1.23555599976 -0.627740162028
11.9197315879 -1.57024576264 -0.832926534863 3.27631346835 -1.15673862214 -1.79392631825 -1.34265351708 -0.455809188277 -1.56986606695 -1.23457795658 -0.626744920928
11.9415230028 -1.5700733308 -0.836595568253 3.27650091696 -1.15711351936 -1.79437791334 -1.34271111364 -0.45540557398 -1.56961360217 -1.2336049831 -0.625750647241
11.9627057467 -1.56990119137 -0.840270189408 3.27668798257 -1.15748765059 -1.79482496232 -1.34277060265 -0.45500240859 -1.56936554694 -1.2326370108 -0.624757362233
11.9832964927 -1.56972934673 -0.843950348034 3.27687466204 -1.15786100952 -1.79526746496 -1.342831948 -0.454599690636 -1.56912184285 -1.23167397225 -0.623765086732
12.0059718065 -1.56953732044 -0.848125880708 3.27708652776 -1.15828474097 -1.79569813156 -1.34294510526 -0.454171792923 -1.5689547455 -1.23078870107 -0.622623077544
12.0280088561 -1.56934571581 -0.852306842261 3.27729781907 -1.15870732358 -1.79612326915 -1.34305985196 -0.453744356945 -1.56879182622 -1.22990807264 -0.621482846421
12.0500742263 -1.56915453462 -0.856493176714 3.27750853347 -1.15912875239 -1.79654288973 -1.34317614753 -0.453317379599 -1.56863301739 -1.22903201302 -0.620344413504
12.072837076 -1.5689637787 -0.860684828748 3.2777186685 -1.15954902245 -1.79695700606 -1.343293953 -0.452890857795 -1.56847825318 -1.22816044923 -0.619207798628
12.0963191092 -1.56877344975 -0.864881743643 3.2779282218 -1.15996812904 -1.79736563156 -1.3434132299 -0.452464788465 -1.56832746854 -1.22729330974 -0.618073021076
12.1207303902 -1.56858354943 -0.869083867288 3.27813719107 -1.16038606758 -1.79776878037 -1.34353394042 -0.45203916856 -1.56818059936 -1.22643052427 -0.616940099631
12.1452464615 -1.56840334083 -0.873143396826 3.27833920214 -1.16079008972 -1.7980772395 -1.34369612617 -0.451660062871 -1.56815639955 -1.22582383999 -0.615827836121
12.1708707364 -1.56822352067 -0.877207732478 3.27854064741 -1.16119298026 -1.79838025712 -1.34385983067 -0.451281420009 -1.56813607475 -1.22522160895 -0.614717237178
12.1978238962 -1.56804412646 -0.881275356437 3.27874148532 -1.16159465608 -1.79867861138 -1.34402406747 -0.450903030414 -1.56811794576 -1.22462170976 -0.61360881626
12.2264581581 -1.56786515844 -0.885346241609 3.2789417157 -1.16199511684 -1.79897232242 -1.34418881884 -0.450524891989 -1.56810197896 -1.22402410872 -0.612502579095
12.2568781092 -1.56768661689 -0.889420355277 3.27914133816 -1.16239436175 -1.79926141249 -1.3443540634 -0.450147002392 -1.5680881354 -1.22342876711 -0.611398532719
12.2895552409 -1.56750850214 -0.893497665156 3.27934035231 -1.16279239006 -1.79954590396 -1.34451978093 -0.449769359363 -1.56807637748 -1.22283564684 -0.610296683996
12.323730389 -1.56734095559 -0.897412577442 3.27953173881 -1.16317516306 -1.79972779623 -1.34472764929 -0.449442178679 -1.56819294717 -1.22251519641 -0.609218845118
12.3616766962 -1.56717379095 -0.901329830591 3.27972252473 -1.1635567349 -1.79990553539 -1.34493577535 -0.449115122738 -1.56831096324 -1.2221961354 -0.608143216028
12.3956706891 -1.56700700291 -0.905248720088 3.27991273025 -1.16393714594 -1.80007966781 -1.34514325698 -0.448788043251 -1.56842916257 -1.22187748368 -0.607069940929
12.4267450154 -1.56684064846 -0.909169280065 3.28010230065 -1.16431628674 -1.80024995065 -1.34535094655 -0.448461035311 -1.56854845582 -1.22155924074 -0.605999127949
12.4555967241 -1.56667465638 -0.913091434659 3.28029130475 -1.16469429493 -1.80041675325 -1.34555778631 -0.44813397616 -1.56866768496 -1.22124136067 -0.604930643537
12.4828081471 -1.56650909698 -0.917015227999 3.28047967547 -1.16507103638 -1.80057975564 -1.34576481276 -0.447806988514 -1.568787969 -1.22092386893 -0.603864614755
12.515754443 -1.5663238723 -0.921508742455 3.28069599605 -1.16550367755 -1.80064525577 -1.34606330413 -0.44747861913 -1.56908981656 -1.220883812 -0.602617773909
12.5517336507 -1.5661391066 -0.926003192948 3.28091149453 -1.16593467451 -1.8007068639 -1.34636034663 -0.447149834547 -1.56939039401 -1.22084193421 -0.601374507905
12.5918814714 -1.56595484119 -0.930498422598 3.28112618566 -1.16636405675 -1.80076428934 -1.34665607618 -0.446820737728 -1.56969001233 -1.22079869703 -0.600134792093
12.6381292392 -1.56577106686 -0.9349944017 3.28134006326 -1.16679181197 -1.80081817056 -1.34695027776 -0.446491211716 -1.56998814391 -1.22075336384 -0.598898611439
12.694663478 -1.56558778907 -0.939491141445 3.28155313944 -1.16721796432 -1.80086796855 -1.34724314037 -0.446161376622 -1.57028527529 -1.22070668957 -0.597665947739
12.7391290955 -1.56541853586 -0.943758450537 3.28175601212 -1.16762370968 -1.80078178395 -1.34758561916 -0.445897870352 -1.57074218556 -1.22100978921 -0.596468960944
12.7780183982 -1.56524960571 -0.948025495006 3.2819581723 -1.16802803004 -1.80069339441 -1.34792538694 -0.445633370128 -1.57119543246 -1.22130832022 -0.595275647136
12.8197765168 -1.565081062 -0.95229249777 3.28215961535 -1.16843091614 -1.80060254569 -1.34826299587 -0.445368077118 -1.57164585202 -1.22160322285 -0.594085781177
12.8686488701 -1.56491290415 -0.956559460029 3.28236034412 -1.16883237368 -1.80050924849 -1.34859846206 -0.445102003703 -1.57209347768 -1.22189456653 -0.592899343709
12.9311065499 -1.56474513207 -0.960826383308 3.28256036025 -1.16923240595 -1.80041353702 -1.34893180422 -0.444835158358 -1.5725383327 -1.22218238782 -0.591716316349
13.0401430113 -1.5645915335 -0.964855034642 3.28275013052 -1.16961194648 -1.80017854018 -1.34931381735 -0.444635778188 -1.5731432832 -1.2228243933 -0.590570663288
13.0997663275 -1.56443807006 -0.968883457534 3.28293935725 -1.16999039994 -1.7999430402 -1.34969210366 -0.444434743321 -1.57374257949 -1.22345953162 -0.589428504271
13.1464257401 -1.56428486055 -0.972911848912 3.28312799162 -1.17036766869 -1.79970637692 -1.35006775385 -0.444232484697 -1.5743378812 -1.22408958439 -0.588289518993
13.1903258822 -1.56413190066 -0.97694020956 3.28331604059 -1.17074376662 -1.79946855229 -1.35044074181 -0.444029011344 -1.57492918999 -1.22471465506 -0.587153687499
13.2438154902 -1.56397919156 -0.980968542326 3.28350350465 -1.17111869475 -1.79922959128 -1.35081109274 -0.443824336519 -1.57551654153 -1.22533479361 -0.586020990804
13.3429212459 -1.56380556394 -0.985703221894 3.28372542825 -1.17156254195 -1.7987568137 -1.35133128455 -0.443651734209 -1.57644579401 -1.22654824247 -0.584653178073
13.4047903721 -1.56363207198 -0.990439117793 3.28394668403 -1.17200505349 -1.79828395187 -1.35184670651 -0.44347647591 -1.57736734846 -1.22775211056 -0.583289691477
13.4581112168 -1.56345872102 -0.995176224674 3.28416726978 -1.172446225 -1.79781103717 -1.35235741093 -0.443298596269 -1.57828128417 -1.22894650832 -0.581930498562
13.5285763226 -1.56328551631 -0.999914537242 3.28438718342 -1.17288605227 -1.79733810025 -1.3528634495 -0.443118129344 -1.57918767954 -1.23013154459 -0.580575567497
13.6235294978 -1.56316035631 -1.00346899838 3.28455355594 -1.17321879732 -1.79682057649 -1.35331229279 -0.443038827625 -1.58006549111 -1.23142484726 -0.57953018672
13.6786283236 -1.56303510294 -1.00702580863 3.28471968369 -1.17355105282 -1.79630398976 -1.35375788391 -0.442957344794 -1.58093779772 -1.23271128202 -0.578487038928
13.7222741282 -1.56290976071 -1.01058495446 3.28488556351 -1.17388281247 -1.79578834825 -1.35420024747 -0.442873702096 -1.581804638 -1.2339909033 -0.577446112489
13.7655755069 -1.562784334 -1.01414642237 3.28505119241 -1.17421407026 -1.79527365989 -1.35463940723 -0.442787920314 -1.58266604978 -1.23526376552 -0.576407396133
13.8203321143 -1.56265882717 -1.01771019906 3.28521656735 -1.17454482014 -1.79475993253 -1.3550753873 -0.442700020127 -1.58352207103 -1.23652992225 -0.575370878661
13.9035620125 -1.56254583112 -1.02104822615 3.28537326857 -1.17485822259 -1.79411008286 -1.35555357437 -0.442674705747 -1.5845261637 -1.23813182838 -0.574370992054
13.9553780074 -1.56243254991 -1.02439083311 3.28552992219 -1.17517152981 -1.79346199183 -1.35602843207 -0.442646720679 -1.58552442774 -1.23972642036 -0.573372712546
13.9968917386 -1.56231898966 -1.02773799206 3.28568652301 -1.17548473146 -1.79281566229 -1.35649997889 -0.442616088289 -1.58651689348 -1.24131374528 -0.572376035189
14.0326979043 -1.56220515651 -1.0310896754 3.28584306587 -1.17579781719 -1.79217109704 -1.35696823361 -0.442582831813 -1.58750359147 -1.24289384979 -0.571380955053
14.0648348799 -1.56209105646 -1.03444585569 3.28599954572 -1.17611077688 -1.79152829879 -1.3574332147 -0.442546974136 -1.58848455193 -1.24446678047 -0.570387467439
14.0949666353 -1.56198840251 -1.0375926237 3.28614830075 -1.17640828694 -1.79075383243 -1.35793804335 -0.44256993687 -1.58960698191 -1.24636108312 -0.569428299194
14.1228577976 -1.56188526398 -1.04074674127 3.28629721382 -1.17670611309 -1.78998179521 -1.35843954335 -0.442589729319 -1.59072343758 -1.24824783533 -0.568470055277
14.1513754703 -1.5617816486 -1.04390816426 3.28644627765 -1.17700424075 -1.78921218788 -1.35893772541 -0.442606376091 -1.59183393713 -1.25012707256 -0.567512737946
14.1826364675 -1.56167756404 -1.04707684878 3.28659548503 -1.17730265549 -1.78844501119 -1.35943260036 -0.442619901581 -1.59293849895 -1.25199883034 -0.566556349539
14.2178889323 -1.56157301792 -1.05025275128 3.28674482876 -1.17760134296 -1.78768026583 -1.35992417927 -0.442630330043 -1.59403714172 -1.25386314416 -0.565600892408
14.249957347 -1.56149443919 -1.05274180675 3.2868637054 -1.17783909625 -1.78693825743 -1.36036501571 -0.442684287771 -1.59506410982 -1.25566956235 -0.564830746328
14.2785498083 -1.56141538315 -1.05523816616 3.28698283646 -1.17807735836 -1.78619831652 -1.36080357007 -0.442735690828 -1.59608690462 -1.25747067053 -0.564060749059
14.3045095559 -1.56133585509 -1.05774179391 3.28710221653 -1.17831611851 -1.78546044422 -1.36123984311 -0.442784553637 -1.59710552782 -1.25926648104 -0.5632909062
14.3285522065 -1.5612558603 -1.06025265461 3.28722184025 -1.17855536595 -1.78472464158 -1.36167383577 -0.442830890572 -1.59811998134 -1.26105700641 -0.56252122335
14.353394383 -1.56117540409 -1.06277071302 3.28734170224 -1.17879508993 -1.78399090968 -1.36210554932 -0.442874716041 -1.59913026753 -1.26284225921 -0.561751706026
14.3806411884 -1.56109449166 -1.06529593401 3.28746179721 -1.17903527987 -1.78325924952 -1.36253498482 -0.442916044224 -1.60013638863 -1.2646222524 -0.560982359944
14.4091427629 -1.56102096567 -1.06768357931 3.28757730825 -1.17926630195 -1.78242951126 -1.36299331486 -0.442998273928 -1.60124616851 -1.26663668628 -0.560235877817
14.4350092419 -1.56094682559 -1.07008087231 3.28769321283 -1.1794981111 -1.78160215907 -1.36344939906 -0.443077600509 -1.60235178523 -1.26864580428 -0.559489054924
14.4589921786 -1.56087207748 -1.07248776735 3.28780950441 -1.17973069426 -1.78077719632 -1.36390323246 -0.443154038213 -1.60345323074 -1.27064960991 -0.558741901065
14.4814503144 -1.56079672739 -1.07490421896 3.28792617648 -1.1799640384 -1.77995462632 -1.3643548103 -0.443227601271 -1.60455049739 -1.27264810701 -0.557994426055
14.5026901667 -1.56072078143 -1.07733018181 3.28804322252 -1.18019813048 -1.77913445231 -1.36480412824 -0.443298303995 -1.60564357803 -1.27464129961 -0.557246639614
14.5235927543 -1.56064424559 -1.07976561067 3.28816063607 -1.18043295758 -1.77831667748 -1.36525118189 -0.443366160549 -1.60673246564 -1.27662919221 -0.556498551632
14.5445249467 -1.56057384032 -1.08208611957 3.28827447266 -1.18066063076 -1.77740915675 -1.36572423874 -0.443469700668 -1.60791536412 -1.27882935207 -0.555769893464
14.566859878 -1.56050269255 -1.08441863704 3.28838883121 -1.18088934785 -1.7765043024 -1.36619507235 -0.443569999977 -1.60909410304 -1.28102420842 -0.555040430454
14.590928659 -1.56043080898 -1.08676310744 3.28850370418 -1.1811190938 -1.77560212121 -1.36666367156 -0.443667072104 -1.61026866403 -1.28321375624 -0.554310176787
14.617123963 -1.56035819648 -1.08911947543 3.28861908388 -1.18134985319 -1.77470261985 -1.36713002638 -0.4437609312 -1.61143902997 -1.28539799051 -0.553579146106
14.6462052959 -1.56028486184 -1.09148768568 3.28873496269 -1.18158161082 -1.7738058049 -1.36759412672 -0.443851591239 -1.61260518391 -1.28757690687 -0.552847352331
14.679960446 -1.56021081189 -1.09386768301 3.28885133301 -1.18181435147 -1.77291168281 -1.36805596281 -0.443939066238 -1.61376710942 -1.28975050136 -0.552114809401
14.7130708192 -1.56015155109 -1.0958286884 3.28894880792 -1.18200930127 -1.77207666222 -1.36847144329 -0.444039961958 -1.61483438943 -1.29177426393 -0.551500556721
14.7414584263 -1.56009166 -1.09780017008 3.28904674913 -1.1822051837 -1.77124379106 -1.36888528741 -0.444138243281 -1.61589859086 -1.29379413127 -0.550885405961
14.7667843337 -1.5600311433 -1.09978208705 3.28914515121 -1.18240198786 -1.77041307616 -1.3692974849 -0.444233918651 -1.61695969631 -1.29581009502 -0.550269368429
14.7900622662 -1.55997000578 -1.10177439838 3.28924400862 -1.18259970269 -1.76958452424 -1.3697080261 -0.444326996792 -1.61801768906 -1.29782214692 -0.549652455185
14.8116707581 -1.5599082522 -1.10377706317 3.28934331588 -1.18279831721 -1.76875814194 -1.37011690135 -0.444417486376 -1.61907255256 -1.29983027909 -0.549034677436
14.8319291735 -1.55984588735 -1.10579004055 3.28944306747 -1.18299782039 -1.76793393581 -1.37052410132 -0.444505396185 -1.62012427073 -1.30183448392 -0.548416046338
14.851110901 -1.559782916 -1.10781328971 3.28954325789 -1.18319820123 -1.7671119123 -1.37092961679 -0.444590734996 -1.62117282769 -1.30383475413 -0.547796573137
14.8702918819 -1.55972310431 -1.10977695902 3.28964195274 -1.18339559092 -1.76623081152 -1.37135178798 -0.444697135528 -1.62228237621 -1.30597208959 -0.547187604848
14.8886528826 -1.55966259289 -1.11175256683 3.28974117906 -1.18359404356 -1.76535204643 -1.37177229112 -0.444800715981 -1.62338877946 -1.30810550578 -0.546577483834
14.9062279009 -1.55960138693 -1.1137400665 3.28984093071 -1.18379354685 -1.76447562635 -1.37219111334 -0.444901484851 -1.62449201519 -1.31023499 -0.54596622362
14.9232178066 -1.55953949171 -1.11573941146 3.28994120148 -1.1839940884 -1.76360156048 -1.37260824233 -0.44499945088 -1.6255920618 -1.31236052979 -0.545353837555
14.9396411211 -1.55947691248 -1.11775055513 3.29004198519 -1.18419565582 -1.76272985786 -1.37302366579 -0.445094622774 -1.62668889793 -1.31448211314 -0.544740339166
14.9556745778 -1.55941365455 -1.11977345096 3.29014327562 -1.18439823668 -1.76186052744 -1.37343737192 -0.445187009439 -1.62778250281 -1.31659972827 -0.544125741859
14.9713265415 -1.55934972322 -1.12180805241 3.29024506656 -1.18460181857 -1.76099357802 -1.37384934897 -0.445276619761 -1.62887285593 -1.31871336385 -0.543510059191
14.9871333788 -1.55928792373 -1.12380235651 3.29034605827 -1.18480380198 -1.76007842032 -1.37427457387 -0.445382109335 -1.63001252378 -1.32093811572 -0.542901846505
15.0025763156 -1.55922537408 -1.1258097864 3.29044762553 -1.1850069365 -1.75916578205 -1.3746980706 -0.445484610948 -1.63114893268 -1.32315889188 -0.542292291711
15.0176626967 -1.55916207999 -1.12783029039 3.29054976152 -1.18521120847 -1.75825567463 -1.37511982459 -0.44558413343 -1.63228205695 -1.32537567648 -0.541681410295
15.032399765 -1.55909804727 -1.12986381684 3.29065245935 -1.18541660414 -1.75734810928 -1.37553982178 -0.445680685828 -1.63341187158 -1.32758845398 -0.541069217632
15.0469386014 -1.55903328162 -1.13191031401 3.29075571223 -1.18562310991 -1.75644309709 -1.37595804794 -0.445774277016 -1.6345383516 -1.32979720946 -0.540455729493
15.0612809366 -1.55896778892 -1.13396973027 3.29085951324 -1.18583071192 -1.75554064896 -1.37637448962 -0.445864916271 -1.63566147297 -1.33200192814 -0.5398409613
15.075428519 -1.55890157498 -1.13604201391 3.2909638555 -1.18603939643 -1.75464077564 -1.37678913344 -0.445952612836 -1.63678121193 -1.33420259571 -0.539224928679
15.0879129161 -1.55884473957 -1.13783464883 3.29105490839 -1.18622150221 -1.75382144838 -1.37716043231 -0.446038896482 -1.63779331642 -1.33620150699 -0.538690103533
15.1001024526 -1.55878730806 -1.1396379803 3.29114641767 -1.18640452078 -1.75300418426 -1.37753034533 -0.446122800858 -1.63880280965 -1.33819730866 -0.538154163094
15.1121224376 -1.55872928467 -1.14145197089 3.29123837834 -1.18658844213 -1.75218899187 -1.37789886238 -0.446204332323 -1.63980967331 -1.34018998886 -0.537617118764
15.1240930975 -1.55867067353 -1.1432765831 3.29133078546 -1.18677325636 -1.75137587967 -1.37826597316 -0.446283497081 -1.64081388913 -1.34217953614 -0.537078982263
15.1360139879 -1.55861147886 -1.14511177945 3.29142363402 -1.18695895348 -1.750564856 -1.37863166779 -0.446360301542 -1.6418154393 -1.34416593921 -0.536539765156
15.1478846784 -1.55855170488 -1.14695752246 3.29151691902 -1.18714552349 -1.74975592909 -1.37899593654 -0.446434752162 -1.64281430631 -1.34614918702 -0.535999479059
15.1597047572 -1.55849135587 -1.14881377466 3.29161063542 -1.18733295629 -1.74894910709 -1.3793587701 -0.446506855597 -1.64381047315 -1.34812926864 -0.535458135436
15.171473826 -1.55843043605 -1.15068049853 3.29170477823 -1.1875212419 -1.748144398 -1.37972015897 -0.44657661835 -1.64480392279 -1.3501061736 -0.534915746061
15.1833093129 -1.55836994891 -1.15253917038 3.29179902396 -1.18770973337 -1.74731867129 -1.38008678848 -0.446651778666 -1.64581833232 -1.35213144915 -0.534375451701
15.1950971594 -1.5583088638 -1.15440887277 3.29189372113 -1.1878991277 -1.74649513078 -1.38045195686 -0.446724514486 -1.6468299918 -1.35415353077 -0.533834019097
15.2068369039 -1.55824718518 -1.15628956615 3.29198886444 -1.18808941432 -1.74567378532 -1.38081565404 -0.446794832532 -1.64783888293 -1.35617240665 -0.533291460712
15.2185280985 -1.55818491754 -1.15818121098 3.29208444858 -1.18828058261 -1.74485464366 -1.38117787026 -0.446862739654 -1.64884498778 -1.35818806516 -0.532747788961
15.2301703107 -1.5581220654 -1.1600837677 3.29218046824 -1.18847262193 -1.7440377144 -1.38153859591 -0.446928242753 -1.64984828878 -1.36020049495 -0.532203016304
15.241763125 -1.55805863324 -1.16199719671 3.29227691813 -1.1886655217 -1.74322300604 -1.38189782144 -0.446991348709 -1.65084876849 -1.36220968502 -0.53165715534
15.253538155 -1.55799462564 -1.1639214585 3.29237379288 -1.18885927119 -1.74241052695 -1.38225553786 -0.447052064668 -1.65184641014 -1.36421562441 -0.531110218426
15.2654976427 -1.55793004712 -1.16585651345 3.29247108718 -1.1890538598 -1.74160028539 -1.38261173604 -0.447110397659 -1.65284119698 -1.3662183026 -0.530562218182
15.2775937906 -1.55786533707 -1.1677943022 3.29256870292 -1.18924909128 -1.74078057915 -1.38296974952 -0.447170066296 -1.65384501488 -1.36824356876 -0.530014550378
15.2898804716 -1.55780004739 -1.169743126 3.29266674487 -1.18944517518 -1.73996315891 -1.38332622573 -0.447227316671 -1.65484594098 -1.37026555121 -0.529465786244
15.3023600281 -1.55773418269 -1.17170294414 3.29276520761 -1.18964210067 -1.73914803314 -1.38368115521 -0.447282155842 -1.65584395811 -1.37228423933 -0.528915939063
15.3151615772 -1.55766774776 -1.17367371602 3.29286408559 -1.18983985662 -1.73833521021 -1.3840345296 -0.447334591402 -1.65683905017 -1.3742996223 -0.528365021507
15.3282927487 -1.55760074726 -1.17565540098 3.29296337335 -1.19003843213 -1.73752469833 -1.38438634005 -0.447384630646 -1.65783120083 -1.37631168992 -0.527813046747
15.3417613498 -1.55753318597 -1.1776479584 3.29306306535 -1.19023781614 -1.7367165056 -1.38473657837 -0.447432281167 -1.65882039444 -1.37832043199 -0.527260027655
15.3555753589 -1.55746506859 -1.17965134765 3.29316315612 -1.19043799769 -1.73591064001 -1.38508523627 -0.447477550469 -1.65980661547 -1.38032583872 -0.526705977319
15.3697429328 -1.55739639991 -1.18166552812 3.29326364013 -1.19063896569 -1.7351071094 -1.38543230594 -0.447520446256 -1.66078984893 -1.38232790041 -0.526150908651
15.3842724143 -1.5573271847 -1.18369045922 3.29336451185 -1.19084070914 -1.73430592151 -1.38577777966 -0.447560976233 -1.66177008005 -1.38432660766 -0.525594834653
15.3991723322 -1.55725742777 -1.1857261004 3.29346576575 -1.19104321695 -1.73350708394 -1.38612165012 -0.44759914825 -1.66274729457 -1.38632195125 -0.52503776821
15.4146041926 -1.55718713386 -1.18777241104 3.29356739638 -1.1912464782 -1.73271060417 -1.38646390964 -0.447634969962 -1.66372147809 -1.38831392243 -0.52447972257
15.4305862402 -1.55711630783 -1.18982935065 3.29366939814 -1.19145048172 -1.73191648957 -1.38680455155 -0.447668449456 -1.66469261719 -1.3903025123 -0.523920710463
15.4471373229 -1.55704495444 -1.19189687867 3.29377176558 -1.1916552166 -1.73112474737 -1.38714356867 -0.447699594529 -1.66566069819 -1.39228771257 -0.523360745103
15.4644483119 -1.55697307855 -1.19397495463 3.29387449314 -1.19186067172 -1.73033538468 -1.38748095454 -0.447728413296 -1.66662570818 -1.39426951489 -0.522799839338
15.4825532823 -1.55690068501 -1.19606353807 3.29397757529 -1.19206683602 -1.72954840852 -1.38781670282 -0.447754913865 -1.66758763447 -1.3962479112 -0.522238006101
15.5016771491 -1.55682777862 -1.19816258852 3.29408100655 -1.19227369855 -1.72876382574 -1.38815080708 -0.447779104268 -1.66854646448 -1.39822289382 -0.521675258502
15.5219287068 -1.55675406402 -1.20027753165 3.29418474429 -1.19248117402 -1.727993401 -1.38848001453 -0.447797657987 -1.6694904258 -1.40016889054 -0.52111061072
15.5435285732 -1.55667986315 -1.2024025521 3.29428880418 -1.19268929379 -1.72722534365 -1.38880757418 -0.447813967569 -1.67043128339 -1.40211146956 -0.520545128559
15.5667959474 -1.55660518075 -1.20453761066 3.29439318087 -1.19289804717 -1.72645965969 -1.38913348095 -0.44782804125 -1.67136902675 -1.40405062456 -0.51997882453
15.5923623062 -1.55653002159 -1.20668266821 3.29449786899 -1.19310742342 -1.72569635504 -1.38945773009 -0.447839887368 -1.67230364586 -1.40598634938 -0.519411711039
15.6209820922 -1.55645439045 -1.20883768566 3.29460286319 -1.19331741183 -1.72493543548 -1.38978031701 -0.447849514286 -1.67323513094 -1.40791863809 -0.518843800512
15.6467854048 -1.55637829204 -1.21100262393 3.29470815817 -1.19352800179 -1.72417690668 -1.39010123705 -0.447856930302 -1.67416347231 -1.40984748507 -0.51827510551
15.6704860897 -1.55630173112 -1.21317744402 3.29481374861 -1.19373918265 -1.72342077421 -1.39042048591 -0.447862143821 -1.6750886607 -1.41177288483 -0.517705638487
15.6926921957 -1.55622471246 -1.21536210697 3.29491962916 -1.19395094377 -1.72266704351 -1.3907380595 -0.447865163307 -1.67601068722 -1.41369483207 -0.517135411856
15.715958491 -1.55614677124 -1.21756500392 3.29502560196 -1.19416288935 -1.72193904761 -1.39104763977 -0.447859749467 -1.67690641683 -1.41556294216 -0.516562819562
15.737781957 -1.55606841343 -1.21977707912 3.29513182489 -1.19437533523 -1.72121337941 -1.39135555881 -0.447852254621 -1.67779901142 -1.41742762134 -0.515989593487
15.758425611 -1.5559896436 -1.22199829608 3.29523829295 -1.19458827135 -1.7204900432 -1.39166181424 -0.447842687276 -1.67868846484 -1.41928886619 -0.515415744966
15.7781478559 -1.55591046625 -1.22422861835 3.29534500117 -1.19480168778 -1.71976904313 -1.39196640358 -0.447831055861 -1.67957477101 -1.42114667363 -0.514841285461
15.7969891973 -1.55583088588 -1.22646800952 3.29545194462 -1.19501557469 -1.71905038328 -1.39226932433 -0.447817368749 -1.68045792392 -1.42300104086 -0.51426622653
15.8151683874 -1.55575090703 -1.2287164333 3.29555911833 -1.1952299221 -1.71833406761 -1.39257057462 -0.44780163452 -1.68133791823 -1.42485196497 -0.51369057944
15.8336028347 -1.55567053418 -1.23097385341 3.29566651738 -1.1954447202 -1.71762010001 -1.39287015235 -0.447783861636 -1.68221474852 -1.42669944344 -0.513114355645
15.8528619356 -1.55558977186 -1.23324023368 3.29577413685 -1.19565995913 -1.71690848424 -1.39316805582 -0.447764058664 -1.68308840984 -1.42854347379 -0.512537566454
15.8764180166 -1.55549639548 -1.23585162256 3.29589690079 -1.19590548701 -1.71613749841 -1.39349604043 -0.447729014834 -1.68404431879 -1.4305621337 -0.51187548246
15.9017752125 -1.55540257961 -1.23847354683 3.29601988736 -1.19615146016 -1.71536941994 -1.39382188606 -0.447691521639 -1.68499618147 -1.43257636455 -0.511212871253
15.9293432443 -1.55530833045 -1.24110595777 3.29614308993 -1.19639786529 -1.71460425251 -1.3941455928 -0.447651591576 -1.68594399498 -1.43458616596 -0.510549747531
15.9600352386 -1.55521365409 -1.24374880672 3.29626650197 -1.19664468938 -1.71384199962 -1.39446716021 -0.447609236877 -1.68688775613 -1.4365915382 -0.509886126362
15.9878213879 -1.5551185567 -1.24640204522 3.29639011691 -1.19689191926 -1.71308266467 -1.39478658881 -0.447564470066 -1.68782746274 -1.43859248132 -0.509222022348
16.018027078 -1.55502304435 -1.24906562488 3.29651392827 -1.19713954199 -1.71232625089 -1.39510387872 -0.447517303448 -1.6887631124 -1.44058899594 -0.508557450386
16.0525368149 -1.55492712315 -1.25173949749 3.29663792957 -1.19738754458 -1.71157276139 -1.39541903063 -0.447467749476 -1.68969470339 -1.4425810827 -0.507892425118
16.0941836374 -1.55483026756 -1.25443241884 3.29676122189 -1.19763412923 -1.71087363121 -1.3957187724 -0.447403551719 -1.6905722536 -1.44445899829 -0.507224844512
16.1290542019 -1.55473308271 -1.25713424901 3.29688463124 -1.19788094792 -1.71017719136 -1.39601645816 -0.447337212083 -1.69144590523 -1.446332617 -0.506557052303
16.1597942186 -1.55463557393 -1.25984494629 3.29700815208 -1.1981279896 -1.70948344306 -1.39631209069 -0.447268742249 -1.69231566059 -1.44820194296 -0.505889060667
16.1877133586 -1.55453774657 -1.26256446914 3.29713177889 -1.19837524322 -1.70879238747 -1.39660567322 -0.44719815396 -1.69318152247 -1.45006698033 -0.505220881609
16.2135794961 -1.55443960593 -1.26529277617 3.2972555062 -1.19862269784 -1.70810402561 -1.39689720892 -0.447125458888 -1.69404349371 -1.45192773352 -0.504552527178
16.2377826215 -1.55434115726 -1.26802982607 3.29737932859 -1.19887034262 -1.7074183584 -1.39718670094 -0.447050668647 -1.6949015773 -1.45378420716 -0.503884009439
16.2628203633 -1.55424240586 -1.27077557773 3.29750324064 -1.19911816672 -1.70673538668 -1.39747415297 -0.446973794946 -1.69575577676 -1.45563640583 -0.503215340237
16.2865080135 -1.5541429727 -1.27353550341 3.29762591377 -1.19936351299 -1.70611764919 -1.39774386769 -0.446880743938 -1.69654600149 -1.45735166456 -0.502544707308
16.310022324 -1.55404332029 -1.27630262995 3.29774860254 -1.19960889052 -1.70550230645 -1.39801165838 -0.446785882554 -1.69733257243 -1.45906284243 -0.501874174945
16.3352981447 -1.55394345304 -1.27907692351 3.29787130256 -1.19985429057 -1.70488935786 -1.3982775306 -0.446689221471 -1.69811549664 -1.46076994693 -0.501203752144
16.3627386115 -1.55384337534 -1.28185835041 3.29799400952 -1.20009970448 -1.70427880269 -1.39854148979 -0.44659077127 -1.69889478113 -1.46247298575 -0.500533447947
16.3928264512 -1.5537430915 -1.28464687708 3.29811671914 -1.20034512372 -1.70367064016 -1.3988035413 -0.446490542463 -1.69967043293 -1.46417196672 -0.499863271425
16.4269688051 -1.55364260582 -1.28744247005 3.2982394272 -1.20059053983 -1.70306486938 -1.39906369051 -0.446388545515 -1.70044245915 -1.46586689782 -0.499193231621
16.4572087746 -1.55354192259 -1.29024509604 3.29836212945 -1.20083594434 -1.70246148944 -1.39932194322 -0.446284790954 -1.70121086736 -1.46755778689 -0.498523337383
16.4937449994 -1.55342399098 -1.29352469078 3.29850322703 -1.20111813951 -1.70184519146 -1.39960024471 -0.446143491734 -1.7020224907 -1.46934694762 -0.497740312205
16.5261741586 -1.55330590301 -1.29681178274 3.2986442206 -1.20140012665 -1.70123165727 -1.39987616723 -0.446000191128 -1.70282959709 -1.47113096104 -0.496957819669
16.5558926907 -1.55318766396 -1.30010633096 3.29878510523 -1.2016818959 -1.70062088395 -1.40014972119 -0.445854903575 -1.70363220177 -1.47290984344 -0.496175869572
16.5868875215 -1.55306927916 -1.30340829474 3.29892587595 -1.20196343735 -1.70001286856 -1.40042091795 -0.445707643643 -1.70443032086 -1.47468361068 -0.495394471296
16.621473794 -1.55295075386 -1.30671763358 3.29906652793 -1.2022447413 -1.69940760804 -1.40068976834 -0.445558425694 -1.70522397011 -1.47645227899 -0.49461363438
16.6526067033 -1.55283209324 -1.31003430717 3.29920705635 -1.20252579813 -1.69880509923 -1.40095628342 -0.445407264054 -1.70601316551 -1.47821586452 -0.493833368234
16.682715962 -1.55271337842 -1.31335332243 3.29934487002 -1.20280142547 -1.69830013753 -1.40119811221 -0.445234925495 -1.70670908868 -1.47977563998 -0.493052765388
16.7106859031 -1.55259463277 -1.31667769504 3.29948247505 -1.20307663553 -1.69779737101 -1.40143784577 -0.445061032892 -1.70740104931 -1.48133077427 -0.49227303779
16.739263772 -1.55247586004 -1.32000739612 3.29961986826 -1.20335142196 -1.6972967962 -1.40167549612 -0.444885598219 -1.70808906539 -1.48288128542 -0.491494190554
16.7705687148 -1.55235706393 -1.32334239694 3.29975704656 -1.20362577856 -1.69679840959 -1.4019110748 -0.44470863329 -1.70877315459 -1.4844271916 -0.490716228884
16.8053704149 -1.55223824813 -1.32668266896 3.29989400683 -1.20389969911 -1.69630220761 -1.40214459401 -0.44453014996 -1.70945333512 -1.48596851063 -0.489939157738
16.8456231448 -1.55211941624 -1.33002818376 3.30003074609 -1.20417317763 -1.6958081866 -1.40237606504 -0.44435015985 -1.71012962445 -1.48750526072 -0.489162982306
16.8799628237 -1.55200092439 -1.3333679202 3.300164214 -1.20444011344 -1.69541974106 -1.40258192482 -0.444148621995 -1.71070647998 -1.48882209822 -0.488387431614
16.9110342536 -1.55188250652 -1.33671114546 3.30029739232 -1.20470647009 -1.69503287206 -1.40278600416 -0.443945944257 -1.71128000237 -1.49013488539 -0.487613030875
16.939757983 -1.55176416493 -1.34005784114 3.30043027948 -1.20497224441 -1.69464757672 -1.4029883142 -0.443742135836 -1.71185020911 -1.49144364062 -0.486839781619
16.9663112263 -1.5516459019 -1.34340798895 3.30056287391 -1.20523743326 -1.69426385213 -1.40318886626 -0.443537205897 -1.71241711781 -1.49274838209 -0.486067685289
16.9946685547 -1.55152771972 -1.34676157072 3.30069517405 -1.20550203353 -1.69388169535 -1.40338767186 -0.443331163575 -1.71298074623 -1.49404912778 -0.485296743239
17.0212760908 -1.55140962062 -1.35011856839 3.30082717838 -1.20576604221 -1.6935011034 -1.40358474216 -0.443124017891 -1.71354111182 -1.49534589576 -0.484526956889
17.0510364696 -1.55126870751 -1.35413149286 3.30098111906 -1.20607392356 -1.69317883121 -1.40378988258 -0.442849396202 -1.71408883382 -1.49662318916 -0.483604908859
17.079003459 -1.55112801757 -1.3581472734 3.30113456298 -1.2063808114 -1.69285789887 -1.40399293634 -0.442573659069 -1.71463273412 -1.49789560052 -0.482684800289
17.1056318994 -1.55098755276 -1.36216589257 3.30128750949 -1.20668670442 -1.69253830407 -1.40419392047 -0.442296818002 -1.71517283949 -1.49916315874 -0.481766628946
17.1309857351 -1.55084731502 -1.36618733307 3.30143995798 -1.2069916014 -1.69222004443 -1.40439285183 -0.442018884399 -1.71570917649 -1.50042589251 -0.480850392591
17.1579181094 -1.55070730629 -1.37021157775 3.30159190783 -1.2072955011 -1.69190311755 -1.40458974776 -0.441739869617 -1.71624177201 -1.50168383001 -0.479936088847
17.1860631073 -1.55056856045 -1.37421290515 3.3017388788 -1.20758944305 -1.69172508934 -1.40475598483 -0.441435134376 -1.71664772911 -1.50265433875 -0.479024572919
17.2159534536 -1.55043005236 -1.37821608938 3.30188532872 -1.20788234288 -1.69154834861 -1.40491993006 -0.441129442123 -1.71704965274 -1.50361947747 -0.478115127082
17.2480103973 -1.5502918473 -1.38222057864 3.30203124059 -1.20817416663 -1.69137201188 -1.40508227972 -0.440823078032 -1.71744878126 -1.50458077108 -0.477207778894
17.2830819977 -1.5501539455 -1.38622636904 3.30217661544 -1.20846491631 -1.69119608221 -1.40524304607 -0.440516048608 -1.71784513319 -1.50553824029 -0.47630252296
17.3220865336 -1.55001634744 -1.39023345307 3.30232145402 -1.20875459347 -1.69102056087 -1.40540224239 -0.440208361407 -1.71823872906 -1.50649190837 -0.475399354095
17.35891249 -1.54988020619 -1.39421318731 3.30246109097 -1.20903386738 -1.690987519 -1.40553125237 -0.439875127893 -1.71850454527 -1.50715253036 -0.474499258581
17.3924010745 -1.54974436587 -1.39819347943 3.30260019162 -1.20931206869 -1.69095446285 -1.40565850699 -0.439541399912 -1.71876765288 -1.50780954369 -0.47360137334
17.4233307635 -1.54960887595 -1.40217422735 3.30273874285 -1.20958917114 -1.69092090264 -1.40578472289 -0.439207340187 -1.71902904562 -1.50846370304 -0.472705610507
17.453654454 -1.54947373025 -1.40615542677 3.30287675182 -1.20986518909 -1.69088683962 -1.40590980965 -0.438872944952 -1.71928864908 -1.50911507137 -0.471811982432
17.4864869867 -1.54933892841 -1.41013707523 3.30301422003 -1.21014012551 -1.6908522792 -1.40603377618 -0.438538218819 -1.71954647614 -1.50976366515 -0.470920482828
17.5181782782 -1.54920569199 -1.41408902422 3.30314642211 -1.21040452966 -1.6909611393 -1.40612867847 -0.438178386969 -1.71967791559 -1.51011917812 -0.470032066717
17.5525899324 -1.54907279575 -1.41804129697 3.30327809315 -1.21066787174 -1.69106876725 -1.40622283767 -0.437818404035 -1.71980837447 -1.51047260748 -0.469145741994
17.5912017143 -1.54894023308 -1.42199385395 3.30340926472 -1.21093021488 -1.69117498883 -1.40631587649 -0.437458294574 -1.71993763333 -1.51082447774 -0.468261547323
17.6356624103 -1.54880804192 -1.42594670919 3.3035398996 -1.21119148463 -1.69127985681 -1.40640862624 -0.437098095555 -1.72006642142 -1.51117439501 -0.467379366708
17.6909421086 -1.5486761861 -1.42989984599 3.30367003505 -1.21145175553 -1.69138334055 -1.4065003265 -0.436737778547 -1.72019407316 -1.51152273938 -0.466499295559
17.7346150729 -1.54854588577 -1.43382369192 3.3037949956 -1.21170167663 -1.69162922297 -1.40656449906 -0.436352841691 -1.7201985447 -1.51158217931 -0.465621936982
17.7724828632 -1.54841589673 -1.43774862832 3.30391949353 -1.21195067249 -1.69187270307 -1.40662840256 -0.435967930119 -1.72020326216 -1.51164127164 -0.464746458849
17.8119211413 -1.54828623984 -1.44167436068 3.3040435227 -1.21219873084 -1.6921139688 -1.40669199832 -0.435583042558 -1.72020806021 -1.51169963117 -0.463872892635
17.8582569481 -1.54815691459 -1.44560088387 3.30416708433 -1.2124458541 -1.69235303166 -1.40675528648 -0.435198180543 -1.72021293623 -1.51175725946 -0.463001234813
17.9178698028 -1.54802792043 -1.44952819229 3.30429017959 -1.21269204463 -1.69258990351 -1.40681826713 -0.434813345571 -1.72021788733 -1.51181415721 -0.46213148195
18.0289822309 -1.54790035741 -1.45342902921 3.30440835043 -1.21292838629 -1.69296593115 -1.40685529609 -0.434404478005 -1.72010444146 -1.51159098259 -0.461263831028
18.0880584086 -1.54777304268 -1.45733263618 3.30452615433 -1.2131639941 -1.69333846346 -1.40689277264 -0.433995658108 -1.71999264856 -1.51136900947 -0.460397732434
18.1341863309 -1.5476460154 -1.46123814671 3.30464356043 -1.2133988063 -1.6937079988 -1.40693001912 -0.433586938738 -1.71988153674 -1.51114741311 -0.459533274864
18.1793878902 -1.54751927813 -1.4651455443 3.30476056347 -1.21363281238 -1.6940745527 -1.40696781044 -0.43317824102 -1.71977180647 -1.51092585676 -0.458670530264
18.2360967139 -1.54739282633 -1.46905482323 3.30487717232 -1.21386603008 -1.6944381326 -1.40700515283 -0.432769664347 -1.71966254649 -1.51070475675 -0.457809412685
18.3309105793 -1.54726761173 -1.4729425837 3.30498921759 -1.21409012062 -1.69493547903 -1.40701875308 -0.432337780911 -1.71944166842 -1.51021648169 -0.456949531107
18.3881233609 -1.54714255834 -1.47683556173 3.3051010098 -1.21431370503 -1.69542831574 -1.40703345148 -0.431905870249 -1.7192237381 -1.50973086296 -0.456090752024
18.4335097437 -1.5470177303 -1.48073205029 3.305212486 -1.21453665744 -1.6959174159 -1.4070484301 -0.43147400956 -1.7190074552 -1.5092464765 -0.455233337387
18.4814010397 -1.546893129 -1.48463203158 3.30532364467 -1.21475897477 -1.69640279241 -1.40706377509 -0.431042191866 -1.71879288943 -1.5087632702 -0.454377297845
18.5447750884 -1.54676875537 -1.48853548284 3.30543448501 -1.21498065546 -1.69688445851 -1.40707947889 -0.430610419408 -1.7185800244 -1.50828122943 -0.453522637494
18.6480031241 -1.54666592624 -1.49177594071 3.30552343672 -1.21515855888 -1.69739107459 -1.40707443541 -0.430231964539 -1.71831619501 -1.50767104181 -0.452810587293
18.7024348771 -1.54656313309 -1.4950221212 3.30561230321 -1.21533629186 -1.69789389427 -1.40707047482 -0.42985338122 -1.71805515783 -1.50706367426 -0.452098949919
18.7447741135 -1.54646044595 -1.49827212917 3.30570101197 -1.21551370939 -1.6983936305 -1.40706691132 -0.429474773834 -1.71779577534 -1.50645776465 -0.451388025767
18.7808761184 -1.54635786597 -1.50152594932 3.30578956155 -1.21569080855 -1.69889028998 -1.40706379922 -0.429096137416 -1.71753809063 -1.50585327642 -0.450677825532
18.8130144406 -1.54625539437 -1.50478356139 3.30587795073 -1.21586758689 -1.6993838794 -1.4070611324 -0.428717474159 -1.71728209128 -1.50525019705 -0.449968354426
18.8433252476 -1.54615303233 -1.50804494523 3.30596617827 -1.21604404199 -1.6998744056 -1.40705890588 -0.428338786074 -1.71702776589 -1.50464851368 -0.44925961778
18.8768432316 -1.54605111953 -1.51130241175 3.30605157328 -1.21621483201 -1.7004619036 -1.40704129403 -0.427942230255 -1.71669596566 -1.50385691312 -0.448549558165
18.9129375606 -1.54594925764 -1.5145652883 3.30613687386 -1.21638543316 -1.70104584986 -1.40702431433 -0.427545555513 -1.7163663399 -1.50306730217 -0.447839970387
18.9452351841 -1.54584744862 -1.51783354651 3.30622207791 -1.21655584126 -1.70162624923 -1.40700796061 -0.427148765046 -1.71603887506 -1.50227966392 -0.447130863119
18.9747710251 -1.54574569444 -1.52110715819 3.30630718334 -1.21672605212 -1.70220310668 -1.40699222453 -0.426751862379 -1.7157135556 -1.50149398255 -0.446422244562
19.0020855444 -1.54564399699 -1.52438609523 3.30639218811 -1.21689606167 -1.70277642735 -1.40697710146 -0.426354850443 -1.71539036945 -1.50071024079 -0.445714123491
19.0278586292 -1.54554235819 -1.52767032969 3.3064770902 -1.21706586583 -1.70334621646 -1.40696258279 -0.425957732777 -1.71506930088 -1.49992842327 -0.445006507886
19.0521606657 -1.54544091316 -1.53095762469 3.30655964247 -1.21723097039 -1.7040035223 -1.40693485472 -0.425543862856 -1.71467962385 -1.49897626098 -0.444296700904
19.0753326112 -1.54533946723 -1.53425194147 3.306642158 -1.21739600145 -1.70465683629 -1.40690790184 -0.425129776331 -1.71429251941 -1.49802655867 -0.443587136164
19.0976476109 -1.54523802313 -1.53755324347 3.30672463385 -1.21756095313 -1.70530616107 -1.40688171608 -0.424715477945 -1.71390797161 -1.49707929672 -0.442877825324
19.1191370247 -1.54513658356 -1.54086149424 3.3068070671 -1.21772581963 -1.70595149951 -1.40685628977 -0.424300972355 -1.71352596482 -1.49613445559 -0.442168780017
19.1398310782 -1.54503515118 -1.54417665752 3.30688945488 -1.2178905952 -1.70659285465 -1.40683161568 -0.423886264109 -1.71314648386 -1.49519201568 -0.441460011878
19.159958184 -1.54493372864 -1.54749869719 3.30697179434 -1.21805527413 -1.70723022975 -1.40680768543 -0.423471357937 -1.71276951252 -1.49425195806 -0.440751532187
19.1770889468 -1.54484675968 -1.55035445618 3.30704077428 -1.21819323401 -1.707842216 -1.40677777965 -0.423102555734 -1.71239587184 -1.49331886594 -0.440141776206
19.1939192258 -1.54475975647 -1.55321651743 3.30710976357 -1.21833121259 -1.7084509638 -1.40674852874 -0.422733523595 -1.71202437125 -1.49238786974 -0.439532049629
19.2104540499 -1.54467272118 -1.55608485278 3.30717875986 -1.21846920516 -1.70905647339 -1.40671992728 -0.422364265412 -1.71165500007 -1.49145895546 -0.438922361747
19.2266983693 -1.54458565598 -1.55895943414 3.30724776082 -1.21860720708 -1.70965874513 -1.40669196959 -0.421994785106 -1.71128774738 -1.49053210929 -0.438312721727
