liuchen18/hilsys_old/sim_sys/data/fwx_planned_trajectory_hou.txt
this is the FWX joint values,the following info is time,x,y,theta,joint1,joint2,joint3,joint4,joint5,joint6,joint7
0.0 0.599760229062 -2.49596411831 0.0193374591694 0.0379768819939 0.638822059986 -0.41426978628 -1.34217880076 -1.38976003956 -1.92122632998 1.20808978866
0.218839015824 0.599687121682 -2.49192937024 0.0201172320379 0.039536427731 0.638734411843 -0.414013574503 -1.34254539043 -1.38867633225 -1.91817024447 1.20802550697
0.388706408826 0.599615139432 -2.48789551977 0.0208971177526 0.0410961991603 0.638650525285 -0.413756065779 -1.34290618063 -1.38759010986 -1.91511232594 1.2079592354
0.53289083068 0.599543780584 -2.48386241019 0.0216771209201 0.0426562054954 0.638570531913 -0.413497332431 -1.34326192086 -1.3865016557 -1.91205260718 1.20789149268
0.660812646972 0.599474313318 -2.47983038913 0.0224572028518 0.0442163693587 0.638494075827 -0.413237202945 -1.34361070477 -1.38541026832 -1.9089911191 1.20782100297
0.777751677222 0.599405982879 -2.47579922928 0.0232373748798 0.0457767134148 0.638421358819 -0.412975790513 -1.34395365714 -1.38431638411 -1.90592789246 1.20774853996
0.885725764775 0.599338032218 -2.47176870948 0.0240176493547 0.0473372623646 0.63835258421 -0.412713199777 -1.34429191219 -1.38322042416 -1.90286295463 1.2076748788
0.987415928092 0.59927198807 -2.46773923226 0.0247979781767 0.0488979200085 0.638287319065 -0.412449226885 -1.34462317393 -1.38212154552 -1.89979634765 1.20759848699
1.08319306251 0.599207092078 -2.46371057935 0.0255783743918 0.0504587124387 0.638225768435 -0.412183984967 -1.34494857275 -1.38102018738 -1.89672809654 1.2075201389
1.17430787527 0.599142583685 -2.45968253867 0.0263588520148 0.0520196676848 0.638168140632 -0.411917577934 -1.34526925049 -1.37991677308 -1.89365822298 1.20744061236
1.26184576939 0.599079996246 -2.4556554938 0.0271393594969 0.0535806826489 0.63811399148 -0.411649804098 -1.34558289684 -1.37881045644 -1.89058678079 1.20735837115
1.34595153098 0.599018567913 -2.45162923562 0.0279199115626 0.0551417867804 0.638063531572 -0.411380775987 -1.34589065023 -1.37770167936 -1.88751378922 1.20727419256
1.42757191666 0.598957534754 -2.44760356136 0.028700523922 0.0567030114992 0.638016973313 -0.411110596889 -1.34619365889 -1.37659086736 -1.88443926436 1.20718885585
1.50677320048 0.598898436467 -2.44357883525 0.0294811415615 0.0582642467781 0.637973861974 -0.410839067425 -1.34648959925 -1.37547717144 -1.88136327158 1.20710082225
1.58363089295 0.59884050785 -2.43955485752 0.0302617808938 0.0598255254427 0.637934412811 -0.410566299429 -1.34677961672 -1.37436103578 -1.87828582454 1.20701087082
1.65821792118 0.59878298173 -2.43553143493 0.0310424593172 0.0613868822895 0.637898842493 -0.410292395329 -1.34706486612 -1.37324288774 -1.87520693378 1.20691978221
1.731318942 0.598727403856 -2.43150891194 0.0318231183569 0.0629482003689 0.637866686861 -0.410017158322 -1.34734301184 -1.37212187637 -1.87212667599 1.20682601665
1.80296694338 0.598673005817 -2.42748709837 0.0326037761244 0.064509515904 0.637838164653 -0.40974069951 -1.34761520503 -1.37099844763 -1.86904505933 1.20673035348
1.87319401491 0.598619017332 -2.42346581063 0.0333844516891 0.0660708670333 0.637813497787 -0.409463120088 -1.34788260802 -1.36987303047 -1.86596208889 1.20663357565
1.94202277787 0.59856698992 -2.41944537315 0.0341650831604 0.067632129976 0.637792210697 -0.409184226587 -1.34814287127 -1.3687447725 -1.86287785247 1.20653414052
2.00948410467 0.598516152092 -2.41542560546 0.0349456903195 0.0691933442942 0.637774527456 -0.408904128867 -1.34839715349 -1.36761412132 -1.85979235279 1.20643282952
2.07560801486 0.598465730597 -2.41140633382 0.0357262939033 0.0707545514617 0.637760675042 -0.408622926685 -1.34864662431 -1.36648150706 -1.85670558958 1.20633042753
2.13977445202 0.598417282437 -2.4073878623 0.036506828633 0.0723156209211 0.637750165979 -0.40834043045 -1.34888891979 -1.36534607662 -1.85361766156 1.20622538876
2.2032956281 0.598370033177 -2.40337002031 0.0372873159496 0.0738765955544 0.637743230015 -0.408056748492 -1.34912520656 -1.36420827887 -1.85052856606 1.20611849694
2.26618058911 0.598323206757 -2.39935264413 0.0380677782603 0.0754375201759 0.637740098398 -0.407771979033 -1.34935666063 -1.36306854469 -1.84743829761 1.20601053784
2.328431314 0.598278365331 -2.39533601711 0.038848146897 0.0769982574492 0.637740273839 -0.407485936477 -1.34958090599 -1.36192602122 -1.84434696548 1.20589996503
2.39005666251 0.59823473169 -2.39131997875 0.0396284449761 0.0785588536073 0.637743989809 -0.40719872771 -1.34979911507 -1.36078115805 -1.84125456183 1.20578756229
2.45106525008 0.598191527099 -2.38730437553 0.0404086965556 0.0801193567663 0.63775148288 -0.406910449017 -1.35001247132 -1.3596343865 -1.83816107603 1.20567411723
2.51145930408 0.598150318569 -2.38328946976 0.0411888296194 0.0816796228939 0.637762244526 -0.406620919496 -1.35021858527 -1.35848485462 -1.83506662769 1.20555808149
2.57124724123 0.598110326251 -2.37927511118 0.0419688689347 0.0832397015245 0.637776513421 -0.406330244111 -1.35041863665 -1.35733301245 -1.83197120388 1.20544024032
2.63043726298 0.598070768893 -2.37526115663 0.042748840207 0.0847996440691 0.637794531039 -0.406038517046 -1.35061381583 -1.35617929135 -1.82887478891 1.20532138259
2.68903182855 0.598033218047 -2.3712478471 0.0435286680993 0.0863592998538 0.637815777554 -0.405745562569 -1.35080171995 -1.35502284102 -1.82577751251 1.20519995814
2.74703894893 0.597996891374 -2.36723504273 0.0443083790217 0.0879187216986 0.637840496803 -0.405451483493 -1.35098353595 -1.35386411155 -1.82267935671 1.20507675347
2.80446640743 0.597961005266 -2.36322261085 0.045088000315 0.0894779642851 0.63786893549 -0.40515637161 -1.35116046137 -1.35270353402 -1.81958030092 1.20495255899
2.86131689095 0.597927135485 -2.35921077086 0.0458674533523 0.0910368703598 0.637900562156 -0.404860056886 -1.35133007977 -1.3515402605 -1.81648048467 1.20482582248
2.91759800892 0.597894497369 -2.35519939346 0.046646766176 0.0925954960072 0.637935625966 -0.404562639715 -1.35149358536 -1.35037474079 -1.8133798851 1.20469733182
2.97331715548 0.597862305103 -2.3511883566 0.0474259677546 0.0941538991643 0.637974378668 -0.404264209294 -1.35165218264 -1.34920740523 -1.81027847684 1.20456787856
3.02847722453 0.597832138336 -2.34717785784 0.0482049761959 0.0957119160469 0.638016277656 -0.403964601667 -1.35180344219 -1.34803740911 -1.80717640893 1.20443590916
3.08308544461 0.597803210237 -2.34316777857 0.0489838211688 0.0972696059928 0.638061576959 -0.403663914656 -1.35194856498 -1.34686520146 -1.80407365374 1.20430221218
3.13714883312 0.59777473295 -2.33915800752 0.0497625332533 0.0988270301618 0.638110534098 -0.40336223449 -1.35208876314 -1.34569121162 -1.80097018121 1.20416758109
3.19067048682 0.59774828968 -2.33514872015 0.0505410273342 0.100384018324 0.638162593931 -0.40305940402 -1.35222159294 -1.3445145987 -1.79786614967 1.20403045954
3.24313262941 0.597723091584 -2.33113980865 0.0513193346856 0.101940633026 0.638218016656 -0.402755518014 -1.3523482634 -1.34333581074 -1.7947615268 1.20389163817
3.29559116601 0.597698348932 -2.32713117271 0.0520974874942 0.103496938644 0.638277064888 -0.402450659621 -1.35246999353 -1.34215527555 -1.79165627798 1.20375191146
3.34804409698 0.597675648142 -2.3231229654 0.0528753974459 0.105052758547 0.638339171705 -0.402144678828 -1.35258432621 -1.34097215696 -1.78855057051 1.20360972125
3.40049268088 0.597654198528 -2.31911508989 0.0536530974148 0.106608158485 0.638404602908 -0.401837667209 -1.35269247787 -1.33978690151 -1.78544436754 1.20346585948
3.4529380935 0.597633208655 -2.31510745694 0.0544306211834 0.108163206022 0.638473626178 -0.401529704608 -1.35279567424 -1.33859993517 -1.78233763001 1.20332112156
3.505378625 0.597614267803 -2.31110019698 0.0552078772673 0.10971771819 0.638545663241 -0.401220648525 -1.35289144546 -1.33741042721 -1.77923053389 1.20317394803
3.55781539732 0.597596583618 -2.30709322433 0.0559849001331 0.111271763921 0.638620984993 -0.400910587203 -1.35298101472 -1.33621882229 -1.77612303793 1.20302513153
3.61024943306 0.597579363125 -2.3030864609 0.0567617251432 0.112825413942 0.63869986484 -0.400599596816 -1.35306561513 -1.33502554418 -1.77301509876 1.20287546903
3.66267932046 0.597564198123 -2.29908001431 0.0575382576824 0.11437847902 0.638781712247 -0.400287543021 -1.35314276323 -1.33382976828 -1.76990690072 1.20272339882
3.71510603658 0.597550294756 -2.29507381008 0.0583145337917 0.115931031239 0.638866804085 -0.399974510313 -1.35321368986 -1.33263193704 -1.76679839828 1.20256971514
3.76753045083 0.597536858685 -2.29106778147 0.0590905904072 0.11748314447 0.638955418702 -0.399660571124 -1.35327963458 -1.33143247159 -1.7636895439 1.2024152156
3.81995146609 0.597525483867 -2.28706201303 0.0598663298069 0.119034623269 0.639046954641 -0.399345599443 -1.35333810194 -1.3302305543 -1.76058052997 1.20225833773
3.87236989796 0.597515375125 -2.28305644163 0.0606417896022 0.12058554286 0.639141693631 -0.399029676012 -1.35339032914 -1.32902662494 -1.75747130684 1.20209987608
3.92584005348 0.597505736926 -2.27905101196 0.0614170082876 0.12213598023 0.639239919434 -0.398712869199 -1.35343756261 -1.32782110165 -1.7543618229 1.20194062936
3.97984216914 0.597498165036 -2.27504578532 0.0621918850728 0.123685733801 0.639341019062 -0.398395061893 -1.35347729443 -1.32661317447 -1.75125227833 1.20177903372
4.03438224387 0.597491863123 -2.27104071005 0.0629664591233 0.125234881902 0.639445279688 -0.398076330733 -1.3535107687 -1.32540328013 -1.74814261944 1.20161588459
4.0894662435 0.597486034641 -2.26703574236 0.063740770478 0.126783504611 0.639552990721 -0.39775673974 -1.35353923887 -1.32419183344 -1.74503279072 1.201451982
4.14509906158 0.597482276804 -2.26303092014 0.0645147153178 0.128331394291 0.639663526906 -0.397436181308 -1.35356018394 -1.32297803277 -1.74192299981 1.20128575986
4.20128672603 0.597479792302 -2.2590262033 0.0652883343459 0.129878632347 0.639777181466 -0.397114727606 -1.3535748555 -1.32176231146 -1.73881318914 1.20111801515
4.25803523166 0.59747778376 -2.25502155965 0.0660616691374 0.13142530193 0.639894248749 -0.396792438246 -1.35358451313 -1.32054508061 -1.73570329941 1.2009495484
4.31534997295 0.597477849465 -2.25101700352 0.0668346128702 0.132971189396 0.640014092786 -0.396469215205 -1.35358662462 -1.31932554766 -1.73259354542 1.20077879297
4.37323700268 0.59747919132 -2.24701250648 0.0676072077804 0.134516379216 0.640137011457 -0.396145126271 -1.35358244743 -1.31810414215 -1.72948386585 1.20060654581
4.41708600811 0.597480556298 -2.24400916265 0.0681864246661 0.135674812987 0.640231731641 -0.395901451219 -1.35357554808 -1.31718698888 -1.72715161478 1.20047684321
4.46093474443 0.597483089622 -2.24100583701 0.0687654086065 0.136832780868 0.640327986361 -0.395657270097 -1.3535643925 -1.31626857011 -1.72481949182 1.20034586871
4.50478332343 0.597486341934 -2.23800252244 0.0693441851814 0.137990334018 0.64042594931 -0.395412616117 -1.35354969388 -1.31534912166 -1.72248745655 1.20021407134
4.54863183619 0.597490313555 -2.23499921232 0.0699227510897 0.139147465835 0.640525613485 -0.395167492848 -1.35353145018 -1.31442864908 -1.72015552246 1.20008145532
4.59248031583 0.597494467227 -2.2319959042 0.0705011378564 0.140304239368 0.640627293564 -0.394921906284 -1.35351063148 -1.31350742224 -1.71782363349 1.199948676
4.63632899833 0.597499791568 -2.2289925824 0.071079278962 0.141460521579 0.64073026943 -0.394675885625 -1.35348531814 -1.31258495763 -1.71549193328 1.1998144046
4.68017791267 0.597505835356 -2.2259892449 0.0716571994296 0.142616362514 0.640835033522 -0.394429383074 -1.3534565686 -1.31166149311 -1.71316036985 1.1996794468
4.72402714166 0.597512599407 -2.22298588555 0.0722348963916 0.143771756438 0.640941473578 -0.394182427946 -1.3534242675 -1.31073703218 -1.71082896005 1.19954368858
4.76787662733 0.597519633731 -2.21998250872 0.0728123965053 0.144926756666 0.641049872816 -0.393935018499 -1.35338924923 -1.3098117999 -1.70849765718 1.19940769984
4.81172680025 0.597527839454 -2.21697908474 0.0733896372207 0.146081238097 0.641159538934 -0.39368719712 -1.35334972563 -1.30888536395 -1.70616659682 1.1992702352
4.85557759004 0.597536765349 -2.21397561881 0.0739666445323 0.14723525272 0.641270967984 -0.39343891053 -1.3533067601 -1.3079579566 -1.70383572568 1.19913210287
4.8994290795 0.597546412122 -2.21097210459 0.0745434155403 0.148388794736 0.641384047424 -0.393190188968 -1.35326023697 -1.30702958247 -1.70150506036 1.19899318815
4.94328111131 0.597556329796 -2.20796855334 0.0751199777732 0.149541919202 0.641499063674 -0.392941026779 -1.35321099454 -1.30610046271 -1.69917455256 1.19885406213
4.98713432303 0.597567419172 -2.20496492133 0.0756962669459 0.150694497547 0.641615317773 -0.392691475363 -1.35315723705 -1.3051701746 -1.6968443406 1.19871347659
5.03098853251 0.597579229133 -2.20196122102 0.0762723100003 0.151846583656 0.641733309034 -0.39244147571 -1.35310003257 -1.30423894424 -1.69451437004 1.19857224206
5.07484383496 0.59759176027 -2.19895744589 0.0768481040106 0.152998171676 0.641852924853 -0.392191059001 -1.35303926529 -1.30330677752 -1.69218465719 1.19843024334
5.11869996129 0.597604562728 -2.19595361413 0.0774236773648 0.154149318385 0.641974454757 -0.391940215508 -1.3529757773 -1.30237389137 -1.68985515227 1.19828805269
5.1625577602 0.597618536764 -2.19294966787 0.0779989640672 0.155299891789 0.64209719321 -0.391689005963 -1.35290776538 -1.30143987317 -1.68752599608 1.19814441895
5.20641694188 0.597633231483 -2.18994562691 0.0785739919974 0.15644994765 0.642221642914 -0.391437365394 -1.35283630239 -1.30050494261 -1.6851971332 1.1980001552
5.25027760571 0.597648647357 -2.1869414845 0.0791487582068 0.157599480069 0.6423476909 -0.391185326029 -1.35276127207 -1.29956910682 -1.6828685796 1.1978551454
5.29413938321 0.597664334761 -2.18393726582 0.0797232919335 0.158748547522 0.642475629973 -0.390932873889 -1.35268352037 -1.29863257835 -1.6805402841 1.19770996315
5.33800332597 0.597681193192 -2.18093289883 0.0802975254918 0.159897014639 0.642604748243 -0.39068007926 -1.352601237 -1.2976949551 -1.67821238981 1.19756335451
5.38186903652 0.597698772088 -2.17792841066 0.0808714876921 0.161044939039 0.642735551092 -0.390426871217 -1.35251549879 -1.29675645004 -1.6758848404 1.19741613441
5.42573661839 0.5977170718 -2.17492379436 0.0814451755614 0.162192314778 0.642867926091 -0.390173282808 -1.35242618996 -1.29581707161 -1.67355765152 1.1972681869
5.46960559959 0.59773564304 -2.17191908213 0.0820186191819 0.163339202019 0.643002168797 -0.389919295814 -1.35233415976 -1.29487702775 -1.67123077066 1.19712008644
5.51347724285 0.597755384328 -2.16891418769 0.0825917491985 0.164485462052 0.643137560823 -0.3896649904 -1.35223759072 -1.2939359273 -1.66890434304 1.19697057593
5.55735104308 0.597775845544 -2.16590914556 0.0831645953405 0.165631154336 0.64327461131 -0.389410289189 -1.35213756481 -1.29299397622 -1.66657831154 1.19682047353
5.60122710378 0.59779702692 -2.1629039486 0.0837371546161 0.166776272887 0.643413207093 -0.389155226437 -1.35203396536 -1.29205118431 -1.66425269147 1.19666966189
5.64510484949 0.597818479611 -2.159898636 0.0843094579416 0.167920879538 0.643553646927 -0.388899779441 -1.35192764525 -1.29110775471 -1.66192742906 1.19651871683
5.68898575405 0.597841100942 -2.15689310728 0.0848814343125 0.16906483228 0.643695206294 -0.388644038394 -1.35181678043 -1.29016330756 -1.65960267147 1.19636637841
5.73286920062 0.59786444135 -2.15388740431 0.0854531143704 0.170208192396 0.643838397182 -0.38838791956 -1.35170245693 -1.2892180416 -1.65727836088 1.19621346704
5.77675530096 0.597888500941 -2.1508815198 0.0860244951038 0.171350953863 0.643983106651 -0.388131458143 -1.3515845582 -1.28827196797 -1.65495451224 1.19605986507
5.82064337197 0.597912831424 -2.14787549996 0.0865956082561 0.172493180167 0.644129636211 -0.387874626964 -1.35146394028 -1.28732528484 -1.65263107064 1.19590614922
5.86453509865 0.597938328711 -2.14486923004 0.0871663811932 0.173634726041 0.644277255328 -0.387617526468 -1.35133877273 -1.28637762404 -1.65030818494 1.19575105664
5.90842975649 0.597964543907 -2.14186275935 0.0877368454606 0.174775654576 0.644426478842 -0.387360066383 -1.35121014559 -1.28542917682 -1.64798579676 1.19559541016
5.95232745313 0.597991476994 -2.13885608038 0.0883069980287 0.175915959712 0.644577193975 -0.387102282902 -1.3510779424 -1.2844799557 -1.64566392066 1.19543909166
5.99622741024 0.598018680337 -2.13584924639 0.0888768714597 0.177055706574 0.644729705035 -0.386844144246 -1.35094302227 -1.2835301537 -1.64334250067 1.19528267891
6.04013151983 0.598047048223 -2.13284212839 0.08944639151 0.178194746675 0.644883275409 -0.386585761371 -1.35080354847 -1.28257941468 -1.64102168718 1.1951249059
6.08403894561 0.598076132535 -2.12983478308 0.0900155906201 0.179333144895 0.645038423294 -0.386327037146 -1.35066061557 -1.28162792214 -1.63870142132 1.19496659858
6.12794980349 0.598105933128 -2.1268272028 0.0905844657446 0.180470895144 0.645195035296 -0.386068009016 -1.35051410629 -1.28067569003 -1.63638171728 1.19480763744
6.17186320752 0.598136003132 -2.12381944784 0.0911530502562 0.181608064167 0.645353418872 -0.385808640385 -1.35036488316 -1.2797229061 -1.63406251808 1.1946486017
6.21578125668 0.598167234992 -2.12081137494 0.091721268321 0.182744500297 0.645512831627 -0.385549052857 -1.3502111036 -1.27876922648 -1.63174397547 1.19448822243
6.2597030112 0.598199181483 -2.11780304825 0.0922891532671 0.183880270189 0.645673794469 -0.385289142479 -1.35005386596 -1.27781482677 -1.62942603022 1.19432732804
6.30362858285 0.598231842329 -2.11479445992 0.0928567020343 0.185015367724 0.64583619376 -0.385028947867 -1.34989305251 -1.27685972237 -1.62710869609 1.19416579801
6.34755699457 0.598264771532 -2.11178567729 0.0934239487977 0.186149861251 0.646000340177 -0.384768427473 -1.34972952922 -1.27590409553 -1.62479191521 1.19400421316
6.39149054411 0.598298859481 -2.10877654285 0.0939908161524 0.18728359596 0.646165485782 -0.384507713679 -1.34956144806 -1.274947615 -1.62247584048 1.19384130178
6.43542817989 0.598333659954 -2.10576712819 0.0945573383068 0.188416640269 0.646332153279 -0.384246695877 -1.34938991008 -1.27399044832 -1.62016041241 1.19367789375
6.47937002611 0.598369172542 -2.10275742528 0.0951235121863 0.189548988028 0.646500229902 -0.383985413495 -1.34921479837 -1.27303261226 -1.61784564433 1.19351386882
6.52331499807 0.598404952226 -2.0997475085 0.095689372761 0.190680709177 0.646670028847 -0.383723820168 -1.34903698142 -1.27207428352 -1.61553147753 1.19334980867
6.56726559636 0.598441887127 -2.09673720611 0.0962548410744 0.191811645804 0.64684079645 -0.383462059324 -1.34885460575 -1.27111514374 -1.61321806592 1.19318443837
6.61122067006 0.598479532135 -2.09372659715 0.0968199522066 0.192941868068 0.647013058499 -0.383200013121 -1.34866877645 -1.27015535209 -1.61090534983 1.19301859096
6.65518034337 0.598517886706 -2.09071567339 0.0973847030703 0.194071369796 0.647186701746 -0.382937722276 -1.34847937589 -1.26919492685 -1.60859334215 1.19285214482
6.69914342394 0.598556506907 -2.08770451626 0.0979491294232 0.195200222502 0.647362042331 -0.382675135373 -1.34828727552 -1.26823403899 -1.6062819834 1.192685683
6.74311262351 0.598596278377 -2.08469293984 0.0985131507754 0.196328265206 0.647538321185 -0.382412406965 -1.34809061688 -1.26727238328 -1.60397142835 1.19251792761
6.78708668352 0.598636757229 -2.08168103055 0.0990768030716 0.197455569798 0.647716066326 -0.382149412137 -1.34789050809 -1.26631011042 -1.6016616172 1.19234971396
6.83106572401 0.598677942786 -2.07866878003 0.0996400832128 0.198582130081 0.647895165103 -0.381886192534 -1.34768683203 -1.26534724011 -1.59935256243 1.19218092027
6.87504845743 0.598719392301 -2.07565627672 0.100203027736 0.199708019128 0.648075935912 -0.381622691853 -1.3474804622 -1.26438393756 -1.59704420385 1.1920121302
6.91903780253 0.598761988725 -2.07264332054 0.100765554638 0.20083307293 0.648257614562 -0.381359075839 -1.34726953568 -1.26341991084 -1.5947366969 1.19184206313
6.96303238894 0.598805289502 -2.06963000533 0.101327700719 0.201957365092 0.648440731328 -0.381095212373 -1.34705516357 -1.26245530203 -1.59242998178 1.19167155672
7.00703234086 0.598849293818 -2.06661632255 0.10188946287 0.203080889395 0.648625173781 -0.380831144176 -1.3468372288 -1.26149013228 -1.59012407052 1.19150048859
7.05103626724 0.598893560219 -2.06360236765 0.1024508784 0.204203720456 0.648811262918 -0.380566809859 -1.34661660724 -1.26052456091 -1.58781890229 1.19132944346
7.09504729382 0.59893896876 -2.06058792644 0.103011863809 0.205325691274 0.648998229409 -0.380302386524 -1.34639143166 -1.25955830949 -1.58551463305 1.19115713778
7.13906394259 0.598985078322 -2.05757310016 0.103572456749 0.206446877152 0.649186605685 -0.380037734771 -1.34616281594 -1.25859151136 -1.58321120311 1.1909844116
7.18308634191 0.599031887957 -2.05455788011 0.104132654099 0.207567271853 0.649376279739 -0.379772898331 -1.3459306433 -1.2576241891 -1.58090862399 1.19081114213
7.22711299306 0.599078957603 -2.05154236872 0.104692493935 0.208686951524 0.649567574875 -0.379507810778 -1.34569579151 -1.25665649607 -1.57860683432 1.19063791481
7.2711472288 0.599127164215 -2.04852633775 0.105251891276 0.209805746207 0.649759716823 -0.379242660634 -1.34545638949 -1.25568816752 -1.57630599044 1.19046344332
7.31518746762 0.599176068221 -2.04550989581 0.105810884618 0.21092373289 0.6499532403 -0.378977301059 -1.34521355393 -1.25471932784 -1.5740060328 1.19028857031
7.35923383373 0.599225668531 -2.04249303404 0.106369470832 0.212040905318 0.650148033064 -0.378711777068 -1.34496716756 -1.25375000121 -1.57170697244 1.19011317176
7.4032847332 0.599275526583 -2.03947586182 0.106927688749 0.213157341154 0.650344421471 -0.378446016842 -1.34471811086 -1.25278033479 -1.56940874752 1.18993783479
7.44734370165 0.599326516028 -2.03645813694 0.10748545193 0.214272867516 0.65054162623 -0.378180220485 -1.34446450893 -1.2518100777 -1.56711151458 1.18976127006
7.49140904578 0.599378198943 -2.03343997535 0.108042799706 0.215387563067 0.650740183699 -0.377914233876 -1.34420748048 -1.25083934538 -1.56481521431 1.18958432217
7.53548089808 0.599430574102 -2.03042136804 0.10859972894 0.216501421535 0.650939982542 -0.377648102868 -1.34394690907 -1.24986816337 -1.56251985727 1.18940686721
7.57955755699 0.59948320454 -2.02740243131 0.109156279213 0.217614522081 0.651141351134 -0.377381750609 -1.34368367654 -1.2488966728 -1.56022538119 1.18922949276
7.62364276926 0.5995369604 -2.02438290902 0.109712362642 0.218726688939 0.651343505392 -0.377115388804 -1.34341590469 -1.24792463671 -1.55793194268 1.18905090661
7.66773472568 0.599591405521 -2.02136292448 0.110268019388 0.219838002431 0.651546984219 -0.376848855591 -1.34314471515 -1.24695216131 -1.55563948276 1.18887195654
7.71183357116 0.599646538533 -2.0183424685 0.110823246306 0.220948456268 0.651751675614 -0.376582198324 -1.34286999052 -1.24597927384 -1.55334801147 1.18869251677
7.75593749649 0.599701924168 -2.01532166427 0.111378083722 0.222058131098 0.651957910974 -0.376315334655 -1.34259261506 -1.24500610911 -1.55105746619 1.18851317658
7.80005044714 0.59975842887 -2.01230024183 0.111932442323 0.223166848302 0.652164901433 -0.376048487985 -1.34231070744 -1.24403244419 -1.54876800346 1.18833264085
7.84417052283 0.599815618334 -2.00927833177 0.112486363096 0.224274689847 0.652373187637 -0.375781488961 -1.34202539124 -1.24305837616 -1.54647956469 1.18815175959
7.88829784777 0.599873491052 -2.00625592475 0.113039842889 0.225381649433 0.652582658079 -0.375514385968 -1.34173654939 -1.24208393371 -1.54419215941 1.18797040657
7.93243053407 0.599931613551 -2.00323315081 0.113592922762 0.226487809178 0.652793646488 -0.37524709141 -1.34144506764 -1.24110924541 -1.54190572469 1.18778917195
7.97657271767 0.599990848378 -2.00020972627 0.114145511995 0.227592987644 0.653005359548 -0.374979840321 -1.34114906219 -1.24013410242 -1.5396204169 1.18760675803
8.0207223865 0.60005076319 -1.99718578893 0.114697652388 0.228697268432 0.653218339296 -0.374712455942 -1.34084965802 -1.23915859262 -1.53733617787 1.18742401668
8.06487968131 0.600111356336 -1.99416132933 0.115249340787 0.229800645228 0.653432474882 -0.374444987625 -1.34054673856 -1.23818274614 -1.53505301664 1.18724082139
8.1090426066 0.600172196238 -1.99113648431 0.115800618977 0.230903201609 0.65364810234 -0.374177342508 -1.34024119096 -1.23720668531 -1.53277087002 1.18705776319
8.153215497 0.600234141353 -1.98811095656 0.116351394848 0.23200475335 0.653864423762 -0.373909767384 -1.33993112896 -1.23623021542 -1.53048989407 1.18687354153
8.19739623696 0.600296761401 -1.98508489108 0.11690171101 0.233105385675 0.654081983129 -0.373642077785 -1.33961767946 -1.235253415 -1.52821003113 1.18668901094
8.24158497136 0.600360054588 -1.98205827825 0.117451564301 0.234205092257 0.654300669651 -0.373374324303 -1.33930072573 -1.23427631576 -1.52593128972 1.18650404384
8.28577959707 0.600423591325 -1.97903126168 0.118000997231 0.235303958116 0.654520821901 -0.373106408679 -1.33898115644 -1.23329903369 -1.52365360645 1.18631923243
8.32998465987 0.600488225792 -1.97600353053 0.11854991631 0.236401796275 0.654741637576 -0.372838589425 -1.33865708333 -1.2323213882 -1.52137713695 1.1861332735
8.37419792826 0.600553529869 -1.97297523695 0.119098364955 0.237498693565 0.654963662057 -0.372570674558 -1.3383296345 -1.23134344857 -1.51910182414 1.18594702362
8.41841955542 0.600619501622 -1.9699463712 0.119646339999 0.238594643653 0.655186785235 -0.372302715637 -1.33799869376 -1.23036524792 -1.51682767602 1.1857603549
8.46264733885 0.600685713541 -1.96691708358 0.120193884664 0.239689732983 0.655411347774 -0.372034609197 -1.33766515063 -1.22938689598 -1.51455462902 1.18557386012
8.50688601891 0.600753015347 -1.96388704984 0.120740904103 0.240783771862 0.655636543196 -0.371766625392 -1.33732711539 -1.22840822628 -1.51228283826 1.18538623371
8.55113326475 0.600820981177 -1.96085642922 0.121287442529 0.241876848713 0.655862918294 -0.371498564685 -1.33698571721 -1.22742929877 -1.51001224728 1.18519833429
8.59538922541 0.600889608952 -1.95782521185 0.12183349677 0.242968957196 0.656090363288 -0.371230479771 -1.33664084001 -1.22645014807 -1.50774286352 1.18501003321
8.63965160316 0.600958473341 -1.95479355468 0.122379110758 0.244060185171 0.656319221377 -0.370962261761 -1.33629337459 -1.22547087759 -1.50547462336 1.18482192442
8.68392533295 0.601028419419 -1.9517611202 0.1229241883 0.245150340256 0.656548681748 -0.37069419254 -1.33594142979 -1.22449133494 -1.50320768123 1.18463269969
8.72820798456 0.601099023676 -1.94872807465 0.123468774402 0.246239512459 0.65677929266 -0.370426064961 -1.33558613579 -1.22351157073 -1.50094198137 1.18444321989
8.7724997029 0.601170283891 -1.94569440804 0.124012865888 0.24732769543 0.657010944679 -0.370157932853 -1.33522737665 -1.2225316211 -1.49867753069 1.18425335555
8.81679810329 0.601241776998 -1.94266028393 0.124556507389 0.248414978433 0.657243983356 -0.369889681992 -1.33486604411 -1.22155158314 -1.49641426549 1.18406370155
8.86110829871 0.601314343251 -1.93962535162 0.125099601385 0.249501166425 0.657477593646 -0.369621605939 -1.33450024592 -1.22057131852 -1.49415233948 1.18387294717
8.90542776785 0.601387561588 -1.93658978437 0.125642193669 0.250586350993 0.65771232534 -0.369353489881 -1.33413111324 -1.21959086848 -1.49189169762 1.1836819556
8.94975665149 0.601461429644 -1.93355357203 0.126184281059 0.251670525773 0.657948069229 -0.369085388853 -1.33375853011 -1.21861027068 -1.48963234626 1.1834905964
8.99409247386 0.601535526705 -1.93051688469 0.126725908883 0.25275378142 0.658185173306 -0.368817183255 -1.33338338918 -1.21762961592 -1.48737422171 1.18329946547
9.03844053838 0.601610688034 -1.92747935867 0.127266978306 0.253835920267 0.658422818406 -0.368549178246 -1.33300379751 -1.21664877983 -1.48511747684 1.18310724975
9.08279822025 0.601686495105 -1.92444117408 0.127807535901 0.254917035457 0.658661555416 -0.36828115156 -1.33262088659 -1.21566779438 -1.48286205736 1.18291481421
9.12716566852 0.601762945411 -1.92140232069 0.128347578485 0.255997120625 0.658901275894 -0.368013159165 -1.33223454108 -1.21468669865 -1.48060796909 1.18272202814
9.17154029979 0.601839620678 -1.91836297505 0.12888715207 0.257076267795 0.659142329961 -0.367745076259 -1.33184565401 -1.21370557722 -1.47835514839 1.182529488
9.2159276162 0.601917351005 -1.91532276059 0.129426156526 0.258154276707 0.659383894272 -0.367477219598 -1.33145233198 -1.21272431961 -1.47610374716 1.18233587836
9.26032488945 0.601995720493 -1.91228186427 0.1299646392 0.259231242055 0.659626521147 -0.367209359284 -1.33105570702 -1.21174294849 -1.47385371194 1.18214206644
9.30473226857 0.602074726497 -1.90924027575 0.130502596907 0.260307157469 0.659870102771 -0.366941552288 -1.33065566429 -1.21076150431 -1.47160504802 1.18194792105
9.34914708324 0.602153953262 -1.90619817796 0.131040076337 0.26138211633 0.660114991192 -0.366673668748 -1.33025309681 -1.20978006563 -1.46935769181 1.18175403889
9.39357501361 0.602234225562 -1.90315518162 0.13157697608 0.262455915816 0.660360359282 -0.36640603674 -1.32984611142 -1.20879853559 -1.46711179421 1.18155910276
9.43801324031 0.60231513021 -1.90011148044 0.13211334425 0.263528652156 0.660606760298 -0.366138419013 -1.32943584003 -1.20781692772 -1.46486730259 1.18136398147
9.48246190823 0.602396664418 -1.89706706397 0.13264917766 0.264600318975 0.660854087012 -0.365870873569 -1.32902216818 -1.20683528392 -1.4626242217 1.18116854325
9.52691825181 0.602478415042 -1.89402212148 0.133184523675 0.265671011005 0.661102693916 -0.365603265236 -1.32860598939 -1.20585367655 -1.46038248806 1.18097338571
9.57138814581 0.602561201364 -1.89097625109 0.133719279616 0.266740522887 0.661351749739 -0.365335933532 -1.3281854106 -1.20487202236 -1.45814225147 1.18077718948
9.61586866319 0.602644612999 -1.88792965324 0.134253494361 0.267808952378 0.661601808998 -0.365068633699 -1.32776156379 -1.20389032571 -1.4559034602 1.18058082537
9.660359953 0.602728647013 -1.88488231735 0.13478716472 0.268876293096 0.661852764805 -0.364801424903 -1.32733433464 -1.20290863001 -1.45366611842 1.18038416069
9.70485916688 0.602812892955 -1.88183443892 0.135320338726 0.269942641107 0.662104974074 -0.364534166719 -1.32690461697 -1.2019270015 -1.45143016283 1.18018779389
9.74937234518 0.602898164457 -1.8787856037 0.135852912446 0.271007788547 0.662357601419 -0.364267209999 -1.32647051812 -1.20094537038 -1.44919574203 1.17999040352
9.79389647393 0.602984054019 -1.87573601871 0.136384935518 0.272071834692 0.662611202659 -0.36400030248 -1.32603317009 -1.19996373188 -1.44696280522 1.17979286247
9.83843170217 0.603070558563 -1.87268567328 0.136916404747 0.27313477315 0.662865671202 -0.36373350453 -1.32559245857 -1.19898213091 -1.44473135602 1.17959503704
9.88297509047 0.603157270407 -1.86963476908 0.137447368828 0.274196701312 0.663121366459 -0.363466670468 -1.32514927768 -1.19800062766 -1.4425013313 1.17939752654
9.92753286546 0.603244997385 -1.86658287962 0.137977722592 0.275257408838 0.663377449037 -0.363200162308 -1.32470173558 -1.19701916556 -1.44027287843 1.17919900776
9.97210190555 0.603333334955 -1.86353021843 0.138507516424 0.276316996504 0.663634475493 -0.362933720655 -1.32425096339 -1.19603773098 -1.43804594752 1.1790003548
10.0166823722 0.603422279906 -1.86047677477 0.139036747132 0.27737545792 0.663892340333 -0.362667406607 -1.32379684788 -1.19505637005 -1.43582054169 1.17880143409
10.0612712266 0.603511427394 -1.85742275638 0.139565464062 0.27843289178 0.664151404924 -0.362401069606 -1.32334028259 -1.19407513718 -1.43359659799 1.17860284494
10.1058748776 0.603601579307 -1.85436772469 0.140093560822 0.279489085298 0.664410825823 -0.362135082723 -1.32287937674 -1.19309398884 -1.43137426248 1.17840326247
10.1504901083 0.603692334147 -1.8513118997 0.140621088546 0.280544140746 0.6646711609 -0.361869179145 -1.32241526117 -1.19211290242 -1.42915348626 1.17820356278
10.1951170802 0.60378368856 -1.84825527056 0.141148044036 0.281598051728 0.664932305033 -0.361603421124 -1.32194782277 -1.19113192553 -1.42693427187 1.17800361135
10.2397526717 0.603875240621 -1.84519805102 0.141674477288 0.282650918231 0.665194622002 -0.361337653029 -1.32147795496 -1.19015110675 -1.42471655664 1.17780400809
10.2844034614 0.603967786131 -1.84213979062 0.142200280701 0.283702525056 0.665457264385 -0.361072258791 -1.32100376839 -1.18917041529 -1.42250048523 1.17760342671
10.3290661455 0.604060926704 -1.8390807157 0.142725506148 0.284752975952 0.665720790905 -0.36080696452 -1.32052639289 -1.18818981987 -1.42028600973 1.17740274458
10.3737408771 0.604154658848 -1.83602081532 0.143250150431 0.285802264517 0.665985097005 -0.360541833512 -1.32004571573 -1.1872093695 -1.41807313214 1.17720182653
10.418424456 0.60424858363 -1.83296030916 0.143774264186 0.286850492026 0.666250549071 -0.360276705011 -1.31956263025 -1.18622910695 -1.41586179006 1.17700127319
10.4631236222 0.604343490618 -1.82989873504 0.144297738615 0.287897440885 0.666516295273 -0.360011973915 -1.31907524833 -1.18524901412 -1.4136521267 1.17679975646
10.5078349892 0.604438984627 -1.82683632559 0.144820626333 0.288943216322 0.666782895842 -0.359747358914 -1.31858469943 -1.18426905088 -1.41144409522 1.1765981559
10.5525587143 0.604535062019 -1.82377306975 0.145342924134 0.289987811924 0.667050246492 -0.359482924537 -1.31809087081 -1.18328926775 -1.40923769703 1.17639633518
10.5972915019 0.604631326921 -1.82070919305 0.145864683291 0.291031330237 0.667318716022 -0.359218505107 -1.31759465539 -1.18230970191 -1.40703287002 1.17619489532
10.6420402702 0.604728562541 -1.81764422177 0.146385793825 0.292073551306 0.66758744855 -0.358954506077 -1.317094167 -1.18133034749 -1.40482975594 1.17599250713
10.6868015332 0.60482637695 -1.81457839471 0.146906309079 0.293114581814 0.667857005078 -0.358690639273 -1.31659053364 -1.180351156 -1.40262830895 1.17579005118
10.7315754523 0.604924766382 -1.81151170075 0.147426225848 0.29415441535 0.668127282282 -0.35842697001 -1.31608364345 -1.17937217913 -1.40042852994 1.17558739102
10.7763586534 0.605023338083 -1.80844437114 0.14794559603 0.295193155715 0.668398651258 -0.358163327862 -1.31557438858 -1.17839344868 -1.39823035713 1.17538512772
10.8211582161 0.605122868774 -1.80537592084 0.148464308482 0.296230580619 0.668670251842 -0.357900128779 -1.31506088486 -1.1774149708 -1.3960339307 1.17518193096
10.8659705632 0.605222969856 -1.80230659469 0.148982417269 0.297266798192 0.66894264609 -0.357637077639 -1.31454425902 -1.17643668865 -1.39383920587 1.17497868259
10.9107958646 0.605323637429 -1.79923638154 0.149499919186 0.298301802027 0.669215731593 -0.357374240557 -1.31402440002 -1.17545865512 -1.39164618302 1.17477524601
10.955630655 0.605424481927 -1.79616551825 0.150016866752 0.29933569716 0.669489881576 -0.357111442587 -1.31350219886 -1.17448089682 -1.38945480068 1.1745722219
11.0004821836 0.605526273457 -1.79309350865 0.15053314767 0.300368258996 0.669764231672 -0.356849109893 -1.31297577378 -1.1735034316 -1.38726519746 1.17436827924
11.0453467865 0.605628626818 -1.79002060356 0.151048816725 0.301399597106 0.670039345047 -0.356586940472 -1.31244625016 -1.17252619437 -1.38507732964 1.17416430115
11.0902246294 0.605731537973 -1.78694679174 0.151563870709 0.302429705074 0.670315119791 -0.356325001519 -1.31191351723 -1.17154923941 -1.38289119704 1.17396015019
11.1351121682 0.605834620611 -1.78387231563 0.152078362758 0.303458689171 0.670591931882 -0.356063113257 -1.3113784655 -1.17057258802 -1.38070673859 1.17375642749
11.1800168097 0.605938638109 -1.78079666809 0.152592179435 0.304486322524 0.67086891252 -0.355801711977 -1.31083921562 -1.16959626948 -1.37852409126 1.17355180128
11.2249348069 0.606043208719 -1.77772010583 0.153105376235 0.305512716126 0.671146625755 -0.355540489067 -1.31029689116 -1.16862021075 -1.3763432124 1.17334715545
11.2698663256 0.606148328274 -1.77464261753 0.15361794995 0.306537863556 0.67142497041 -0.355279512638 -1.30975138194 -1.16764446739 -1.37416410129 1.17314235211
11.3148077432 0.606253613778 -1.77156445109 0.154129954328 0.30756187231 0.671704325212 -0.355018598205 -1.30920357777 -1.16666905554 -1.37198669726 1.17293799262
11.3597666235 0.606359821759 -1.76848508863 0.154641274802 0.308584513258 0.671983816692 -0.354758192083 -1.30865160179 -1.16569401566 -1.36981113559 1.17273274448
11.4047391329 0.606466573994 -1.76540479263 0.155151967577 0.30960589881 0.672264010115 -0.354497978954 -1.30809657597 -1.16471926678 -1.36763737474 1.17252749272
11.4497254411 0.606573866179 -1.76232355169 0.155662029442 0.31062602254 0.672544804931 -0.35423802791 -1.30753839058 -1.16374486577 -1.36546541345 1.17232209878
11.494721847 0.60668131869 -1.7592416191 0.156171514748 0.31164499315 0.6728265825 -0.353978149975 -1.30697793444 -1.16277082386 -1.36329519146 1.17211716394
11.5397360633 0.6067896811 -1.75615846641 0.156680307814 0.312662579283 0.673108464691 -0.3537188012 -1.30641333349 -1.16179719229 -1.36112684232 1.17191135533
11.5847641819 0.606898578764 -1.75307436176 0.157188465548 0.313678894751 0.673391017898 -0.353459659756 -1.30584570784 -1.16082388242 -1.3589603256 1.17170555882
11.6298063644 0.607008007249 -1.74998929373 0.157695984737 0.314693933128 0.67367414232 -0.35320079563 -1.30527494837 -1.15985095232 -1.3567956395 1.1714996354
11.6748588348 0.607117590356 -1.74690352084 0.158202920328 0.315707804312 0.673958222117 -0.352942015372 -1.3047019429 -1.15887840845 -1.35463272421 1.17129418628
11.7199294678 0.607228070601 -1.7438165043 0.158709155543 0.316720274741 0.674242374322 -0.352683784588 -1.30412482034 -1.15790631247 -1.35247171153 1.17108787839
11.7650142597 0.607339076968 -1.74072851782 0.159214747981 0.317731459617 0.674527166314 -0.352425775203 -1.30354469857 -1.15693456837 -1.3503125621 1.17088159804
11.8101133803 0.607450604903 -1.73763954991 0.159719694432 0.318741352519 0.674812499362 -0.352168057844 -1.30296146944 -1.15596323524 -1.34815527364 1.17067520625
11.8552229794 0.607562281678 -1.73454986429 0.160224050432 0.31975006452 0.675098760202 -0.351910434914 -1.30237601939 -1.15499231509 -1.34599978676 1.1704693036
11.9003510722 0.607674842657 -1.73145891201 0.160727698115 0.320757359886 0.675385060977 -0.351653381282 -1.30178648052 -1.15402187959 -1.34384623148 1.17026255721
11.9454935806 0.607787920508 -1.72836697221 0.161230695771 0.321763355197 0.675671970257 -0.351396562643 -1.30119396854 -1.15305182547 -1.34169456954 1.1700558539
11.9906506786 0.607901510548 -1.72527403338 0.161733040187 0.322768044029 0.675959389978 -0.351140050553 -1.30059837582 -1.15208221305 -1.33954479815 1.16984905412
12.0358184373 0.608015243581 -1.72218036431 0.162234787487 0.323771538629 0.676247709973 -0.350883643043 -1.30000058785 -1.15111303981 -1.33739685837 1.16964275838
12.0810050166 0.608129847718 -1.71908540607 0.162735818726 0.324773601107 0.676536037052 -0.350627824231 -1.29939873973 -1.15014438722 -1.33525087843 1.1694356338
12.1262062642 0.608244959367 -1.7159894432 0.163236192881 0.325774349417 0.67682494123 -0.35037225356 -1.29879394516 -1.14917614484 -1.33310682117 1.1692285679
12.1714223498 0.608360573719 -1.71289246413 0.163735906738 0.326773777131 0.677114325162 -0.350117003469 -1.29818609706 -1.14820837416 -1.33096468329 1.16902142062
12.216649274 0.60847632515 -1.70979474262 0.164235017 0.327771997656 0.677404581662 -0.349861867878 -1.29757607965 -1.14724106846 -1.32882440633 1.16881479199
12.2618953377 0.608592934434 -1.70669570998 0.164733403657 0.328768770969 0.677694812093 -0.349607339878 -1.29696203125 -1.14627431856 -1.32668611665 1.16860734944
12.307156318 0.608710041768 -1.70359565603 0.165231126369 0.329764216393 0.677985588068 -0.349353072716 -1.29634506354 -1.145308007 -1.32454977824 1.16839998121
12.3524323764 0.608827642212 -1.70049456912 0.165728181915 0.330758327485 0.678276812751 -0.34909913988 -1.29572506974 -1.14434219659 -1.32241538725 1.1681925464
12.3977194474 0.608945373767 -1.69739272792 0.166224627578 0.331751218811 0.678568882281 -0.348845331092 -1.29510293305 -1.1433768764 -1.32028288576 1.16798564482
12.4430259725 0.609063949787 -1.69428955418 0.166720342292 0.332742648239 0.678860892387 -0.348592148163 -1.29447679513 -1.14241214622 -1.31815239824 1.16777794451
12.4883476502 0.609183014294 -1.69118534286 0.167215386391 0.333732736436 0.679153416042 -0.34833923854 -1.29384776515 -1.14144788197 -1.31602388978 1.16757033375
12.533684642 0.60930256223 -1.68808008229 0.167709756654 0.334721476963 0.679446357281 -0.348086676455 -1.29321573709 -1.14048414755 -1.31389735605 1.1673626714
12.5790328202 0.609422235255 -1.68497405589 0.168203510933 0.335708985521 0.679740115475 -0.347834247708 -1.29258159282 -1.13952092815 -1.31177273962 1.16715555662
12.6244007548 0.609542739224 -1.68186667608 0.168696527118 0.336695017892 0.680033780438 -0.347582462641 -1.29194347737 -1.13855833212 -1.30965016306 1.16694765819
12.6697840697 0.609663722034 -1.67875824285 0.169188866215 0.337679696085 0.680327926782 -0.347330962879 -1.29130249752 -1.13759622891 -1.3075295926 1.16673986462
12.7151829388 0.609785178507 -1.67564874451 0.169680525002 0.33866301366 0.6806224594 -0.347079823403 -1.29065854803 -1.13663468345 -1.3054110234 1.16653203452
12.7605931475 0.609906754002 -1.67253846917 0.170171561892 0.33964508744 0.680917780928 -0.34682882627 -1.29001250929 -1.13567367731 -1.30329439854 1.16632476611
12.8060234148 0.610029146806 -1.66942682008 0.170661853747 0.34062567115 0.681212975135 -0.346578490017 -1.28936252988 -1.13471332694 -1.3011798387 1.16611672937
12.8514692859 0.610152008723 -1.66631410216 0.171151462234 0.341604888122 0.681508618227 -0.346328450715 -1.28870971399 -1.13375349562 -1.29906731118 1.16590881267
12.8969309348 0.610275334459 -1.66320030372 0.17164038413 0.342582731915 0.681804615902 -0.34607878412 -1.28805395705 -1.13279424935 -1.29695681067 1.16570087425
12.9424040848 0.610398773112 -1.66008571741 0.172128678408 0.343559320472 0.682101374398 -0.34582926849 -1.28739613819 -1.13183556613 -1.2948482808 1.16549351165
12.9878975832 0.610523015331 -1.65696973757 0.17261622091 0.344534405475 0.682397971046 -0.345580430415 -1.28673440949 -1.13087757016 -1.29274184029 1.1652853961
13.0334069008 0.610647716865 -1.65385267394 0.173103073958 0.345508111571 0.682694983774 -0.345331900547 -1.28606987243 -1.12992011878 -1.29063745754 1.16507741567
13.0789322155 0.610772872307 -1.65073451479 0.173589234332 0.346480432319 0.682992319194 -0.345083755307 -1.2854024233 -1.12896327895 -1.28853512679 1.16486942847
13.1244691886 0.610898134528 -1.64761555728 0.174074761558 0.347451486771 0.683290387174 -0.344835769368 -1.28473293983 -1.12800702542 -1.28643479218 1.16466203102
13.1700267875 0.611024186471 -1.64449518695 0.174559530462 0.34842102458 0.683588258176 -0.344588477255 -1.28405957736 -1.12705148978 -1.28433657047 1.16445389582
13.2156004208 0.61115068788 -1.64137371833 0.17504360403 0.349389171714 0.683886512429 -0.344341503935 -1.2833834353 -1.12609652334 -1.28224043122 1.16424591129
13.2611902583 0.611277633224 -1.63825113962 0.175526979033 0.350355921721 0.684185057065 -0.344094926835 -1.28270441021 -1.1251421943 -1.28014636812 1.16403793473
13.3067919033 0.61140467918 -1.63512775238 0.176009715548 0.351321394751 0.684484305845 -0.34384851706 -1.28202337859 -1.12418847428 -1.27805432593 1.16383056172
13.3524144514 0.611532500935 -1.63200293361 0.176491687401 0.352285338457 0.684783322212 -0.343602816676 -1.28133849927 -1.1232355017 -1.27596441938 1.16362246655
13.3980532368 0.611660762242 -1.62887700242 0.176972958222 0.353247880098 0.685082688342 -0.343357445547 -1.28065086887 -1.12228312244 -1.27387661914 1.16341453703
13.4437084376 0.611789457466 -1.62574994704 0.177453524787 0.354209013228 0.685382312363 -0.34311248167 -1.27996038489 -1.12133140559 -1.27179091846 1.16320663044
13.4893755866 0.611918247112 -1.6226220733 0.177933447715 0.355168859085 0.685682611969 -0.342867692805 -1.2792679224 -1.12038031989 -1.26970726264 1.16299934113
13.5350638995 0.612047798558 -1.61949274982 0.178412599837 0.356127163329 0.685982643107 -0.342623628441 -1.27857164355 -1.11943001032 -1.26762576441 1.16279134518
13.5807686567 0.61217777961 -1.61636230028 0.178891045435 0.357084054526 0.686282990489 -0.34237990308 -1.27787264271 -1.11848031719 -1.26554639558 1.16258353041
13.6264900239 0.612308184507 -1.61323071285 0.179368781275 0.358039526206 0.686583562664 -0.3421365958 -1.27717081758 -1.11753131091 -1.26346914888 1.16237575311
13.67222348 0.612438677626 -1.61009829755 0.179845868522 0.3589937007 0.686884781742 -0.341893470855 -1.2764670422 -1.11658295735 -1.26139397023 1.16216860678
13.7179783568 0.612569918484 -1.60696441486 0.180322179022 0.359946321698 0.687185695853 -0.341651084868 -1.27575948206 -1.11563540751 -1.25932097032 1.16196076965
13.7637498724 0.612701578955 -1.60382939285 0.180797777692 0.36089751904 0.687486892001 -0.341409047497 -1.27504922873 -1.11468849674 -1.25725012204 1.16175312867
13.8095381926 0.612833653175 -1.60069321969 0.181272661303 0.361847286262 0.68778827972 -0.341167438369 -1.27433618084 -1.11374229629 -1.2551814177 1.16154554018
13.8553387342 0.612965809403 -1.5975562095 0.181746891555 0.362795746765 0.688090285435 -0.340926018611 -1.2736212111 -1.11279676962 -1.2531148038 1.16133859616
13.901160949 0.613098699262 -1.59441771479 0.182220339316 0.363742642288 0.688391949131 -0.340685351677 -1.27290248828 -1.11185207322 -1.25105038898 1.16113097739
13.9469999849 0.613231998716 -1.59127806794 0.182693070143 0.364688103941 0.688693860403 -0.340445042406 -1.27218110137 -1.11090803764 -1.24898814724 1.16092357005
13.9928560157 0.613365701788 -1.58813725707 0.183165080796 0.365632125247 0.688995929352 -0.340205171366 -1.27145694936 -1.1099647353 -1.24692807038 1.16071622971
14.0387243962 0.613499480654 -1.58499560037 0.183636433516 0.366574830688 0.689298587286 -0.339965496316 -1.27073090414 -1.10902212715 -1.24487010558 1.16050954745
14.0846146943 0.613633978998 -1.58185244252 0.184106998201 0.367515960057 0.689600865467 -0.339726587449 -1.2700011375 -1.10808037487 -1.24281435938 1.16030220656
14.1305219914 0.613768876895 -1.5787081201 0.184576841034 0.368455645723 0.689903356194 -0.339488045011 -1.2692687357 -1.10713930451 -1.24076080687 1.1600950921
14.1764464698 0.613904168274 -1.57556262128 0.185045958783 0.369393881222 0.690205970624 -0.339249950007 -1.2685335988 -1.10619898923 -1.23870943943 1.15988805989
14.222383418 0.61403952923 -1.57241626811 0.185514414213 0.37033079208 0.690509144668 -0.339012057438 -1.26779659722 -1.10525938811 -1.23666020485 1.15968169898
14.2683425197 0.614175595477 -1.56926839766 0.185982076256 0.371266116167 0.690811900482 -0.338774943926 -1.26705590574 -1.10432066751 -1.23461320754 1.15947469557
14.3143187985 0.614312051225 -1.56611935065 0.186449011725 0.372199987105 0.691114833398 -0.338538205145 -1.26631260812 -1.10338264913 -1.2325684237 1.15926793375
14.3603124282 0.614448890314 -1.56296911526 0.186915217395 0.373132398444 0.691417855663 -0.338301922479 -1.2655666055 -1.1024454068 -1.23052584434 1.1590612696
14.406318652 0.614585792767 -1.55981801734 0.187380756547 0.374063476748 0.691721407898 -0.338065848415 -1.26481876677 -1.10150889807 -1.22848541781 1.15885528984
14.4523472528 0.614723386311 -1.55666538653 0.187845497161 0.374992957977 0.692024502844 -0.337830565592 -1.26406726975 -1.10057329338 -1.22644724644 1.15864868414
14.4983932046 0.614861359304 -1.55351156757 0.188309506673 0.375920977002 0.69232773904 -0.337595665296 -1.26331319568 -1.09963841034 -1.2244113075 1.15844233537
14.544456673 0.614999705478 -1.55035654862 0.188772781852 0.376847527359 0.692631029342 -0.337361229768 -1.26255644614 -1.09870432389 -1.22237759155 1.15823609901
14.5905328514 0.615138108825 -1.5472006593 0.18923538651 0.377772736675 0.692934819922 -0.337127008486 -1.26179788937 -1.09777098976 -1.22034604764 1.15803056044
14.6366316303 0.615277189046 -1.54404322197 0.18969718767 0.378696338995 0.693238113261 -0.336893590215 -1.26103570562 -1.09683858224 -1.21831677589 1.15782441242
14.6827479176 0.615416638681 -1.54088458532 0.190158253397 0.379618470449 0.693541511713 -0.336660561591 -1.26027097416 -1.09590691483 -1.21628975476 1.1576185372
14.7288818911 0.615556451336 -1.53772473746 0.190618580444 0.380539124543 0.693844928381 -0.336428006095 -1.25950359652 -1.09497606387 -1.21426497427 1.15741278895
14.7750286782 0.615696314993 -1.53456401173 0.191078233158 0.381458429971 0.694148815402 -0.336195670131 -1.2587344406 -1.09404598333 -1.21224238422 1.15720775189
14.8211982852 0.615836841318 -1.53140172334 0.19153707761 0.382376118875 0.694452164597 -0.335964148209 -1.25796168904 -1.09311685079 -1.21022208254 1.15700212243
14.8673855579 0.615977727008 -1.52823822483 0.191995182475 0.383292328605 0.694755581704 -0.335733023178 -1.25718641832 -1.0921884765 -1.20820404873 1.15679678074
14.91359067 0.616118965599 -1.52507350433 0.192452544518 0.384207052692 0.695058981101 -0.335502378645 -1.25640853133 -1.09126093722 -1.20618827247 1.15659158166
14.9598087033 0.616260249036 -1.52190789873 0.192909228599 0.385120420853 0.695362820469 -0.335271958801 -1.25562889475 -1.09033418607 -1.2041747042 1.1563871068
15.0060497636 0.61640218094 -1.51874071632 0.193365099843 0.38603216334 0.695666080438 -0.335042363614 -1.25484569346 -1.0894084034 -1.20216343964 1.15618205656
15.0523086386 0.616544462197 -1.51557231338 0.193820227543 0.386942418741 0.695969370868 -0.33481317178 -1.25406000187 -1.08848339598 -1.20015445941 1.15597730979
15.0985855104 0.616687086245 -1.51240267805 0.194274608462 0.387851180579 0.696272606837 -0.334584467633 -1.25327172344 -1.08755924158 -1.19814775276 1.15577272095
15.1448754026 0.616829749016 -1.50923215072 0.194728307978 0.38875857961 0.696576252121 -0.334355992981 -1.25248172413 -1.0866358924 -1.19614327084 1.15556886938
15.1911885165 0.616973046075 -1.50606003287 0.195181190271 0.389664344198 0.696879275568 -0.334128353004 -1.25168819083 -1.08571353108 -1.19414110712 1.15536445978
15.2375195982 0.617116682497 -1.50288668446 0.195633325249 0.390568614154 0.697182291257 -0.333901122585 -1.25089219569 -1.08479196139 -1.19214124331 1.15516036917
15.2838688216 0.617260651632 -1.49971209364 0.196084709675 0.391471383004 0.697485215129 -0.333674386583 -1.250093643 -1.08387126186 -1.19014366828 1.15495645198
15.3302311608 0.617404653405 -1.49653660422 0.196535409445 0.392372782545 0.697788517414 -0.33344788448 -1.24929339819 -1.08295138402 -1.1881483339 1.15475328525
15.3766169161 0.617549275321 -1.49335951104 0.196985287797 0.39327253925 0.698091154485 -0.333222226494 -1.24848964978 -1.08203251234 -1.18615533136 1.15454957815
15.4230207758 0.617694226648 -1.49018117764 0.197434415249 0.394170794152 0.698393744965 -0.332996983795 -1.24768346785 -1.0811144478 -1.18416464347 1.1543462058
15.4694429181 0.617839500647 -1.48700159218 0.197882788562 0.395067540779 0.698696205578 -0.332772241845 -1.24687475739 -1.0801972698 -1.18217625869 1.15414302243
15.5158782754 0.617984801237 -1.48382110182 0.198330474152 0.395962911959 0.698999013306 -0.332547737942 -1.24606438342 -1.07928092944 -1.18019012964 1.15394060261
15.5623372311 0.618130707867 -1.48063899489 0.198777334315 0.396856632285 0.69930111142 -0.332324087049 -1.24525053586 -1.07836561248 -1.17820634521 1.15373766038
15.6088144278 0.618276933998 -1.47745563845 0.199223440176 0.397748844007 0.699603123404 -0.33210085676 -1.24443428283 -1.07745111738 -1.17622488929 1.1535350688
15.6553100437 0.618423472802 -1.47427102063 0.199668788495 0.398639540646 0.699904966686 -0.331878133218 -1.24361552991 -1.07653752447 -1.17424574995 1.15333268175
15.7018189574 0.618570032199 -1.47108549193 0.200113446212 0.399528856079 0.700207125485 -0.331655651474 -1.24279514209 -1.0756247845 -1.17226888061 1.1531310715
15.7483516558 0.618717183583 -1.46789833427 0.200557274673 0.400416513 0.700508529129 -0.331434031161 -1.24197131013 -1.07471308417 -1.17029436776 1.15292895699
15.7949027277 0.618864644605 -1.46470991815 0.201000345611 0.401302654878 0.700809806295 -0.331212836433 -1.24114510037 -1.0738022197 -1.16832219641 1.15272720905
15.841472343 0.619012408363 -1.46152023172 0.201442655794 0.402187275243 0.701110875335 -0.330992153827 -1.2403164193 -1.07289227207 -1.16635235427 1.15252568172
15.8880553431 0.619160186766 -1.45832962869 0.201884272676 0.403070509007 0.701412227845 -0.330771716525 -1.23948613171 -1.07198319219 -1.16438479555 1.15232494436
15.9346623016 0.619308543163 -1.45513738473 0.202325056656 0.403952076968 0.701712778534 -0.330552148507 -1.23865242898 -1.07107516709 -1.16241960431 1.15212372126
15.981287758 0.619457199405 -1.4519438737 0.20276508008 0.404832123815 0.702013161722 -0.3303330105 -1.23781637595 -1.07016799091 -1.16045676672 1.1519228811
16.027931886 0.619606148499 -1.44874908378 0.203204339711 0.405710643077 0.702313296457 -0.330114389692 -1.23697787968 -1.06926174552 -1.15849627007 1.15172227761
16.0745894775 0.619755106342 -1.44555337181 0.203642903524 0.406587770703 0.702613682138 -0.329896017454 -1.23613780504 -1.0683563822 -1.1565380694 1.15152247717
16.1212711931 0.619904628257 -1.44235600733 0.204080630968 0.40746322559 0.702913218082 -0.329678521863 -1.23529434364 -1.06745208777 -1.15458224631 1.1513222098
16.1679715307 0.620054440286 -1.43915736752 0.204517595 0.408337153655 0.703212544666 -0.32946146029 -1.23444855905 -1.06654865452 -1.15262878811 1.15112234196
16.21469066 0.620204535344 -1.43595744051 0.204953792377 0.409209548408 0.703511581452 -0.329244920789 -1.23360035869 -1.0656461654 -1.1506776817 1.15092272671
16.2614233272 0.620354633327 -1.43275658633 0.205389291606 0.410080546868 0.703810836388 -0.329028632598 -1.23275060816 -1.06474457189 -1.14872888299 1.15072392803
16.3081802842 0.620505281549 -1.42955406844 0.205823951179 0.410949866014 0.704109192485 -0.328813227754 -1.23189749879 -1.06384406022 -1.14678247108 1.15052468185
16.3549559791 0.620656210213 -1.42635026724 0.206257844655 0.411817652965 0.704407296222 -0.328598260842 -1.23104209256 -1.06294442145 -1.14483843437 1.15032585146
16.4017505817 0.620807412175 -1.42314517091 0.206690968799 0.412683901254 0.704705068191 -0.328383820117 -1.23018429798 -1.06204573903 -1.14289675945 1.15012729042
16.4485587926 0.620958611295 -1.4199391425 0.207123392643 0.413548748942 0.705003024879 -0.32816963333 -1.22932498101 -1.06114796539 -1.14095740307 1.14992955922
16.496332792 0.621110346904 -1.41673143955 0.207554973714 0.414411911083 0.705300032165 -0.327956336183 -1.22846233229 -1.06025128556 -1.13902044177 1.14973140014
16.5446039461 0.621262353372 -1.41352244563 0.207985786181 0.415273536017 0.70559674326 -0.327743480342 -1.22759741275 -1.05935548945 -1.13708586511 1.14953367363
16.5933776037 0.621414623485 -1.41031214894 0.208415826814 0.416133617284 0.705893079579 -0.327531154487 -1.2267301317 -1.05846066118 -1.13515365932 1.14933623331
16.6426533759 0.621566885063 -1.40710091555 0.208845165174 0.416992294004 0.706189566703 -0.327319084862 -1.22586135583 -1.05756675429 -1.13322378207 1.14913963627
16.6924480173 0.621719669479 -1.40388799712 0.209273657815 0.417849279285 0.706485052385 -0.327107910693 -1.22498927453 -1.05667395215 -1.13129630723 1.14894263134
16.7427609318 0.621872715267 -1.40067378036 0.209701379524 0.418704722702 0.706780197156 -0.326897180646 -1.22411494811 -1.05578204358 -1.12937122558 1.14874607631
16.7935976837 0.622026015127 -1.39745825347 0.210128327064 0.419558617784 0.707074922982 -0.326686984174 -1.22323828628 -1.05489111373 -1.12744852294 1.14854982425
16.8449578341 0.622179300838 -1.39424178549 0.210554570538 0.420411104732 0.70736976518 -0.32647704589 -1.22236015698 -1.05400111729 -1.12552815797 1.14835442911
16.8968589243 0.622333095843 -1.39102362231 0.210979965513 0.421261894681 0.707663552312 -0.326268008429 -1.2214787477 -1.05311223552 -1.1236102018 1.1481586464
16.949300288 0.622487142824 -1.38780415372 0.211404587398 0.422111138451 0.7079569527 -0.326059417574 -1.22059511837 -1.05222425645 -1.12169464643 1.14796333113
17.0022877376 0.622641434411 -1.38458336792 0.211828432958 0.422958829571 0.708249889019 -0.325851363311 -1.21970917937 -1.051337266 -1.11978147734 1.14776833623
17.0558207641 0.622795706314 -1.3813616369 0.212251572832 0.423805109318 0.708542906628 -0.32564356899 -1.21882179985 -1.05045122055 -1.11787065415 1.14757421185
17.1099177409 0.622950474087 -1.37813820081 0.212673861594 0.424649686843 0.70883481397 -0.325436680292 -1.217931165 -1.04956629857 -1.11596224519 1.14737972086
17.1645779269 0.623105484537 -1.37491345249 0.213095375274 0.425492714204 0.709126287504 -0.325230240422 -1.21703833444 -1.04868228775 -1.1140562437 1.14718571493
17.2198073792 0.623260730233 -1.37168738017 0.213516110642 0.42633418494 0.709417250711 -0.325024339747 -1.21614321935 -1.04779927463 -1.11215263482 1.14699204715
17.2756055429 0.623415950796 -1.3684603587 0.213936138881 0.427174241418 0.709708259504 -0.324818700481 -1.21524669039 -1.04691721756 -1.11025137918 1.14679926366
17.3319916279 0.623571653934 -1.36523162259 0.214355313559 0.428012590773 0.709998101096 -0.324613971149 -1.2143469298 -1.04603629173 -1.10835254224 1.146606135
17.3889648393 0.623727590561 -1.36200156768 0.21477371133 0.428849386314 0.710287460616 -0.324409692476 -1.2134449972 -1.04515628469 -1.10645611848 1.14641350943
17.4465314824 0.623883753176 -1.35877018219 0.215191328964 0.429684621583 0.710576262214 -0.324205955381 -1.2125408044 -1.04427728383 -1.1045620927 1.14622123985
17.5046909403 0.624039885307 -1.35553784389 0.215608238204 0.430518440063 0.710865073113 -0.324002480756 -1.21163522412 -1.04339924945 -1.10267042661 1.14602986871
17.5640510439 0.624196486852 -1.35230378162 0.21602429159 0.431350546834 0.711152657988 -0.323799919972 -1.21072643484 -1.04252235306 -1.1007811827 1.14583817428
17.6246290986 0.624353312824 -1.34906839423 0.216439566414 0.432181096483 0.711439711374 -0.32359781112 -1.20981549674 -1.04164638217 -1.09889435675 1.14564700164
17.686450305 0.624510355641 -1.34583166992 0.216854059441 0.433010082537 0.711726157893 -0.323396245923 -1.20890232197 -1.04077142519 -1.09700993317 1.14545620311
17.7495327509 0.624667362717 -1.34259398934 0.21726784298 0.433837649615 0.712012576671 -0.323194944048 -1.20798778569 -1.0398974447 -1.09512787484 1.14526631725
17.8139175968 0.624824826191 -1.3393545757 0.217680768527 0.434663500708 0.712297708642 -0.322994559469 -1.20707006194 -1.03902460792 -1.09324824111 1.14507613053
17.8796235723 0.624982505146 -1.33611383082 0.218092914016 0.435487791688 0.712582258236 -0.322794627879 -1.20615021165 -1.03815270272 -1.09137102914 1.14488648446
17.9466780101 0.62514039194 -1.33287174292 0.218504276216 0.436310516087 0.712866150787 -0.322595241438 -1.20522814769 -1.0372818182 -1.08949622299 1.14469723139
18.0157847158 0.625298237835 -1.32962869548 0.218914928005 0.437131819665 0.713149977744 -0.322396118971 -1.20430474769 -1.03641191972 -1.08762378671 1.14450890532
18.0870236671 0.625456527274 -1.32638390614 0.219324719819 0.437951403294 0.713432455125 -0.32219791668 -1.20337818071 -1.03554316955 -1.08575377647 1.14432030164
18.1604514751 0.625615023373 -1.32313777962 0.219733730239 0.438769424133 0.713714297729 -0.322000168166 -1.2024495086 -1.03467535632 -1.08388619075 1.14413225776
18.2368924997 0.625773718428 -1.31989030415 0.220141956031 0.439585875716 0.713995431513 -0.321802966131 -1.20151864478 -1.03380856998 -1.08202101329 1.14394462588
18.3164609156 0.62593236754 -1.31664186609 0.220549470664 0.440400904983 0.714276461141 -0.321606028308 -1.20058647012 -1.03294277863 -1.0801582094 1.14375793585
18.3993047462 0.626091447503 -1.31339167745 0.220956123487 0.44121421063 0.714556076168 -0.321410013182 -1.19965114767 -1.03207813921 -1.07829783191 1.14357099193
18.4864104225 0.626250725443 -1.31014014589 0.221361993736 0.442025951127 0.714835002495 -0.321214452246 -1.19871374064 -1.03121444133 -1.07643988071 1.1433846275
18.5789133758 0.626410193603 -1.30688725965 0.22176707818 0.442836120016 0.715113166727 -0.321019438677 -1.19777416313 -1.03035177569 -1.07458433921 1.1431986947
18.6781184986 0.626569610886 -1.30363340794 0.222171450888 0.443644865431 0.71539118734 -0.320824689344 -1.19683329943 -1.02949011358 -1.07273117403 1.14301371878
18.7856015049 0.626729446504 -1.30037779715 0.222574960098 0.44445188385 0.71566772605 -0.320630864716 -1.19588930588 -1.02862960589 -1.07088043455 1.14282851354
18.9034493689 0.626889471555 -1.29712083785 0.222977685705 0.445257335064 0.715943520412 -0.320437494484 -1.1949432473 -1.02777004374 -1.06903212205 1.14264390774
19.0372525013 0.627049678245 -1.29386251831 0.223379624492 0.446061212639 0.71621849784 -0.320244672007 -1.19399503866 -1.02691151828 -1.06718621969 1.14245975399
19.1672503411 0.627209829235 -1.29060323057 0.223780851129 0.446863665913 0.716493291194 -0.320052113648 -1.1930455679 -1.02605400452 -1.06534269544 1.14227657225
19.3208038415 0.627370386219 -1.28734217538 0.224181212718 0.447664389091 0.716766532785 -0.31986048171 -1.19209298372 -1.02519764681 -1.06350159502 1.1420931863
19.517569238 0.627531124267 -1.28407976627 0.224580789841 0.448463543336 0.717038972847 -0.319669303705 -1.1911383534 -1.02434223755 -1.0616629213 1.14191042085
20.0 0.627692035503 -1.28081599146 0.224979579269 0.449261122194 0.717310539131 -0.319478673895 -1.19018159212 -1.02348786907 -1.05982665704 1.14172812777
