liuchen18/hilsys_old/sim_sys/data/fwx_planned_trajectory.txt
this is the FWX joint values,the following info is time,x,y,theta,joint1,joint2,joint3,joint4,joint5,joint6,joint7
0.0 -1.42358996724 -0.0732443933696 1.8510001209 -0.465873480707 0.17295131073 1.57331111807 1.71410509759 1.97460563888 -1.08055870475 1.33627188502
0.061528090054 -1.42364093174 -0.0780293448008 1.85093001466 -0.465733268234 0.171790933931 1.57467140715 1.71893456553 1.98237008041 -1.08209262125 1.32769669686
0.109475231357 -1.4236905012 -0.0828300037857 1.85085993717 -0.465593113257 0.170629325373 1.57597788114 1.72348557655 1.98999910103 -1.08365076831 1.3194380387
0.150477391917 -1.42373890217 -0.0876437905537 1.85078935515 -0.465451949201 0.169471996727 1.57723386436 1.72776915261 1.99748926099 -1.08522386649 1.31148924642
0.186945957558 -1.42378635349 -0.0924683235278 1.85071780104 -0.465308840986 0.16832393682 1.57844261052 1.73179655388 2.00483823193 -1.08680339369 1.30384266675
0.22034980956 -1.42383306414 -0.0973014204783 1.85064487057 -0.465162980041 0.167189622436 1.57960727459 1.73557914314 2.01204467987 -1.08838159735 1.29648985286
0.251239693755 -1.42387923164 -0.102141095848 1.85057021928 -0.465013677475 0.166073036017 1.58073089135 1.73912826831 2.01910814911 -1.08995148983 1.28942174477
0.280079725256 -1.42392504103 -0.10698555507 1.85049355856 -0.46486035602 0.164977688663 1.58181635965 1.74245516277 2.02602894988 -1.09150683003 1.28262883271
0.307266130709 -1.42397066427 -0.111833186541 1.85041465111 -0.464702541123 0.163906646897 1.58286643199 1.7455708627 2.03280805183 -1.09304209455 1.27610130249
0.333142315157 -1.42401625998 -0.116682551979 1.85033330642 -0.464539851741 0.162862561943 1.58388370819 1.74848614019 2.03944698476 -1.09455244091 1.26982916265
0.358011168888 -1.42406197348 -0.121532375642 1.85024937605 -0.464371991004 0.161847700364 1.58487063286 1.75121145063 2.0459477475 -1.09603366559 1.26380235397
0.381906365366 -1.4241079371 -0.126381532921 1.85016274909 -0.464198737096 0.160863975182 1.58582949565 1.75375689274 2.05231272535 -1.09748215873 1.25801084226
0.405090908177 -1.42415427055 -0.131229038687 1.85007334781 -0.464019934527 0.159912976744 1.58676243389 1.75613217977 2.05854461617 -1.0988948572 1.25244469569
0.428729220315 -1.42420108159 -0.136074035641 1.84998112346 -0.463835485838 0.158996002758 1.58767143693 1.75834662014 2.06464636482 -1.10026919764 1.24709414808
0.453310845563 -1.42424846657 -0.140915782994 1.84988605254 -0.46364534399 0.158114087133 1.58855835178 1.76040910616 2.0706211057 -1.10160307015 1.24194964962
0.478870057666 -1.42429651121 -0.145753645539 1.84978813319 -0.463449505296 0.157268027269 1.58942488969 1.7623281094 2.07647211273 -1.10289477371 1.23700190662
0.505708477988 -1.42434529131 -0.150587083301 1.84968738207 -0.46324800304 0.156458409668 1.59027263327 1.76411168154 2.08220275624 -1.10414297372 1.23224191159
0.533887452778 -1.42439487346 -0.155415641818 1.8495838314 -0.463040901704 0.15568563372 1.591103044 1.76576745958 2.08781646611 -1.10534666219 1.22766096515
0.563767433161 -1.42444531578 -0.160238943114 1.84947752649 -0.462828291882 0.154949933666 1.59191746975 1.76730267453 2.09331670061 -1.10650512048 1.22325069092
0.595249087436 -1.42448066995 -0.164995421556 1.84938628509 -0.462645809084 0.15398532256 1.59269768232 1.7688721073 2.09908238231 -1.10792190751 1.21860862621
0.62468184605 -1.42451720932 -0.169746531002 1.84929198966 -0.462457218219 0.15306197579 1.59346311844 1.77032802706 2.10472917644 -1.10929138755 1.2141362873
0.652375949004 -1.42455496745 -0.174492005278 1.84919470452 -0.462262647952 0.152179716654 1.59421496814 1.77167681868 2.11026101005 -1.11061313727 1.20982560164
0.678693474169 -1.42459397185 -0.179231633036 1.84909450194 -0.462062242791 0.151338267253 1.59495432351 1.77292450339 2.11568173499 -1.11188695221 1.20566886178
0.703701944712 -1.42463424442 -0.18396525074 1.84899146076 -0.461856160426 0.150537262627 1.59568218557 1.7740767547 2.12099511692 -1.1131128184 1.20165871801
0.727703462652 -1.42467580198 -0.188692736901 1.84888566493 -0.461644568777 0.149776263569 1.59639947166 1.77513891532 2.12620482667 -1.11429088684 1.19778817029
0.750510056438 -1.42471865688 -0.193414006869 1.84877720223 -0.461427643373 0.149054768046 1.59710702237 1.77611601403 2.13131443386 -1.11542145068 1.19405055837
0.773976513849 -1.42476281743 -0.198129008201 1.84866616315 -0.461205565203 0.148372221382 1.59780560788 1.77701278236 2.1363274024 -1.11650492475 1.1904395508
0.798363210898 -1.42480828842 -0.202837716498 1.84855263996 -0.460978518838 0.147728025286 1.59849593395 1.77783367089 2.14124708757 -1.11754182735 1.18694913299
0.823706190137 -1.42485507147 -0.20754013169 1.84843672596 -0.460746690827 0.147121545838 1.59917864736 1.77858286508 2.14607673442 -1.1185327641 1.1835735948
0.850306388264 -1.42490316542 -0.212236274716 1.84831851472 -0.460510268343 0.146552120531 1.599854341 1.77926430052 2.15081947721 -1.11947841366 1.18030751767
0.878787549452 -1.42495256669 -0.216926184623 1.84819809961 -0.460269438121 0.146019064478 1.60052355844 1.77988167762 2.15547833986 -1.12037951499 1.17714576179
0.909282980075 -1.42500326952 -0.221609915937 1.84807557329 -0.460024385498 0.145521675856 1.60118679823 1.7804384756 2.16005623695 -1.12123685624 1.17408345312
0.942262077086 -1.42505526629 -0.226287536367 1.84795102737 -0.459775293655 0.145059240652 1.60184451775 1.78093796581 2.16455597542 -1.12205126499 1.17111597077
0.978664939629 -1.42510854774 -0.230959124773 1.84782455206 -0.459522343022 0.144631036832 1.60249713679 1.78138322441 2.16898025673 -1.12282359959 1.16823893442
1.02001889316 -1.4251631032 -0.235624769357 1.84769623592 -0.459265710741 0.144236337929 1.60314504081 1.78177714435 2.17333167924 -1.12355474176 1.16544819226
1.06947291294 -1.42521892076 -0.240284566069 1.84756616568 -0.459005570267 0.143874416175 1.60378858389 1.78212244663 2.17761274102 -1.12424559002 1.16273980915
1.13501726707 -1.42527598746 -0.244938617256 1.84743442612 -0.458742091144 0.143544545205 1.60442809145 1.78242169107 2.18182584278 -1.12489705393 1.16011005532
1.22333723316 -1.42530219568 -0.249787811373 1.84732656402 -0.45852636694 0.142660309243 1.60504242258 1.78280922167 2.18697333392 -1.1261934516 1.15677231582
1.28003691084 -1.42533039213 -0.25463135624 1.84721594777 -0.458305134447 0.141820829202 1.60565259002 1.78314443922 2.19202787217 -1.12743940464 1.15353649296
1.3255563252 -1.42536054432 -0.259469324704 1.84710268981 -0.45807861852 0.141025042117 1.60625898371 1.78343018449 2.1969928931 -1.12863586037 1.15039776389
1.36471992268 -1.42539261932 -0.264301799133 1.84698690035 -0.45784703961 0.140271897889 1.60686195814 1.78366912753 2.20187167877 -1.12978379802 1.14735156903
1.39978392693 -1.42542658385 -0.269128869205 1.84686868738 -0.457610613667 0.139560361184 1.60746183523 1.78386377822 2.20666736455 -1.13088422073 1.1443935965
1.43149200284 -1.42546240445 -0.273950630623 1.84674815647 -0.457369551854 0.138889413069 1.60805890737 1.78401649668 2.21138294597 -1.13193814846 1.14151976782
1.46103475296 -1.42550004754 -0.278767183907 1.84662541062 -0.457124060144 0.138258052356 1.6086534403 1.78412950288 2.21602128521 -1.13294661206 1.13872622443
1.48883587059 -1.42553947962 -0.283578633416 1.84650055014 -0.456874339196 0.13766529667 1.60924567555 1.7842048857 2.22058511749 -1.13391064789 1.13600931502
1.51716633965 -1.42558066728 -0.288385086433 1.84637367262 -0.456620584142 0.137110183293 1.60983583282 1.78424461127 2.22507705709 -1.13483129348 1.13336558346
1.54781298471 -1.42562357738 -0.293186652411 1.84624487281 -0.456362984538 0.136591769806 1.61042411196 1.78425053089 2.22949960325 -1.13570958357 1.13079175746
1.58096590071 -1.42566817704 -0.297983442267 1.84611424267 -0.456101724239 0.136109134554 1.61101069494 1.78422438824 2.23385514564 -1.13654654698 1.12828473789
1.61718950007 -1.42571443371 -0.302775567893 1.84598187135 -0.455836981611 0.135661376973 1.61159574734 1.78416782636 2.23814596989 -1.13734320349 1.1258415888
1.65796838566 -1.42576231526 -0.307563141556 1.84584784521 -0.455568929333 0.13524761777 1.61217942004 1.78408239388 2.24237426248 -1.13810056186 1.12345952787
1.70583694344 -1.42581178997 -0.312346275519 1.84571224784 -0.455297734593 0.134866999013 1.61276185052 1.78396955096 2.24654211569 -1.13881961764 1.12113591758
1.76714992109 -1.42586282659 -0.317125081668 1.84557516012 -0.455023559148 0.134518684107 1.61334316407 1.78383067492 2.25065153219 -1.13950135155 1.11886825683
1.8672509622 -1.42585350284 -0.321508127833 1.84549464781 -0.454862534537 0.133319592558 1.61377978436 1.78369660249 2.25559238533 -1.1411313445 1.11597795004
1.92404815792 -1.42584651657 -0.325890631761 1.84541133416 -0.454695907221 0.132161811555 1.61421698201 1.78354020488 2.26045988501 -1.14271866607 1.1131543563
1.96825085498 -1.42584182254 -0.330272562719 1.84532530719 -0.454523853292 0.131044460785 1.61465484037 1.78336247346 2.26525631956 -1.144263968 1.11039484664
2.00631963119 -1.42583937628 -0.334653895888 1.84523665345 -0.45434654581 0.129966677433 1.61509343271 1.78316435425 2.26998388598 -1.14576791857 1.1076969113
2.04043676657 -1.42583913404 -0.339034611159 1.84514545794 -0.454164154781 0.128927616296 1.61553282288 1.78294674979 2.27464469372 -1.14723119914 1.10505815365
2.07162690921 -1.42584105286 -0.343414692745 1.84505180411 -0.453976847133 0.127926449728 1.61597306609 1.78271052134 2.27924076884 -1.14865450102 1.10247628469
2.10100510305 -1.42584509056 -0.347794128658 1.84495577375 -0.453784786402 0.126962367595 1.61641420997 1.78245649084 2.28377405769 -1.15003852284 1.09994911785
2.13281272536 -1.42585120575 -0.352172910389 1.84485744693 -0.453588132762 0.126034577144 1.61685629512 1.78218544288 2.28824643073 -1.15138396797 1.097474564
2.16794283538 -1.42585935788 -0.356551032517 1.84475690198 -0.453387042872 0.125142302869 1.61729935597 1.78189812647 2.29265968592 -1.15269154249 1.09505062673
2.20741034107 -1.4258695072 -0.360928492411 1.84465421548 -0.453181669866 0.124284786336 1.61774342129 1.78159525676 2.29701555204 -1.15396195318 1.09267539787
2.24698385312 -1.42588161481 -0.365305289915 1.84454946218 -0.452972163277 0.123461285989 1.61818851482 1.78127751671 2.30131569183 -1.1551959059 1.09034705323
2.29393066308 -1.42589564263 -0.369681427094 1.84444271506 -0.452758669038 0.12267107693 1.61863465581 1.78094555855 2.30556170499 -1.15639410409 1.08806384852
2.35584395574 -1.42591155338 -0.374056908029 1.84433404533 -0.452541329566 0.121913450673 1.61908185936 1.78060000536 2.30975513105 -1.15755724734 1.08582411558
2.45780454844 -1.42583514343 -0.377720185448 1.84430985818 -0.452492955266 0.119892138408 1.61930076151 1.78018979536 2.31503507221 -1.16013009643 1.0828462712
2.51135714248 -1.42576169103 -0.381394228266 1.8442817773 -0.45243679351 0.117911294503 1.61952491106 1.77977454274 2.32025158367 -1.1626665812 1.07992008528
2.55323858999 -1.42569115326 -0.385078757041 1.84424986495 -0.452372968809 0.115970417742 1.61975422277 1.77935427807 2.3254060925 -1.16516672062 1.07704402765
2.58905501984 -1.4256234874 -0.388773502735 1.84421418443 -0.452301607776 0.114069007232 1.61998861059 1.7789290406 2.33049998919 -1.16763057207 1.07421661006
2.62092594411 -1.42555865088 -0.392478205655 1.84417479999 -0.452222838887 0.112206563127 1.62022798765 1.77849887721 2.33553462767 -1.17005822818 1.07143638541
2.65014314918 -1.42549660137 -0.396192615075 1.84413177659 -0.452136792083 0.11038258699 1.62047226643 1.77806384179 2.34051132627 -1.17244981402 1.06870194706
2.68002356215 -1.42543729687 -0.39991648883 1.84408517971 -0.452043598325 0.108596582156 1.62072135913 1.7776239946 2.3454313685 -1.17480548451 1.06601192817
2.71311194145 -1.42538069571 -0.403649592994 1.8440350752 -0.45194338931 0.106848054036 1.62097517777 1.77717940167 2.35029600391 -1.17712542197 1.06336500088
2.75086043415 -1.42532675663 -0.407391701535 1.84398152911 -0.451836297126 0.105136510422 1.62123363438 1.77673013424 2.35510644903 -1.1794098338 1.0607598756
2.79611921187 -1.42527543882 -0.411142596011 1.84392460756 -0.451722454023 0.103461461748 1.6214966412 1.77627626821 2.35986388815 -1.18165895034 1.05819530015
2.85743595142 -1.42522670193 -0.414902065242 1.84386437659 -0.451601992099 0.101822421361 1.6217641108 1.77581788366 2.3645694742 -1.18387302284 1.05567005901
2.92425149647 -1.42507743421 -0.417172898815 1.84391091463 -0.45169506817 0.0989612383457 1.62173015547 1.77532591036 2.3696946269 -1.18740492611 1.05283455451
2.97261365261 -1.4249310676 -0.419470046504 1.84395292264 -0.451779084179 0.0961270136107 1.62170576247 1.77484183061 2.37478379414 -1.19091967975 1.05002931821
3.01277218103 -1.42478759145 -0.421793120458 1.84399039635 -0.451854031601 0.0933199029519 1.62169077188 1.77436517851 2.37983710297 -1.19441661053 1.0472539964
3.04781683527 -1.42464699388 -0.42414173725 1.84402333501 -0.451919908919 0.0905400500499 1.62168502519 1.7738955025 2.38485469428 -1.1978950783 1.04450822334
3.07901106559 -1.42450926188 -0.426515517643 1.84405174126 -0.451976721422 0.0877875870105 1.62168836521 1.77343236523 2.38983672143 -1.20135447514 1.04179162225
3.11322808916 -1.42437438134 -0.428914086622 1.84407562096 -0.45202448083 0.0850626345559 1.62170063625 1.77297534364 2.39478334948 -1.20479422478 1.03910380635
3.15147787814 -1.42424233719 -0.43133707344 1.84409498304 -0.452063204994 0.082365302213 1.62172168412 1.77252402895 2.39969475445 -1.20821378201 1.0364443797
3.1870904546 -1.4241131134 -0.433784111665 1.84410983934 -0.452092917582 0.0796956885065 1.62175135619 1.77207802661 2.40457112259 -1.21161263204 1.03381293821
3.22754977233 -1.42398669314 -0.436254839188 1.84412020441 -0.452113647735 0.077053881169 1.62178950155 1.77163695626 2.40941264968 -1.21499028985 1.03120907049
3.27655863288 -1.42386305878 -0.438748898282 1.84412609546 -0.452125429821 0.0744399573339 1.6218359709 1.77120045159 2.41421954042 -1.21834629953 1.02863235867
3.34583573536 -1.423742192 -0.441265935601 1.84412753209 -0.452128303098 0.0718539837554 1.62189061672 1.77076816025 2.41899200774 -1.22168023358 1.02608237925
3.39959053254 -1.42355888764 -0.44230904065 1.84421239392 -0.452298026752 0.0686296433513 1.62172258187 1.7703601249 2.42346433312 -1.22564231712 1.0236919818
3.44248821994 -1.42337786564 -0.443385832739 1.84429299246 -0.452459223822 0.0654165146754 1.62156496705 1.76996359252 2.42792634378 -1.22960475575 1.02131467045
3.47936306855 -1.42319913917 -0.44449607726 1.84436927842 -0.452611795757 0.0622150153696 1.62141765245 1.76957817524 2.43237757589 -1.23356681307 1.01895058718
3.51234387669 -1.42302272012 -0.445639535972 1.84444120549 -0.452755649889 0.0590255584431 1.62128051787 1.76920348321 2.43681757967 -1.23752776072 1.01659986042
3.54428226005 -1.42284861917 -0.446815967098 1.84450873025 -0.452890699414 0.0558485521393 1.62115344273 1.76883912514 2.44124591928 -1.24148687885 1.01426260517
3.57931919179 -1.42267684574 -0.448025125488 1.84457181223 -0.453016863369 0.0526843996955 1.62103630625 1.76848470902 2.44566217275 -1.2454434567 1.01193892315
3.61110220467 -1.42250740809 -0.449266762786 1.84463041383 -0.453134066575 0.049533499111 1.62092898756 1.7681398427 2.45006593193 -1.24939679314 1.00962890291
3.64244874852 -1.42234031333 -0.450540627601 1.84468450035 -0.453242239611 0.0463962429179 1.62083136576 1.76780413447 2.45445680247 -1.25334619723 1.00733262002
3.67343993296 -1.42217556744 -0.45184646567 1.84473403992 -0.453341318751 0.0432730179654 1.62074332007 1.76747719371 2.4588344037 -1.25729098864 1.00505013724
3.70741887853 -1.42201317532 -0.453184020012 1.84477900349 -0.453431245886 0.0401642052117 1.6206647299 1.76715863138 2.46319836851 -1.26123049821 1.00278150475
3.74539235091 -1.4218531408 -0.454553031095 1.84481936478 -0.453511968459 0.0370701795217 1.62059547496 1.76684806059 2.46754834331 -1.26516406831 1.00052676032
3.7900064109 -1.42169546673 -0.455953236997 1.84485510024 -0.453583439389 0.0339913094746 1.6205354353 1.76654509709 2.47188398783 -1.2690910533 0.998285929595
3.83572736617 -1.42154015494 -0.457384373556 1.84488618903 -0.453645616967 0.0309279571828 1.62048449143 1.7662493598 2.47620497502 -1.27301081992 0.996059026326
3.87613685836 -1.4213466633 -0.457937739155 1.84497085182 -0.453814942541 0.0274584965781 1.62031165025 1.76595923945 2.48035912727 -1.27732901525 0.993966840137
3.91170753472 -1.42115527952 -0.458529294093 1.84505089187 -0.453975022656 0.0239940420945 1.62014928297 1.76568050267 2.484512595 -1.28165406221 0.991881682216
3.94390425505 -1.42096602191 -0.459158887077 1.84512624599 -0.45412573088 0.0205350889276 1.61999728951 1.76541280824 2.48866477821 -1.28598523909 0.989803774294
3.97362890235 -1.42077890766 -0.459826360079 1.84519685362 -0.454266946156 0.0170821326068 1.61985556889 1.7651558074 2.49281508575 -1.29032182304 0.987733328438
4.00134207226 -1.42059395281 -0.460531548468 1.84526265701 -0.454398552936 0.0136356686102 1.61972401935 1.76490914455 2.49696293568 -1.29466309077 0.985670546757
4.02849432146 -1.42041117228 -0.461274281151 1.84532360116 -0.454520441237 0.0101961920039 1.61960253848 1.76467245789 2.50110775565 -1.29900831933 0.983615621212
4.05729746233 -1.42023057986 -0.462054380695 1.84537963388 -0.454632506673 0.00676419708502 1.61949102332 1.76444538014 2.50524898312 -1.30335678675 0.981568733482
4.0881534135 -1.42005218828 -0.462871663491 1.8454307058 -0.454734650509 0.00334017702042 1.61938937046 1.76422753921 2.50938606567 -1.3077077728 0.97953005479
4.12186853304 -1.41987600918 -0.463725939864 1.84547677036 -0.454826779627 -7.53765005161e-05 1.61929747625 1.76401855888 2.51351846121 -1.31206055967 0.977499745862
4.15960748104 -1.41970205312 -0.464617014269 1.84551778386 -0.454908806635 -0.00348197363289 1.61921523677 1.76381805943 2.51764563824 -1.31641443263 0.97547795671
4.19320360804 -1.41953032966 -0.465544685408 1.84555370544 -0.454980649785 -0.00687912671415 1.61914254804 1.76362565833 2.52176707602 -1.32076868074 0.973464826662
4.22958189321 -1.41936084734 -0.466508746408 1.84558449706 -0.455042233034 -0.01026635062 1.61907930602 1.76344097089 2.52588226482 -1.32512259749 0.971460484234
4.27103268011 -1.4191936137 -0.467508984958 1.84561012353 -0.455093485966 -0.0136431630986 1.61902540679 1.7632636109 2.52999070597 -1.32947548148 0.969465047162
4.32138035089 -1.41902863532 -0.468545183504 1.84563055247 -0.455134343855 -0.0170090851191 1.61898074653 1.76309319123 2.53409191214 -1.333826637 0.967478622298
4.38818693124 -1.41886591785 -0.469617119369 1.84564575431 -0.45516474753 -0.0203636411908 1.6189452217 1.76292932446 2.53818540734 -1.33817537471 0.965501305732
4.43514850899 -1.41869632875 -0.470187113408 1.84568769432 -0.455248627548 -0.0236828125882 1.61886049083 1.76277533279 2.54189937463 -1.34240936153 0.963764058589
4.47445316738 -1.4185285857 -0.470791338941 1.84572505745 -0.455323353806 -0.0269970027671 1.61878416911 1.76262883051 2.54561259027 -1.34664760103 0.962031985342
4.50898002826 -1.41836269884 -0.471429666679 1.8457578032 -0.455388845303 -0.0303057800172 1.61871618065 1.76248951729 2.5493245782 -1.35088950672 0.960305229389
4.5402252174 -1.41819867758 -0.472101961893 1.8457858932 -0.455445025314 -0.0336087124683 1.61865644947 1.762357089 2.55303486884 -1.35513449205 0.958583927129
4.56906560031 -1.4180365306 -0.472808084533 1.8458092913 -0.4554918215 -0.0369053683923 1.61860489946 1.76223123818 2.55674299944 -1.35938197092 0.956868207722
4.59594932589 -1.41787626584 -0.473547889293 1.84582796347 -0.455529165858 -0.0401953164797 1.61856145451 1.76211165451 2.56044851418 -1.3636313582 0.95515819306
4.62335368388 -1.41771789055 -0.474321225719 1.84584187792 -0.455556994741 -0.0434781261251 1.61852603854 1.7619980253 2.56415096444 -1.36788207023 0.953453997652
4.65271031884 -1.41756141127 -0.475127938313 1.84585100497 -0.455575248854 -0.0467533677075 1.61849857559 1.76189003597 2.56784990897 -1.37213352533 0.951755728552
4.68451119065 -1.41740683388 -0.475967866665 1.84585531719 -0.455583873294 -0.0500206128788 1.6184789898 1.76178737047 2.57154491405 -1.37638514427 0.950063485226
4.71380864444 -1.41725416358 -0.476840845521 1.84585478928 -0.455582817465 -0.0532794348321 1.61846720555 1.76168971177 2.57523555367 -1.38063635079 0.948377359605
4.74110265202 -1.41710340493 -0.477746704945 1.84584939811 -0.455572035137 -0.0565294085894 1.61846314738 1.76159674227 2.57892140966 -1.38488657205 0.946697435934
4.77046020343 -1.41695456187 -0.478685270388 1.84583912272 -0.455551484342 -0.0597701112638 1.61846674016 1.7615081443 2.5826020718 -1.38913523915 0.945023790858
4.8008290472 -1.41680763772 -0.479656362847 1.84582394426 -0.455521127424 -0.0630011223421 1.61847790903 1.76142360051 2.58627713799 -1.39338178753 0.943356493315
4.83399251621 -1.41666263523 -0.480659798962 1.84580384602 -0.455480930946 -0.0662220239435 1.61849657945 1.76134279426 2.58994621433 -1.39762565747 0.941695604603
4.87116595807 -1.41651955654 -0.481695391157 1.8457788134 -0.4554308657 -0.0694324010905 1.61852267723 1.76126541009 2.59360891519 -1.40186629448 0.94004117835
4.9145715128 -1.41637840328 -0.482762947739 1.84574883384 -0.455370906594 -0.0726318419576 1.61855612858 1.76119113409 2.5972648633 -1.40610314983 0.938393260615
4.95727280014 -1.4162391765 -0.483862273071 1.8457138969 -0.455301032705 -0.0758199381409 1.61859686005 1.76111965427 2.60091368987 -1.41033568083 0.936751889826
5.00164765527 -1.41610187678 -0.484993167656 1.84567399411 -0.455221227132 -0.0789962848942 1.61864479861 1.76105066095 2.60455503457 -1.41456335134 0.935117096937
5.03995761877 -1.41595689573 -0.485966858402 1.84564439849 -0.455162035895 -0.082271889893 1.61867770302 1.76097734356 2.60817522298 -1.41889027684 0.933532080219
5.07370059908 -1.41581382107 -0.486973694809 1.84560971811 -0.455092675125 -0.085537230236 1.61871801428 1.7609070411 2.61178976789 -1.42321437022 0.931952779511
5.10450343278 -1.41567265468 -0.488013486021 1.84556994078 -0.455013120473 -0.0887918733602 1.61876566152 1.76083943843 2.61539827536 -1.42753507273 0.930379241972
5.13290026291 -1.41553339792 -0.489086036849 1.84552505641 -0.454923351733 -0.0920353899671 1.6188205743 1.76077422224 2.61900035983 -1.43185183145 0.928811507365
5.15960219493 -1.41539605167 -0.490191147905 1.845475057 -0.45482335291 -0.0952673542323 1.61888268246 1.76071108147 2.62259564411 -1.43616409961 0.927249607983
5.18470757255 -1.41526061635 -0.491328615655 1.84541993655 -0.454713112 -0.0984873440491 1.61895191632 1.76064970763 2.62618375935 -1.4404713371 0.925693568893
5.20854524023 -1.4151270919 -0.492498232663 1.84535969111 -0.454592621131 -0.101694941321 1.61902820648 1.76058979517 2.62976434527 -1.44477301071 0.924143407777
5.23140302247 -1.41499547782 -0.493699787637 1.84529431871 -0.454461876328 -0.10488973219 1.61911148396 1.76053104184 2.63333705004 -1.44906859472 0.922599135218
5.2533187915 -1.41486577322 -0.494933065639 1.84522381933 -0.454320877562 -0.108071307308 1.61920168009 1.76047314898 2.6369015304 -1.45335757108 0.921060754657
5.27453918201 -1.41473797678 -0.496197848163 1.84514819483 -0.454169628564 -0.111239262058 1.61929872665 1.76041582188 2.6404574516 -1.45763942995 0.919528262637
5.29508403854 -1.4146120868 -0.497493913356 1.845067449 -0.454008136899 -0.114393196813 1.61940255565 1.76035877004 2.64400448753 -1.46191366987 0.918001648761
5.31497273354 -1.41448810126 -0.4988210361 1.84498158743 -0.453836413764 -0.117532717149 1.61951309948 1.76030170745 2.64754232059 -1.46617979821 0.916480895958
5.33422418123 -1.41436601774 -0.500178988183 1.84489061753 -0.453654473963 -0.120657434071 1.61963029085 1.76024435288 2.65107064175 -1.47043733141 0.914965980568
5.3530431632 -1.41424583352 -0.501567538455 1.84479454846 -0.453462335829 -0.123766964229 1.61975406273 1.76018643011 2.65458915052 -1.47468579531 0.913456872492
5.37199484378 -1.41412754559 -0.502986452953 1.8446933911 -0.453260021116 -0.126860930119 1.61988434837 1.76012766816 2.65809755489 -1.47892472539 0.911953535379
5.39146176384 -1.41401115063 -0.50443549508 1.84458715803 -0.453047554963 -0.129938960288 1.62002108125 1.76006780152 2.66159557134 -1.48315366701 0.910455926746
5.41145588842 -1.41389664503 -0.505914425718 1.84447586342 -0.452824965743 -0.13300068951 1.62016419506 1.76000657036 2.66508292473 -1.48737217573 0.90896399822
5.43198941971 -1.41378402496 -0.507423003393 1.84435952305 -0.452592285008 -0.136045758977 1.62031362373 1.75994372066 2.66855934828 -1.49157981744 0.9074776957
5.45307480019 -1.41367328632 -0.508960984441 1.84423815426 -0.452349547436 -0.139073816472 1.62046930129 1.75987900445 2.67202458355 -1.49577616857 0.905996959498
5.47472471803 -1.4135644248 -0.510528122994 1.84411177589 -0.452096790693 -0.142084516344 1.62063116193 1.75981217985 2.67547838006 -1.49996081623 0.904521724656
5.49717439082 -1.4134574359 -0.512124171637 1.84398040819 -0.451834055287 -0.145077520374 1.62079913997 1.7597430115 2.67892049611 -1.50413335872 0.903051920991
5.52045110895 -1.41335231489 -0.513748880833 1.84384407287 -0.451561384646 -0.148052496862 1.62097316977 1.75967127026 2.68235069747 -1.50829340508 0.901587473444
5.54482435413 -1.41324905688 -0.515401999536 1.84370279299 -0.451278824884 -0.151009121466 1.62115318573 1.75959673359 2.68576875807 -1.51244057563 0.900128302241
5.57034337725 -1.4131476568 -0.517083275217 1.84355659292 -0.450986424756 -0.153947077152 1.6213391223 1.75951918559 2.68917445973 -1.51657450199 0.898674323106
5.59726901896 -1.41304810946 -0.518792454011 1.84340549833 -0.450684235565 -0.156866054311 1.62153091388 1.75943841706 2.69256759204 -1.52069482714 0.897225447493
5.62258709611 -1.41295040948 -0.520529280865 1.84324953609 -0.450372311091 -0.159765750873 1.62172849482 1.75935422558 2.69594795231 -1.5248012055 0.895781582782
5.64755219576 -1.41285455141 -0.522293499654 1.84308873427 -0.450050707453 -0.162645872391 1.62193179942 1.75926641557 2.69931534538 -1.52889330304 0.894342632564
5.67394263488 -1.41276052963 -0.524084853344 1.84292312208 -0.449719483069 -0.165506132144 1.62214076185 1.75917479828 2.70266958358 -1.53297079723 0.892908496809
5.70211627442 -1.41266833845 -0.52590308411 1.84275272981 -0.449378698531 -0.16834625121 1.62235531615 1.75907919187 2.70601048659 -1.53703337715 0.891479072133
5.73249173304 -1.41257797208 -0.527747933488 1.84257758882 -0.449028416555 -0.171165958545 1.62257539619 1.75897942142 2.70933788132 -1.54108074342 0.890054251992
5.76583367377 -1.41248942464 -0.529619142485 1.84239773147 -0.44866870185 -0.173964991034 1.62280093564 1.75887531889 2.71265160179 -1.54511260825 0.888633926948
5.79572721283 -1.41240269017 -0.531516451713 1.84221319107 -0.448299621042 -0.176743093548 1.62303186798 1.75876672313 2.715951489 -1.54912869543 0.887217984892
5.82312627723 -1.41231776267 -0.533439601541 1.84202400186 -0.447921242638 -0.179500019002 1.62326812641 1.7586534799 2.71923739086 -1.55312874018 0.885806311214
5.85295201648 -1.41223463606 -0.535388332186 1.84183019898 -0.447533636872 -0.182235528374 1.62350964387 1.75853544178 2.722509162 -1.55711248923 0.884398789101
5.88574138061 -1.41215330421 -0.537362383849 1.84163181837 -0.447136875655 -0.184949390734 1.62375635303 1.75841246818 2.72576666365 -1.56107970072 0.882995299728
5.92290009741 -1.41207376096 -0.539361496841 1.8414288968 -0.446731032508 -0.18764138328 1.62400818622 1.75828442524 2.72900976355 -1.56503014404 0.88159572246
5.95550516859 -1.41199600013 -0.541385411678 1.84122147176 -0.446316182435 -0.190311291325 1.62426507546 1.75815118583 2.7322383358 -1.56896359987 0.880199935112
5.98504581346 -1.41192001547 -0.543433869226 1.8410095815 -0.445892401911 -0.192958908326 1.62452695239 1.75801262945 2.73545226074 -1.57287985995 0.878807814104
6.012515521 -1.41185583501 -0.545653102905 1.84077940502 -0.445432048958 -0.195443128928 1.62480373081 1.75788120474 2.73862107579 -1.57664323426 0.877371841723
6.03786638187 -1.41179338895 -0.547894215683 1.84054511932 -0.444963477546 -0.197903731239 1.62508498442 1.75774364154 2.74177386357 -1.58038752478 0.875939640826
6.06161144486 -1.41173266994 -0.550156957997 1.84030676737 -0.444486773653 -0.200340589635 1.62537064342 1.75759987143 2.74491057091 -1.58411261911 0.874511070799
6.08407342129 -1.4116736707 -0.552441081847 1.84006439247 -0.444002023856 -0.202753586366 1.6256606377 1.75744983201 2.74803114967 -1.58781841485 0.873085991411
6.10708078587 -1.41161638398 -0.554746340689 1.83981803822 -0.443509315344 -0.205142611281 1.62595489679 1.75729346659 2.75113555635 -1.59150481928 0.871664263021
6.13135938839 -1.41156080257 -0.557072489544 1.8395677485 -0.443008735907 -0.207507561773 1.62625334981 1.75713072416 2.75422375207 -1.59517174909 0.870245746679
6.1569779547 -1.41150691928 -0.559419284999 1.83931356744 -0.442500373779 -0.209848342647 1.62655592561 1.75696155913 2.75729570227 -1.59881913027 0.868830304386
6.18455219994 -1.41145472698 -0.561786485331 1.83905553938 -0.441984317671 -0.21216486607 1.62686255264 1.75678593128 2.7603513767 -1.60244689778 0.867417799151
6.2147736243 -1.41140421859 -0.564173850546 1.83879370889 -0.441460656692 -0.214457051469 1.62717315899 1.7566038056 2.76339074929 -1.60605499539 0.866008095154
6.24311830574 -1.41135538703 -0.566581142432 1.83852812068 -0.440929480272 -0.216724825421 1.62748767242 1.7564151521 2.766413798 -1.60964337542 0.864601057907
6.27423482626 -1.41130822532 -0.569008124623 1.83825881962 -0.44039087814 -0.218968121562 1.62780602037 1.75621994572 2.76942050471 -1.61321199856 0.863196554354
6.30942744999 -1.41126272648 -0.571454562644 1.83798585067 -0.439844940254 -0.22118688048 1.62812812993 1.75601816615 2.77241085506 -1.61676083358 0.861794453007
6.35142834399 -1.41121888359 -0.573920223976 1.83770925894 -0.439291756787 -0.223381049613 1.62845392789 1.75580979772 2.77538483846 -1.62028985712 0.860394624034
6.38617798957 -1.41117668977 -0.576404878085 1.83742908957 -0.438731418042 -0.225550583132 1.62878334071 1.75559482923 2.77834244783 -1.62379905347 0.858996939395
6.41758424758 -1.41113613821 -0.578908296483 1.83714538777 -0.438164014452 -0.227695441842 1.62911629455 1.75537325384 2.7812836796 -1.62728841429 0.857601272908
6.45328267077 -1.4110972221 -0.581430252745 1.83685819879 -0.437589636491 -0.229815593042 1.62945271531 1.75514506885 2.78420853353 -1.63075793846 0.856207500386
6.4960716815 -1.4110599347 -0.583970522569 1.83656756788 -0.437008374665 -0.231911010429 1.62979252863 1.75491027567 2.78711701267 -1.63420763179 0.85481549969
6.54157576303 -1.41102426932 -0.586528883793 1.83627354027 -0.436420319457 -0.233981673967 1.63013565987 1.75466887957 2.79000912317 -1.63763750678 0.853425150833
6.5829316317 -1.4110115991 -0.589602496734 1.83592476614 -0.435722771192 -0.235828039515 1.63051667796 1.75444415313 2.7929944867 -1.64096198703 0.85181657837
6.61735423793 -1.41100067684 -0.592691701965 1.8355729221 -0.435019083118 -0.237645548236 1.63090047255 1.7542111276 2.79595974189 -1.64426203628 0.850210436405
6.64775058038 -1.41099149283 -0.595796277338 1.83521806271 -0.434309364331 -0.239434319537 1.63128695425 1.75396988894 2.79890499781 -1.64753781866 0.84860657646
6.67540228976 -1.41098403746 -0.598916004428 1.83486024198 -0.433593722867 -0.241194477811 1.63167603397 1.75372052524 2.80183036487 -1.65078950237 0.847004854685
6.70106044157 -1.41097830123 -0.602050668309 1.83449951348 -0.432872265866 -0.242926152128 1.63206762276 1.75346312663 2.80473595457 -1.65401725915 0.845405131802
6.7251046842 -1.41097427472 -0.605200057484 1.83413593029 -0.432145099487 -0.244629475988 1.63246163201 1.75319778499 2.80762187931 -1.65722126411 0.843807273156
6.7499916831 -1.41097194863 -0.608363963892 1.83376954502 -0.431412328953 -0.246304587181 1.63285797333 1.75292459389 2.8104882524 -1.66040169538 0.842211148619
6.77679461737 -1.4109713137 -0.611542182855 1.83340040979 -0.430674058488 -0.247951627557 1.6332565587 1.75264364836 2.8133351879 -1.66355873396 0.840616632607
6.80623874395 -1.41097236077 -0.614734513087 1.83302857623 -0.429930391373 -0.249570742911 1.63365730043 1.75235504485 2.81616280068 -1.66669256332 0.839023603965
6.83952521841 -1.41097508077 -0.617940756626 1.83265409548 -0.429181429878 -0.251162082742 1.63406011123 1.752058881 2.81897120621 -1.66980336927 0.837431945987
6.86922420632 -1.41097946469 -0.621160718833 1.83227701819 -0.428427275294 -0.25272580013 1.63446490419 1.75175525558 2.82176052063 -1.67289133969 0.835841546314
6.90159631899 -1.41098550358 -0.624394208335 1.8318973945 -0.427668027901 -0.254262051526 1.6348715929 1.75144426832 2.82453086055 -1.67595666432 0.83425229692
6.93887156204 -1.41099318857 -0.627641037029 1.83151527405 -0.426903787003 -0.25577099665 1.63528009136 1.75112601988 2.82728234318 -1.67899953447 0.832664093992
6.98562634054 -1.41100251085 -0.63090102001 1.83113070599 -0.426134650879 -0.257252798258 1.6356903141 1.75080061162 2.83001508608 -1.68202014291 0.831076837934
7.03108295601 -1.41101346168 -0.634173975553 1.83074373895 -0.425360716803 -0.258707622026 1.63610217619 1.75046814556 2.83272920722 -1.68501868365 0.829490433269
7.08461904336 -1.41106678424 -0.637839978029 1.83032130267 -0.424515844248 -0.259481283044 1.63649647845 1.75023550204 2.83513571685 -1.68731263578 0.827747616388
7.1263586652 -1.41112141809 -0.641512029682 1.82989778689 -0.423668812684 -0.260232516543 1.63689114514 1.74999610541 2.83752538855 -1.68958649288 0.826006894562
7.16201296018 -1.41117735427 -0.645190049858 1.82947322447 -0.422819687846 -0.260961580561 1.63728611526 1.74975010313 2.83989839827 -1.6918405317 0.824268196788
7.19370500792 -1.41123458393 -0.648873959996 1.82904764773 -0.421968534365 -0.261668731241 1.63768132886 1.74949764026 2.84225491985 -1.69407502477 0.822531455689
7.22272803462 -1.41129309828 -0.652563683382 1.82862108845 -0.421115415799 -0.262354222627 1.63807672714 1.74923885919 2.84459512475 -1.69629024072 0.820796607489
7.2495719974 -1.41135288857 -0.65625914511 1.82819357788 -0.420260394676 -0.26301830667 1.6384722524 1.74897389975 2.84691918216 -1.69848644414 0.819063591871
7.27489899119 -1.41141394615 -0.659960272067 1.82776514681 -0.419403532537 -0.263661233283 1.63886784795 1.74870289935 2.84922725909 -1.70066389554 0.817332351817
7.30236594726 -1.4114762624 -0.663666992854 1.82733582551 -0.41854488992 -0.264283250225 1.63926345825 1.74842599288 2.85151952033 -1.70282285148 0.815602833545
7.33215304951 -1.41153982878 -0.667379237761 1.82690564374 -0.417684526397 -0.264884603131 1.6396590288 1.74814331279 2.8537961285 -1.70496356461 0.813874986368
7.36510490205 -1.41160463677 -0.671096938726 1.82647463084 -0.416822500595 -0.2654655355 1.64005450618 1.74785498917 2.85605724413 -1.70708628359 0.812148762586
7.40253363996 -1.41167067795 -0.674820029284 1.82604281565 -0.415958870205 -0.266026288667 1.64044983803 1.74756114973 2.85830302564 -1.70919125323 0.810424117382
7.44760346453 -1.4117379439 -0.678548444539 1.82561022655 -0.415093692007 -0.266567101798 1.64084497306 1.74726191987 2.86053362938 -1.71127871449 0.808701008721
7.49809883884 -1.41180642628 -0.682282121117 1.82517689149 -0.414227021884 -0.267088211885 1.641239861 1.7469574227 2.86274920969 -1.71334890449 0.806979397245
7.57873414017 -1.41193673115 -0.686460889574 1.82471022504 -0.413293688983 -0.266585173831 1.64156966714 1.74686410114 2.86442907147 -1.71429787256 0.805063986851
7.63104188091 -1.41206777286 -0.690640387618 1.82424408008 -0.412361399074 -0.266073591563 1.64189891193 1.74676660503 2.86610094632 -1.71523689355 0.803151996049
7.67321004635 -1.41219954494 -0.694820629992 1.82377846488 -0.411430168659 -0.265553621015 1.64222757888 1.7466650281 2.86776492512 -1.71616612824 0.801243411137
7.70953816739 -1.41233204094 -0.699001631226 1.82331338755 -0.410500014012 -0.265025415089 1.64255565228 1.74655946151 2.86942109707 -1.71708573375 0.799338219329
7.74210594526 -1.41246525446 -0.703183405641 1.82284885615 -0.409570951201 -0.264489123914 1.64288311713 1.74644999428 2.87106954993 -1.7179958633 0.797436408694
7.77435734038 -1.41259917908 -0.707365967335 1.82238487859 -0.408642996088 -0.263944894832 1.64320995911 1.74633671319 2.87271037001 -1.7188966665 0.79553796813
7.80998976887 -1.41273380845 -0.711549330158 1.82192146271 -0.407716164332 -0.263392872272 1.64353616468 1.74621970258 2.87434364184 -1.71978828975 0.793642887354
7.85095630344 -1.41286913622 -0.715733507752 1.82145861624 -0.406790471398 -0.262833198056 1.64386172093 1.74609904476 2.87596944865 -1.72067087595 0.791751156832
7.90045869399 -1.41300515608 -0.719918513527 1.82099634682 -0.405865932557 -0.262266011298 1.64418661563 1.74597481987 2.8775878721 -1.72154456483 0.789862767766
7.97016729021 -1.41314186173 -0.724104360692 1.82053466199 -0.404942562893 -0.261691448633 1.64451083714 1.74584710622 2.87919899258 -1.72240949276 0.787977712037
8.04265156861 -1.4132792469 -0.728291062223 1.8200735692 -0.404020377304 -0.261109644089 1.64483437448 1.74571597999 2.88080288897 -1.72326579321 0.786095982201
8.09377313308 -1.41346405645 -0.732221750737 1.81966164796 -0.403196534836 -0.259468544821 1.64500663257 1.74591097906 2.88149162172 -1.72266157903 0.784333473475
8.14000413784 -1.41364902435 -0.736157013194 1.81925032408 -0.402373887063 -0.257835164919 1.64518027496 1.74610436806 2.88218593296 -1.72206149711 0.782574304233
8.17871264474 -1.41383414776 -0.740096804502 1.81883960786 -0.401552454628 -0.256209402774 1.64535529648 1.7462961185 2.88288573275 -1.72146545826 0.780818491125
8.21264457392 -1.41401942385 -0.744041080368 1.81842950948 -0.400732257862 -0.254591158567 1.64553169179 1.74648620282 2.88359093211 -1.72087337574 0.779066050494
8.24339729263 -1.41420484976 -0.747989797282 1.81802003888 -0.399913316665 -0.252980334762 1.64570945536 1.74667459501 2.88430144358 -1.72028516461 0.777316998499
8.27182854604 -1.4143904226 -0.751942912463 1.81761120591 -0.399095650736 -0.251376835135 1.64588858159 1.74686126951 2.88501718017 -1.71970074276 0.775571350906
8.30204215285 -1.4145761395 -0.755900383884 1.8172030202 -0.398279279311 -0.249780565846 1.64606906467 1.74704620242 2.88573805665 -1.7191200295 0.773829123333
8.3354531591 -1.41476199755 -0.75986217023 1.8167954912 -0.397464221316 -0.248191434787 1.64625089867 1.74722937083 2.88646398881 -1.71854294628 0.772090331114
8.37351902683 -1.41494799383 -0.763828230876 1.81638862825 -0.396650495414 -0.246609351364 1.64643407759 1.74741075253 2.88719489327 -1.71796941678 0.770354989263
8.41863596819 -1.41513412543 -0.767798525891 1.81598244048 -0.395838119865 -0.245034227061 1.64661859528 1.74759032672 2.88793068815 -1.71739936621 0.768623112601
8.4787762759 -1.4153203894 -0.771773016002 1.81557693688 -0.395027112673 -0.24346597482 1.6468044455 1.74776807327 2.8886712924 -1.71683272187 0.766894715635
8.53277632563 -1.41551496431 -0.774972438056 1.81526743038 -0.394408099663 -0.24135596612 1.64684612408 1.74820834937 2.88861753293 -1.71525793772 0.765515447412
8.57349711953 -1.41570957586 -0.778183446073 1.81495760912 -0.393788457154 -0.239258169479 1.64689136156 1.74864766984 2.88857573483 -1.71369314606 0.764137551152
8.60800365201 -1.41590422048 -0.781405923129 1.81464749902 -0.393168236943 -0.237172462758 1.64694013865 1.74908597558 2.88854579343 -1.71213821926 0.762761060704
8.63843007372 -1.41609889458 -0.784639753697 1.81433712559 -0.392547490087 -0.235098724704 1.64699243581 1.74952320837 2.88852760378 -1.71059303164 0.761386009824
8.6660704493 -1.41629359457 -0.78788482356 1.81402651392 -0.391926266739 -0.233036835486 1.64704823339 1.7499593114 2.88852106122 -1.70905745893 0.7600124324
8.69168339198 -1.41648831686 -0.791141019818 1.81371568872 -0.391304616352 -0.230986676218 1.6471075115 1.75039422874 2.88852606093 -1.70753137876 0.75864036219
8.71565385761 -1.41668305787 -0.794408230867 1.81340467436 -0.39068258762 -0.228948129109 1.6471702501 1.7508279055 2.8885424981 -1.70601467051 0.757269832885
8.74018774015 -1.416877814 -0.797686346385 1.81309349478 -0.390060228466 -0.226921077515 1.647236429 1.75126028788 2.88857026803 -1.70450721521 0.755900878111
8.76657800624 -1.41707258167 -0.800975257312 1.81278217355 -0.389437586016 -0.224905406039 1.64730602787 1.75169132329 2.88860926625 -1.70300889544 0.75453353146
8.79553444223 -1.4172673573 -0.804274855846 1.81247073389 -0.38881470669 -0.222901000297 1.64737902625 1.75212096008 2.88865938834 -1.70151959554 0.753167826356
8.8279438183 -1.4174621373 -0.807585035422 1.81215919863 -0.388191636171 -0.220907747033 1.64745540355 1.75254914767 2.88872053008 -1.70003920148 0.751803796105
8.86568917395 -1.4176569181 -0.810905690706 1.81184759025 -0.387568419419 -0.218925534085 1.64753513905 1.75297583651 2.8887925874 -1.69856760087 0.750441473853
8.91257369451 -1.41785169613 -0.814236717571 1.81153593087 -0.386945100653 -0.216954250464 1.64761821198 1.75340097815 2.88887545656 -1.69710468287 0.749080892616
8.96937111346 -1.41804838768 -0.817064282432 1.81128263412 -0.386438507146 -0.214706179065 1.64761660606 1.75399760396 2.88848871181 -1.69508205661 0.747947461259
9.00994623967 -1.41824517524 -0.819908094104 1.81102848591 -0.385930210733 -0.212469883026 1.64761976924 1.75459283747 2.88811584449 -1.69307041025 0.746814068671
9.04369793047 -1.41844205294 -0.822768011512 1.81077352016 -0.385420279237 -0.210245287678 1.6476276754 1.75518662135 2.88775677812 -1.69106964611 0.745680764175
9.07329149094 -1.41863901492 -0.825643894576 1.81051777034 -0.384908779598 -0.208032317908 1.64764029824 1.75577889886 2.88741143502 -1.68907966684 0.74454759716
9.10022958903 -1.41883605535 -0.828535604163 1.81026126954 -0.384395777988 -0.205830898112 1.64765761125 1.7563696137 2.88707973625 -1.68710037571 0.743414616951
9.12499379184 -1.41903316842 -0.831443002081 1.8100040504 -0.383881339713 -0.203640952408 1.64767958771 1.75695871017 2.8867616018 -1.68513167642 0.742281872912
9.14821535879 -1.41923034832 -0.834365951105 1.80974614522 -0.383365529343 -0.201462404417 1.64770620069 1.75754613297 2.8864569504 -1.68317347335 0.741149414249
9.17020649204 -1.41942758928 -0.837304314953 1.80948758582 -0.382848410551 -0.199295177629 1.64773742311 1.75813182755 2.88616569993 -1.68122567129 0.740017290215
9.19209311215 -1.41962488556 -0.840257958317 1.80922840368 -0.382330046261 -0.197139195125 1.64777322769 1.75871573981 2.88588776716 -1.67928817572 0.73888554988
9.21544533228 -1.41982223143 -0.843226746857 1.80896862985 -0.381810498614 -0.194994379682 1.64781358699 1.75929781619 2.88562306782 -1.67736089279 0.737754242157
9.24060867128 -1.4200196212 -0.846210547191 1.80870829498 -0.381289828869 -0.192860654029 1.64785847344 1.75987800391 2.88537151694 -1.67544372908 0.736623415935
9.26826668362 -1.42021704919 -0.849209226926 1.80844742934 -0.380768097582 -0.190737940479 1.64790785928 1.7604562506 2.88513302848 -1.67353659203 0.735493119798
9.29927561269 -1.42041450976 -0.852222654632 1.80818606277 -0.380245364442 -0.188626161325 1.64796171665 1.76103250466 2.88490751571 -1.67163938959 0.734363402244
9.33545064689 -1.4206119973 -0.855250699861 1.80792422474 -0.37972168839 -0.186525238625 1.64802001757 1.76160671507 2.88469489106 -1.66975203043 0.733234311508
9.38042254326 -1.42080950623 -0.858293233147 1.80766194433 -0.379197127569 -0.184435094322 1.64808273392 1.76217883142 2.88449506623 -1.66787442392 0.732105895611
9.43486892395 -1.42099191567 -0.860843558027 1.80744779774 -0.378768834397 -0.182386229313 1.648101219 1.76279924414 2.88408087028 -1.66588328219 0.731181586146
9.47359797074 -1.42117441971 -0.863409134649 1.80723290157 -0.378339042039 -0.180346445196 1.64812412206 1.76341784609 2.88367874578 -1.66390108334 0.730257011709
9.50557138941 -1.42135701261 -0.865989849234 1.80701728336 -0.377907805626 -0.178315703138 1.64815141994 1.76403459452 2.88328863968 -1.66192776827 0.729332218475
9.53364471886 -1.42153968866 -0.86858558851 1.80680097034 -0.377475179588 -0.176293963751 1.64818308937 1.7646494472 2.88291049799 -1.65996327766 0.728407252665
9.55920513793 -1.42172244218 -0.871196239719 1.80658398949 -0.377041217898 -0.174281186736 1.64821910685 1.76526236191 2.88254426543 -1.65800755251 0.727482160199
9.58270853618 -1.4219052675 -0.873821690588 1.80636636748 -0.376605973861 -0.172277331318 1.64825944881 1.76587329695 2.88218988585 -1.65606053365 0.726556986999
9.60475322162 -1.42208815902 -0.876461829365 1.80614813068 -0.376169500264 -0.170282355965 1.64830409147 1.7664822108 2.88184730199 -1.65412216216 0.725631778736
9.62563497088 -1.42227111113 -0.879116544815 1.80592930521 -0.375731849327 -0.168296218524 1.64835301093 1.76708906224 2.8815164556 -1.65219237919 0.7247065809
9.64561150358 -1.42245411829 -0.881785726228 1.80570991688 -0.375293072669 -0.166318876308 1.64840618318 1.76769381048 2.88119728753 -1.65027112598 0.723781438838
9.66609916564 -1.42263717497 -0.884469263435 1.80548999124 -0.374853221382 -0.16435028596 1.64846358406 1.76829641492 2.88088973764 -1.648358344 0.722856397613
9.68796268557 -1.42282027568 -0.887167046803 1.80526955352 -0.374412345958 -0.162390403639 1.64852518928 1.76889683542 2.88059374495 -1.64645397481 0.721931502123
9.71152617396 -1.42300341496 -0.889878967246 1.80504862869 -0.373970496295 -0.160439185029 1.6485909745 1.76949503224 2.88030924769 -1.64455796007 0.721006797066
9.73717404727 -1.42318658741 -0.892604916241 1.80482724144 -0.373527721781 -0.158496585179 1.6486609152 1.77009096588 2.88003618314 -1.64267024178 0.720082326799
9.7656499341 -1.42336978765 -0.895344785813 1.80460541612 -0.373084071142 -0.156562558859 1.64873498685 1.77068459742 2.87977448799 -1.64079076192 0.719158135575
9.79822153689 -1.42355301033 -0.898098468575 1.80438317688 -0.372639592674 -0.154637060079 1.64881316472 1.77127588805 2.87952409788 -1.63891946295 0.718234267153
9.83768081701 -1.42373625016 -0.900865857691 1.80416054752 -0.372194333958 -0.152720042735 1.64889542411 1.77186479966 2.87928494803 -1.63705628726 0.717310765254
9.88473161779 -1.42391950187 -0.903646846916 1.8039375516 -0.371748342099 -0.150811460106 1.64898174017 1.77245129439 2.87905697279 -1.63520117765 0.716387673161
10.0 -1.42410276025 -0.906441330584 1.80371421234 -0.371301663591 -0.148911265179 1.64907208803 1.77303533486 2.87884010593 -1.63335407705 0.715465033935
