liuchen18/hilsys_old/sim_sys/data/fwx_planned_trajectory.txt
this is the FWX joint values,the following info is time,x,y,theta,joint1,joint2,joint3,joint4,joint5,joint6,joint7
0.0 -1.45804895775 -0.339975922047 0.169066227835 1.72707803332 -1.00374439898 -0.573578359004 -1.39530862875 -2.26350532525 -0.931494351533 2.33527249115
0.0812690764703 -1.45799209997 -0.344137008642 0.168877276108 1.72745593677 -1.00294149907 -0.573085438353 -1.39623390107 -2.26300113922 -0.929540813339 2.33406256581
0.139352166648 -1.45793585561 -0.348296974045 0.168687235799 1.72783601739 -1.00212894646 -0.572587969193 -1.39714434327 -2.2624919727 -0.927579995199 2.33285670239
0.187541365241 -1.45788022035 -0.352455784068 0.168496124989 1.72821823901 -1.00130664832 -0.572085985278 -1.39804015684 -2.26197802788 -0.925612155842 2.33165488058
0.229871390592 -1.45782518997 -0.356613413316 0.168303960171 1.72860256865 -1.00047455451 -0.571579530276 -1.39892154799 -2.2614594978 -0.923637544264 2.33045706634
0.268181126017 -1.45777076012 -0.360769840045 0.168110757009 1.72898897497 -0.999632632351 -0.571068652801 -1.39978872365 -2.26093656937 -0.921656402059 2.32926322196
0.303549131764 -1.45771692636 -0.364925045829 0.167916530477 1.72937742803 -0.998780864782 -0.570553406121 -1.40064189091 -2.26040942362 -0.919668963382 2.32807330667
0.336527695368 -1.45766368421 -0.369079015342 0.167721294831 1.72976789933 -0.997919249121 -0.570033847466 -1.40148125628 -2.25987823562 -0.917675454997 2.32688727706
0.367361811375 -1.45761058023 -0.373201806429 0.167524441343 1.7301616063 -0.997138834547 -0.569537618239 -1.40231330237 -2.25933353742 -0.915685643822 2.3256965772
0.396685047019 -1.45755829455 -0.377322578373 0.167326528847 1.73055743129 -0.996344832081 -0.569035525503 -1.40313052652 -2.25878548389 -0.913690908927 2.32451043528
0.424574422801 -1.45750660382 -0.381441773306 0.167127734979 1.73095501903 -0.995539343391 -0.568528784688 -1.40393409302 -2.25823412877 -0.91169095593 2.32332854334
0.451365401654 -1.45745550331 -0.385559406353 0.166928051921 1.73135438515 -0.994722516967 -0.568017431466 -1.40472419882 -2.25767958348 -0.909685993718 2.3221508038
0.47710128415 -1.45740498726 -0.389675484617 0.166727489509 1.73175550997 -0.993894463672 -0.567501557887 -1.40550107408 -2.25712199527 -0.907676216195 2.32097714416
0.502070895257 -1.45735505003 -0.393790016656 0.166526056907 1.73215837517 -0.993055299518 -0.566981255927 -1.40626494348 -2.25656150531 -0.905661810037 2.31980749213
0.526297103908 -1.45730568611 -0.39790301222 0.166323762887 1.73256296321 -0.992205144394 -0.566456618037 -1.40701602671 -2.25599824949 -0.90364295483 2.31864177606
0.549802101086 -1.45725689011 -0.402014482151 0.166120615808 1.73296925737 -0.991344121578 -0.565927736801 -1.40775453833 -2.25543235852 -0.901619823317 2.31747992501
0.572486231001 -1.45720822876 -0.406062121293 0.165915634858 1.73337921927 -0.990636010476 -0.565442208002 -1.4084835985 -2.25484394135 -0.899609505171 2.3163104061
0.594708669442 -1.4571603672 -0.410107080074 0.165709861905 1.73379076518 -0.989911291061 -0.564950268338 -1.40919890542 -2.25425416042 -0.897596663461 2.31514583055
0.616920291357 -1.45711307611 -0.414150070187 0.165503407445 1.7342036741 -0.989173418486 -0.564453526186 -1.40990170491 -2.25366261378 -0.895580552005 2.31398566336
0.639567550353 -1.45706635064 -0.418191130444 0.165296258065 1.73461797286 -0.988422654258 -0.563952041553 -1.41059219408 -2.25306937181 -0.893561326797 2.31282977491
0.662659160166 -1.45702018439 -0.422230290996 0.165088417657 1.73503365367 -0.987659221916 -0.56344593561 -1.41127060498 -2.25247453605 -0.891539125479 2.31167806843
0.686439455271 -1.45697457115 -0.42626758177 0.164879889916 1.73545070916 -0.986883341261 -0.562935327314 -1.41193716204 -2.25187820371 -0.889514079865 2.31053045012
0.710929150745 -1.45692950494 -0.430303032596 0.164670678276 1.73586913244 -0.986095229024 -0.562420333303 -1.41259208216 -2.2512804677 -0.887486316151 2.30938682871
0.736149589817 -1.45688497999 -0.434336673069 0.164460786028 1.73628891693 -0.985295098297 -0.561901068176 -1.41323557517 -2.25068141702 -0.885455955152 2.30824711564
0.76541912458 -1.45683446947 -0.438835247224 0.164219007101 1.73677247479 -0.984621229295 -0.561373814117 -1.41395170704 -2.24996143444 -0.883159777516 2.30693669591
0.795849053396 -1.45678494748 -0.443329675873 0.163976551936 1.73725738512 -0.983922434659 -0.560837694617 -1.41465166243 -2.24924217935 -0.880863316872 2.30563300915
0.827810424443 -1.45673612126 -0.44782118296 0.163733467465 1.73774355406 -0.983204836579 -0.560295223862 -1.41533700147 -2.24852248907 -0.87856498523 2.30433512855
0.861818736045 -1.45668798398 -0.452309841385 0.163489733252 1.73823102248 -0.982468894821 -0.559746518608 -1.41600800142 -2.24780242589 -0.876264937107 2.30304284857
0.898506082079 -1.45664052629 -0.456795715461 0.163245348062 1.73871979287 -0.981715038107 -0.559191777693 -1.41666498149 -2.24708207689 -0.873963295359 2.30175601098
0.932709258385 -1.45659373926 -0.46127886786 0.163000310568 1.73920986785 -0.98094368208 -0.558631193752 -1.41730824714 -2.24636152432 -0.871660176417 2.30047446392
0.969606818068 -1.45654761441 -0.465759359839 0.162754619309 1.73970125037 -0.980155230648 -0.558064953422 -1.41793809062 -2.24564084558 -0.869355690532 2.29919806116
1.00282681667 -1.45650221952 -0.470090570855 0.162507530851 1.74019542729 -0.979659242863 -0.557576568029 -1.41853576622 -2.24487644447 -0.867084594324 2.29791783618
1.03650011475 -1.45645773169 -0.474417302813 0.162260088313 1.74069031236 -0.979136024556 -0.557078954846 -1.41911925613 -2.24411499443 -0.864815933161 2.29664430516
1.07257651097 -1.45641387454 -0.478740926117 0.162012278459 1.74118593207 -0.978592773636 -0.556574998827 -1.41968993565 -2.24335478496 -0.862547526479 2.29537654556
1.11200517327 -1.45637064418 -0.483061529354 0.161764068993 1.741682351 -0.978030023896 -0.556064785612 -1.42024802259 -2.24259581744 -0.860279466888 2.29411431639
1.1559644607 -1.45632803211 -0.487379183862 0.161515453397 1.74217958219 -0.977448247947 -0.555548515944 -1.42079379962 -2.24183812644 -0.858011808635 2.29285745808
1.20664261423 -1.4562860302 -0.491693958975 0.161266425204 1.74267763858 -0.976847903134 -0.555026383539 -1.42132753665 -2.24108174374 -0.85574460265 2.2916058174
1.26911023367 -1.45624463066 -0.496005921955 0.161016978252 1.74317653248 -0.976229431647 -0.55449857648 -1.42184949213 -2.24032669888 -0.85347789645 2.29035924782
1.31770297214 -1.45620447296 -0.50013160477 0.160767126651 1.74367623569 -0.975940241208 -0.554054992067 -1.42232664799 -2.23952345245 -0.851256565032 2.28911450963
1.36009563682 -1.456164882 -0.504254160859 0.160517131076 1.74417622684 -0.975629884482 -0.553604798569 -1.42279250857 -2.23872285534 -0.849037364296 2.28787541698
1.39822305277 -1.45612584984 -0.508373662118 0.160266980661 1.74467652767 -0.975298867841 -0.553148199268 -1.42324733611 -2.23792490263 -0.846820295884 2.28664180674
1.43326174435 -1.45608736891 -0.512490178435 0.16001666489 1.74517715921 -0.974947681523 -0.552685391074 -1.42369138144 -2.23712958835 -0.844605360109 2.2854135224
1.47117674173 -1.45604943194 -0.516603777795 0.159766173518 1.74567814195 -0.974576800548 -0.552216564446 -1.4241248843 -2.23633690549 -0.842392556149 2.28419041345
1.51290640908 -1.45601203202 -0.520714526311 0.159515496596 1.7461794958 -0.974186685108 -0.551741903779 -1.42454807399 -2.23554684618 -0.840181882117 2.28297233529
1.56078628723 -1.4559751625 -0.524822488251 0.159264624492 1.74668124001 -0.973777780975 -0.551261587749 -1.42496116992 -2.23475940175 -0.837973335122 2.28175914905
1.6197629166 -1.45593384993 -0.529360038236 0.158972757307 1.74726497437 -0.973726220304 -0.550806493231 -1.42537728467 -2.23377880116 -0.835460625376 2.28035209953
1.66906894822 -1.45589318646 -0.533893744964 0.158680983812 1.74784852136 -0.973645733596 -0.550342628403 -1.42578064231 -2.23280344971 -0.832952921725 2.27895221734
1.71223265546 -1.45585316233 -0.53842370243 0.158389283189 1.74843192261 -0.973537070722 -0.54987028344 -1.42617157969 -2.23183328771 -0.830450156464 2.27755927346
1.75521562637 -1.4558137682 -0.542950001909 0.15809763534 1.74901521831 -0.973400955962 -0.549389738417 -1.4265504172 -2.23086825602 -0.82795226304 2.27617304884
1.80409568071 -1.45577499516 -0.547472732014 0.157806020824 1.74959844734 -0.973238089183 -0.548901263568 -1.42691745961 -2.22990829609 -0.825459176126 2.27479333373
1.86196071041 -1.45573683473 -0.551991978753 0.157514420873 1.75018164724 -0.973049146643 -0.548405119862 -1.42727299697 -2.22895335004 -0.822970831574 2.2734199274
1.93286789801 -1.45570063737 -0.556223343891 0.157224928812 1.75076063136 -0.973317233564 -0.548018167334 -1.42754837078 -2.22793230409 -0.820556441187 2.27206161087
1.99034200454 -1.45566495884 -0.560451630876 0.156935776365 1.75133893626 -0.973556800876 -0.547622694183 -1.42781345504 -2.22691777692 -0.81814866859 2.2707098143
2.03831217233 -1.45562979217 -0.564676904713 0.156646941253 1.75191660648 -0.973768515586 -0.547218953462 -1.42806851603 -2.22590967571 -0.81574740059 2.26936434333
2.08250850917 -1.45559513067 -0.568899228902 0.156358401905 1.75249368518 -0.973953024485 -0.546807190224 -1.42831380784 -2.22490790962 -0.813352527189 2.26802501125
2.13389417094 -1.45556096794 -0.573118665387 0.156070137441 1.75307021411 -0.974110954834 -0.546387641859 -1.42854957298 -2.22391238978 -0.810963941495 2.26669163874
2.19849041408 -1.45552729781 -0.577335274601 0.155782127646 1.7536462337 -0.974242915049 -0.545960538384 -1.42877604297 -2.22292302924 -0.808581539607 2.26536405354
2.29122697588 -1.45549566765 -0.581238052953 0.155497482524 1.75421552394 -0.974860389776 -0.545645532708 -1.42891106887 -2.22186375881 -0.80628087254 2.2640567279
2.3514780401 -1.45546442232 -0.585138913568 0.155213371983 1.75478374502 -0.975450260472 -0.545322282769 -1.42903807475 -2.22081190456 -0.80398794388 2.26275515177
2.39990022297 -1.4554335576 -0.589037886677 0.154929774094 1.7553509408 -0.976013091249 -0.544991002452 -1.4291572658 -2.21976735654 -0.80170261654 2.26145916831
2.44201885752 -1.45540306942 -0.592935002204 0.154646667559 1.75591715387 -0.976549431664 -0.544651899789 -1.42926883862 -2.21873000735 -0.799424757445 2.2601686262
2.47975308154 -1.45537295382 -0.596830289695 0.154364031675 1.75648242564 -0.977059817228 -0.544305177033 -1.4293729815 -2.21769975213 -0.797154237464 2.25888337934
2.51389760578 -1.45534320698 -0.600723778294 0.154081846331 1.75704679633 -0.977544769743 -0.543951030936 -1.42946987481 -2.21667648848 -0.794890931228 2.25760328669
2.55293603309 -1.45530997268 -0.604996800896 0.153748619643 1.7577132497 -0.978733675243 -0.54366103586 -1.42946450104 -2.2153616614 -0.792280349268 2.25609655317
2.58894276536 -1.45527710097 -0.609269349877 0.153416360393 1.7583777682 -0.979884886633 -0.543359622763 -1.4294505021 -2.21405826427 -0.789681820393 2.25459682499
2.62792846594 -1.45524458896 -0.613541413285 0.15308503398 1.75904042103 -0.980999179158 -0.543047092835 -1.42942814356 -2.2127661013 -0.787095099283 2.25310389793
2.67141852786 -1.45521243383 -0.61781298067 0.152754606795 1.7597012754 -0.982077309254 -0.542723738893 -1.4293976789 -2.21148498199 -0.784519948798 2.25161757483
2.72171645602 -1.45518063279 -0.622084042776 0.152425046215 1.76036039656 -0.983120014901 -0.542389845782 -1.42935935015 -2.21021472094 -0.781956139684 2.25013766559
2.77669283132 -1.45515123829 -0.625943077414 0.152101915645 1.7610066577 -0.984786710873 -0.542189466712 -1.42918730231 -2.20885488577 -0.779501877334 2.24869158886
2.8223364644 -1.45512202152 -0.629804584503 0.151779876826 1.76165073534 -0.986418105165 -0.541978048119 -1.42900908823 -2.20750680898 -0.777060012776 2.24725116548
2.86246671344 -1.45509298349 -0.633668488593 0.151458899971 1.76229268905 -0.988014776129 -0.541755829805 -1.42882490722 -2.20617030497 -0.774630314838 2.24581625308
2.89991943842 -1.45506412514 -0.63753471723 0.151138955969 1.76293257705 -0.989577292714 -0.541523046402 -1.42863495065 -2.20484519254 -0.772212559221 2.24438671303
2.94172862741 -1.45503544728 -0.641403200591 0.150820016411 1.76357045617 -0.991106214309 -0.541279927765 -1.4284394025 -2.20353129486 -0.76980652825 2.2429624108
2.98418779354 -1.45500899587 -0.644856998265 0.150508111859 1.76419426527 -0.993272896705 -0.541168027822 -1.42810137532 -2.20212461892 -0.76750983626 2.24157367911
3.02158154343 -1.45498254692 -0.648316933834 0.150197346847 1.7648157953 -0.995407065609 -0.541045432857 -1.42775919492 -2.20072962861 -0.765225366267 2.24018915975
3.0554923531 -1.45495610483 -0.651782872571 0.149887697779 1.76543509343 -0.997509105322 -0.540912326807 -1.42741301277 -2.19934616169 -0.762952920172 2.23880876803
3.09301444709 -1.45492967381 -0.655254683489 0.149579141423 1.76605220614 -0.999579398228 -0.54076889127 -1.42706297551 -2.19797405898 -0.760692304595 2.23743242071
3.13566781786 -1.45490325784 -0.658732239051 0.149271654918 1.76666717915 -1.00161832459 -0.54061530539 -1.42670922506 -2.19661316444 -0.75844333093 2.23606003594
3.17998703562 -1.45487883294 -0.661802646791 0.148971391272 1.76726770644 -1.00430178647 -0.54058893857 -1.42620576366 -2.19515658877 -0.756300074049 2.23472330064
3.21826226209 -1.45485424642 -0.664883617172 0.148672245192 1.7678659986 -1.00695581282 -0.540552171999 -1.42569972951 -2.19371129686 -0.754168445657 2.23338926878
3.25268478839 -1.45482950547 -0.667974963173 0.148374200295 1.7684620884 -1.0095806009 -0.540505140154 -1.42519124375 -2.1922771595 -0.752048294868 2.23205790879
3.28826728486 -1.45480461705 -0.671076501545 0.148077240225 1.76905600854 -1.01217635191 -0.540447977086 -1.42468042466 -2.19085404913 -0.74993947314 2.23072918847
3.32849197038 -1.45477958789 -0.674188052552 0.147781348697 1.76964779159 -1.01474327048 -0.540380816538 -1.42416738776 -2.18944183978 -0.747841834311 2.22940307534
3.36957218787 -1.45475626846 -0.676910057234 0.147492458289 1.77022557241 -1.01795418772 -0.540435248787 -1.42349910843 -2.18793150701 -0.74584317972 2.22811106577
3.40527127862 -1.45473263459 -0.679647824679 0.147204604931 1.77080127913 -1.02113891134 -0.540479512623 -1.42282945129 -2.18643181348 -0.743855265619 2.2268202075
3.44601888797 -1.4547086957 -0.682401123966 0.146917780168 1.77137492865 -1.02429746004 -0.540513699477 -1.42215852356 -2.18494267022 -0.741877998817 2.22553051735
3.49505214961 -1.45468446098 -0.685169727249 0.146631975254 1.77194653848 -1.02742986059 -0.540537901777 -1.42148643073 -2.1834639883 -0.739911285969 2.22424200999
3.53768016563 -1.45465993939 -0.687953409522 0.146347181219 1.77251612655 -1.03053614721 -0.540552213365 -1.42081327689 -2.18199567889 -0.737955033535 2.22295469864
3.58341161659 -1.45463680717 -0.690374714317 0.146068798433 1.77307289212 -1.03427815919 -0.540680941119 -1.41998132099 -2.1804275327 -0.73608843782 2.2216984422
3.62253053712 -1.4546132181 -0.692817732806 0.145791329188 1.77362783061 -1.03799722327 -0.540799653233 -1.41914887576 -2.17886923949 -0.73423154262 2.22044177495
3.66065772326 -1.45458918329 -0.695282198163 0.145514773416 1.77418094216 -1.04169318699 -0.540908404454 -1.41831604989 -2.17732075569 -0.732384319875 2.21918475801
3.70422894486 -1.45456471368 -0.697767845184 0.145239130476 1.77473222804 -1.04536590859 -0.541007251846 -1.41748295115 -2.17578203625 -0.730546738741 2.21792744956
3.75772136237 -1.45453982001 -0.700274410208 0.144964399196 1.7752816906 -1.04901525659 -0.541096254836 -1.41664968648 -2.17425303479 -0.728718765793 2.21666990519
3.80565035153 -1.4545159623 -0.702454435658 0.144695193362 1.77582010226 -1.05328379961 -0.541291034958 -1.41565639552 -2.1726235713 -0.726969225563 2.21543907942
3.84649300637 -1.45449151469 -0.704662791558 0.144426753716 1.77635698156 -1.05753243823 -0.541475860707 -1.41466330476 -2.17100314556 -0.725228350339 2.21420631802
3.88292753145 -1.45446648961 -0.706899180593 0.14415908876 1.77689231147 -1.06176085368 -0.541650756417 -1.41367053871 -2.16939176301 -0.723496181736 2.21297172326
3.92341121095 -1.45444089933 -0.709163304918 0.143892206147 1.77742607669 -1.06596873925 -0.541815750038 -1.41267822156 -2.16778942618 -0.721772755866 2.21173539429
3.96926881896 -1.45441475598 -0.711454866248 0.143626112714 1.77795826356 -1.07015580027 -0.541970872791 -1.41168647704 -2.16619613487 -0.720058103783 2.21049742692
4.01490819029 -1.4543935755 -0.713126125033 0.143408137949 1.77839421309 -1.07414154205 -0.542181034391 -1.41072771362 -2.16478524092 -0.718684818766 2.20948453441
4.05385402727 -1.45437189787 -0.714822034394 0.143190588764 1.77882931146 -1.07811530452 -0.54238425689 -1.40976950122 -2.16338010859 -0.717316923567 2.20846929256
4.09465188776 -1.45434973086 -0.716542405367 0.142973475053 1.77926353888 -1.0820768061 -0.542580540232 -1.40881192901 -2.16198077105 -0.715954483917 2.20745178386
4.14314634805 -1.45432708223 -0.718287047426 0.142756806153 1.77969687668 -1.08602577145 -0.542769886365 -1.40785508598 -2.16058725943 -0.714597561723 2.20643208894
4.18782685205 -1.45430395971 -0.720055768539 0.14254059086 1.78012930727 -1.08996193158 -0.542952299179 -1.40689906094 -2.15919960288 -0.713246215213 2.20541028656
4.22741049631 -1.45428037099 -0.72184837523 0.142324837445 1.7805608141 -1.09388502374 -0.543127784849 -1.40594394267 -2.1578178286 -0.711900498829 2.20438645395
4.27642123628 -1.45425710546 -0.723440126647 0.142111748003 1.78098699298 -1.09827642145 -0.543375257876 -1.40486056753 -2.15635438123 -0.710598641868 2.20337617002
4.31791005466 -1.45423326379 -0.725061639466 0.141898991441 1.78141250611 -1.1026571338 -0.543615697936 -1.40377821441 -2.15489632679 -0.709301773536 2.20236266817
4.35467367558 -1.45420885432 -0.726712704219 0.14168658206 1.78183732487 -1.10702678401 -0.543849095257 -1.40269699586 -2.15344372791 -0.708009998306 2.2013460527
4.38995165342 -1.45418388539 -0.72839310834 0.141474533459 1.78226142207 -1.11138500192 -0.544075442643 -1.40161702436 -2.1519966445 -0.706723415446 2.20032642605
4.42206123971 -1.45415836533 -0.730102636295 0.141262858541 1.78268477191 -1.11573142412 -0.544294735291 -1.40053841218 -2.1505551339 -0.705442119256 2.19930388861
4.45191685343 -1.45413230249 -0.731841069734 0.141051569527 1.78310734993 -1.12006569415 -0.544506970808 -1.39946127136 -2.14911925083 -0.704166199145 2.19827853875
4.48229457643 -1.45410625067 -0.733421043731 0.140842006646 1.7835264757 -1.12483075737 -0.544781087455 -1.39826276544 -2.14760604869 -0.7029243752 2.19726188912
4.51089603628 -1.45407955305 -0.735035802835 0.140632708007 1.78394507297 -1.12958570232 -0.545048015156 -1.39706588848 -2.14609807782 -0.701687423117 2.19624133421
4.5405794806 -1.45405221854 -0.736685109373 0.140423691393 1.7843631062 -1.1343300589 -0.545307739094 -1.3958707812 -2.14459542821 -0.700455480005 2.19521699872
4.5720018307 -1.4540242561 -0.738368721013 0.14021497372 1.78478054155 -1.13906336433 -0.545560247476 -1.39467758414 -2.14309818649 -0.699228676437 2.19418900527
4.60559418358 -1.45399567469 -0.740086390979 0.140006571043 1.7851973469 -1.14378516346 -0.545805531122 -1.39348643733 -2.14160643608 -0.69800713684 2.19315747397
4.64222456667 -1.45396648331 -0.741837868236 0.139798498566 1.78561349186 -1.14849500902 -0.546043583678 -1.39229748043 -2.14012025718 -0.696790979471 2.19212252259
4.679422193 -1.45394126874 -0.743238022697 0.139621001118 1.78596848675 -1.15286293979 -0.546292317357 -1.39118281699 -2.13878572953 -0.695770938572 2.19123980783
4.71293869998 -1.45391553687 -0.744667155167 0.139443667524 1.78632315394 -1.15722324466 -0.546535626401 -1.39006993026 -2.1374550937 -0.69475459762 2.19035387507
4.74382014467 -1.45388929368 -0.746125092171 0.139266510366 1.78667746826 -1.16157557228 -0.546773501236 -1.38895892813 -2.13612842115 -0.693742057779 2.18946481417
4.77550762093 -1.45386254523 -0.747611657031 0.139089541662 1.78703140566 -1.16591957615 -0.54700593347 -1.38784991783 -2.13480578133 -0.692733416423 2.18857271305
4.8050415873 -1.45383529753 -0.749126669833 0.138912772872 1.78738494324 -1.17025491444 -0.547232916861 -1.38674300649 -2.1334872415 -0.691728766599 2.1876776585
4.83279357074 -1.45380755665 -0.75066994767 0.138736214907 1.78773805917 -1.17458125053 -0.547454446434 -1.38563830056 -2.13217286687 -0.690728197657 2.18677973537
4.85912970144 -1.45377932863 -0.752241304679 0.138559878132 1.78809073273 -1.17889825286 -0.547670519198 -1.38453590621 -2.13086272058 -0.689731794851 2.18587902722
4.88663215791 -1.45375072393 -0.753744439436 0.138383725196 1.7884430386 -1.18350017259 -0.547922009338 -1.38334942351 -2.12949875931 -0.688750599325 2.18497905563
4.91281144388 -1.45372157179 -0.755279399147 0.13820773065 1.78879502769 -1.18809350495 -0.548167919295 -1.38216549338 -2.12813893572 -0.687773455193 2.18407572205
4.93790705883 -1.45369187859 -0.756845978737 0.138031907152 1.78914667468 -1.1926778551 -0.548408242369 -1.38098424146 -2.12678333128 -0.686800469565 2.18316912348
4.96196165345 -1.45366165072 -0.758443969382 0.137856266714 1.78949795556 -1.19725283419 -0.548642973684 -1.37980579271 -2.12543202502 -0.685831744938 2.18225935504
4.98524686655 -1.45363089459 -0.760073158645 0.13768082071 1.78984884757 -1.20181805952 -0.548872110074 -1.37863027134 -2.12408509353 -0.684867379381 2.18134650982
5.00778528235 -1.45359961656 -0.76173333061 0.137505579889 1.79019932921 -1.20637315473 -0.549095650325 -1.37745780088 -2.12274261096 -0.683907466455 2.18043067909
5.02959891053 -1.45356782299 -0.76342426605 0.137330554378 1.79054938023 -1.21091775005 -0.549313595064 -1.37628850407 -2.12140464912 -0.682952095374 2.17951195219
5.05173322212 -1.45353548736 -0.765078958732 0.137155337997 1.79089981299 -1.21569434601 -0.549557567351 -1.37504942255 -2.12002224862 -0.682007375402 2.17859141214
5.07315810909 -1.45350258824 -0.766767517481 0.136980292514 1.79124990396 -1.22046069986 -0.54979582357 -1.37381384431 -2.11864439069 -0.681067212903 2.17766755873
5.09410166324 -1.45346913227 -0.768489700291 0.13680542932 1.79159963035 -1.22521639199 -0.550028363211 -1.37258190906 -2.11727116081 -0.680131711394 2.176740491
5.11457273749 -1.45343512604 -0.770245261348 0.136630759101 1.79194897079 -1.22996101051 -0.550255187741 -1.37135375539 -2.11590264169 -0.679200969515 2.17581030574
5.13458009791 -1.45340057615 -0.772033951186 0.136456291861 1.79229790527 -1.23469415145 -0.550476300451 -1.37012952077 -2.11453891336 -0.678275081272 2.17487709732
5.15413241738 -1.45336548911 -0.773855516851 0.136282036929 1.79264641513 -1.23941541889 -0.550691706651 -1.3689093415 -2.11318005318 -0.677354136005 2.17394095791
5.17323827941 -1.4533298714 -0.775709702125 0.136108002974 1.79299448304 -1.24412442527 -0.550901413435 -1.36769335262 -2.11182613587 -0.676438218673 2.17300197722
5.19034254169 -1.45329817928 -0.777322330806 0.135955465864 1.79329955726 -1.24839757317 -0.551100352236 -1.36658270752 -2.1106122537 -0.675643831095 2.17217803389
5.20723040836 -1.45326605435 -0.778961697597 0.135803075224 1.79360433854 -1.25266123378 -0.551294851723 -1.3654755583 -2.10940222919 -0.674853360816 2.17135170963
5.22390337064 -1.45323350103 -0.780627615481 0.135650837085 1.79390881482 -1.25691512602 -0.551484917304 -1.36437200389 -2.10819611809 -0.674066869544 2.17052306817
5.24036294402 -1.45320052372 -0.782319895461 0.13549875706 1.79421297487 -1.26115897447 -0.551670555433 -1.36327214228 -2.10699397444 -0.673284416296 2.16969217164
5.25661067336 -1.45316712678 -0.784038346606 0.135346840355 1.79451680828 -1.26539250939 -0.551851773785 -1.36217607052 -2.10579585062 -0.672506057366 2.16885908067
5.27297047477 -1.45313331448 -0.785782776162 0.135195091784 1.79482030542 -1.26961546681 -0.552028581242 -1.36108388476 -2.10460179735 -0.671731846399 2.16802385443
5.28944194735 -1.45309909107 -0.787552989673 0.13504351577 1.79512345745 -1.27382758863 -0.552200987749 -1.35999568011 -2.10341186373 -0.670961834559 2.16718655051
5.30602468 -1.45306446075 -0.789348791116 0.134892116359 1.79542625627 -1.27802862283 -0.552369004144 -1.35891155056 -2.10222609727 -0.670196070725 2.16634722481
5.32312935467 -1.45302930257 -0.791151110176 0.134740400141 1.79572968871 -1.28232831823 -0.552545100859 -1.35779707732 -2.10102143733 -0.669435064945 2.16550476794
5.3403487966 -1.45299372179 -0.792980079335 0.134588847843 1.7960327933 -1.28661663126 -0.552716760949 -1.35668696668 -2.09982104812 -0.668678405873 2.16466019063
5.35768252318 -1.45295772257 -0.794835489627 0.134437463251 1.79633556249 -1.29089330252 -0.552883997219 -1.35558131718 -2.09862497925 -0.667926143068 2.16381354972
5.37513004288 -1.45292130903 -0.796717130672 0.134286249762 1.79663798946 -1.29515807935 -0.553046823355 -1.35448022606 -2.09743327859 -0.667178323833 2.16296490028
5.39269086415 -1.45288448517 -0.798624790673 0.134135210401 1.79694006819 -1.29941071567 -0.553205254408 -1.3533837894 -2.09624599242 -0.666434992945 2.16211429592
5.41054122919 -1.45284725496 -0.800558256577 0.133984347832 1.79724179332 -1.30365097213 -0.553359306332 -1.35229210199 -2.09506316535 -0.665696193068 2.16126178856
5.42868466563 -1.45280962228 -0.802517314144 0.133833664365 1.79754316026 -1.30787861607 -0.553508996319 -1.35120525738 -2.09388484042 -0.664961964573 2.16040742867
5.44712473301 -1.45277159091 -0.80450174811 0.133683161968 1.79784416505 -1.31209342173 -0.55365434236 -1.35012334774 -2.09271105909 -0.664232345937 2.15955126499
5.46609928381 -1.45273307356 -0.806504728452 0.133532521901 1.79814544519 -1.3163503643 -0.553801146653 -1.34902883777 -2.09153005905 -0.663507141514 2.15869236138
5.48538223708 -1.45269415313 -0.808533378382 0.133382057415 1.79844637416 -1.32059407423 -0.553943605393 -1.34793951513 -2.09035370379 -0.662786639131 2.1578316524
5.50497729025 -1.45265483327 -0.810587474652 0.133231769844 1.7987469493 -1.32482433391 -0.55408173927 -1.34685547184 -2.08918203334 -0.662070874677 2.15696918483
5.52488817651 -1.45261511751 -0.812666793335 0.133081660193 1.7990471686 -1.32904093303 -0.554215569837 -1.34577679838 -2.08801508617 -0.661359882237 2.15610500376
5.54532097414 -1.4525750093 -0.814771109815 0.132931729154 1.79934703068 -1.33324366834 -0.554345119777 -1.34470358381 -2.08685289922 -0.660653693972 2.15523915288
5.56628801517 -1.45253451201 -0.816900198909 0.132781977122 1.79964653474 -1.33743234377 -0.55447041269 -1.34363591571 -2.08569550794 -0.659952340349 2.15437167435
5.58780190866 -1.4524936289 -0.819053834962 0.132632404197 1.79994568059 -1.34160677037 -0.554591473133 -1.34257388013 -2.08454294633 -0.659255850163 2.15350260886
5.609875542 -1.45245236313 -0.82123179196 0.132483010203 1.80024446858 -1.34576676635 -0.554708326462 -1.34151756157 -2.08339524695 -0.658564250724 2.15263199559
5.63274855255 -1.45241071778 -0.823433843483 0.132333794697 1.8005428996 -1.34991215682 -0.554820999221 -1.34046704312 -2.08225244103 -0.657877567633 2.15175987253
5.65644846167 -1.45236869583 -0.825659763238 0.132184756953 1.80084097508 -1.35404277447 -0.554929518543 -1.3394224061 -2.08111455827 -0.657195825202 2.15088627599
5.68100370232 -1.45232630014 -0.82790932453 0.132035896017 1.80113869695 -1.35815845856 -0.555033912631 -1.33838373045 -2.07998162718 -0.656519046282 2.15001124118
5.70669805764 -1.45228353349 -0.830182300749 0.131887210686 1.80143606762 -1.36225905552 -0.555134210502 -1.33735109447 -2.0788536749 -0.655847252406 2.14913480194
5.73382892077 -1.45224039855 -0.832478465379 0.13173869952 1.80173308995 -1.36634441882 -0.555230441825 -1.33632457482 -2.07773072727 -0.655180464 2.1482569907
5.7592935028 -1.4521968979 -0.834797592037 0.13159036086 1.80202976727 -1.37041440878 -0.555322637276 -1.33530424661 -2.07661280892 -0.654518700137 2.14737783879
5.78341158195 -1.45215303402 -0.8371394546 0.131442192828 1.80232610333 -1.37446889268 -0.555410828064 -1.33429018326 -2.0754999432 -0.65386197896 2.14649737617
5.80648152296 -1.45210880926 -0.839503827218 0.131294193341 1.80262210231 -1.37850774449 -0.555495046505 -1.3332824567 -2.07439215228 -0.653210317267 2.14561563182
5.82869628055 -1.45206436914 -0.84189154714 0.131146799911 1.80291688917 -1.38247681061 -0.55557056825 -1.33229891667 -2.07330139347 -0.652564674679 2.14473434421
5.85015535473 -1.45201958333 -0.844300660928 0.130999576029 1.80321133693 -1.38643009204 -0.555642230414 -1.33132174113 -2.0722156983 -0.651924071836 2.14385190372
5.87215861044 -1.45197445384 -0.846730950565 0.130852518903 1.80350545118 -1.390367492 -0.555710067015 -1.33035099377 -2.07113508333 -0.651288520907 2.14296833402
5.89494434189 -1.45192898255 -0.849182198751 0.13070562557 1.80379923785 -1.39428892001 -0.555774113022 -1.3293867368 -2.07005956412 -0.650658032998 2.14208365791
5.91853924314 -1.45188317128 -0.851654188929 0.130558892917 1.80409270315 -1.39819429181 -0.555834403705 -1.32842903074 -2.06898915518 -0.650032618729 2.14119789707
5.94321520959 -1.45183702173 -0.854146705268 0.130412317681 1.80438585363 -1.40208352917 -0.555890975241 -1.32747793461 -2.06792387009 -0.649412287769 2.14031107242
5.96902057984 -1.4517905355 -0.856659532789 0.130265896462 1.80467869606 -1.4059565599 -0.555943864096 -1.32653350578 -2.06686372144 -0.648797049354 2.13942320381
5.99627567213 -1.45174371414 -0.859192457391 0.130119625724 1.80497123754 -1.40981331773 -0.555993107221 -1.32559579999 -2.06580872091 -0.648186912154 2.13853431022
6.02456065926 -1.45169688952 -0.861742324256 0.129974473642 1.8052615417 -1.41354827778 -0.556030323704 -1.32470001217 -2.06478253787 -0.647584264219 2.13764844907
6.0553106395 -1.45164975254 -0.864310637586 0.129829473802 1.80555154138 -1.41726710133 -0.556064062843 -1.32381080233 -2.06376139793 -0.646986609957 2.13676172712
6.08330402603 -1.45160230433 -0.866897199195 0.129684622167 1.80584124465 -1.42096975337 -0.556094362655 -1.32292821625 -2.06274530684 -0.646393953206 2.13587415825
6.10927750948 -1.45155454594 -0.869501812103 0.129539914604 1.80613065978 -1.42465620399 -0.556121261481 -1.32205229816 -2.06173426958 -0.645806297462 2.13498575556
6.13706174971 -1.45150647834 -0.872124280458 0.129395346894 1.8064197952 -1.42832642815 -0.556144798051 -1.32118309089 -2.06072829045 -0.645223645867 2.13409653156
6.16705082342 -1.45145810241 -0.874764409575 0.129250914736 1.80670865952 -1.43198040558 -0.556165011423 -1.32032063584 -2.05972737307 -0.644646001258 2.13320649813
6.20006642775 -1.45140941892 -0.877422005942 0.129106613755 1.80699726148 -1.43561812067 -0.556181941122 -1.319464973 -2.0587315204 -0.644073366059 2.13231566661
6.23724396588 -1.45136042861 -0.88009687732 0.128962439506 1.80728560998 -1.43923956247 -0.55619562655 -1.31861614081 -2.05774073474 -0.643505742773 2.1314240476
6.2746234061 -1.45130469754 -0.883161774278 0.128799573697 1.80761134159 -1.44318340191 -0.55619455668 -1.31771347553 -2.05665424192 -0.642867446622 2.1304116047
6.30829603645 -1.45124860372 -0.886246557556 0.128636875482 1.80793673802 -1.44710661136 -0.556189536239 -1.31681929745 -2.05557409583 -0.642235434475 2.12939837721
6.33928021642 -1.45119214769 -0.889350974042 0.128474337868 1.80826181325 -1.45100921733 -0.556180623525 -1.3159336482 -2.05450029181 -0.641609703692 2.12838437404
6.3683601543 -1.45113532986 -0.892474772956 0.128311953787 1.80858658141 -1.45489125228 -0.556167877485 -1.31505656744 -2.05343282443 -0.640990251106 2.12736960356
6.39592256895 -1.45107815057 -0.895617705818 0.128149716118 1.80891105675 -1.45875275452 -0.556151356713 -1.31418809265 -2.05237168747 -0.640377073886 2.12635407332
6.42230486011 -1.45102061002 -0.898779526382 0.12798761769 1.80923525361 -1.46259376782 -0.556131120226 -1.31332825936 -2.05131687407 -0.639770168886 2.12533779041
6.45019641273 -1.45096270834 -0.901959990695 0.127825651285 1.80955918642 -1.46641434131 -0.556107227092 -1.31247710108 -2.05026837668 -0.639169532935 2.12432076132
6.47829865267 -1.45090535476 -0.905132752025 0.127666328915 1.80987783116 -1.46999073764 -0.556065484518 -1.31171079499 -2.04927792991 -0.638581978354 2.12331446486
6.50887966301 -1.4508476835 -0.908321185127 0.127507137652 1.81019621369 -1.47354777213 -0.556020417105 -1.31095248851 -2.04829339022 -0.638000296903 2.122307665
6.54270137423 -1.45078969423 -0.911525086367 0.127348070344 1.8105143483 -1.47708552688 -0.555972081211 -1.31020220092 -2.04731474392 -0.637424480452 2.12130036264
6.57890567407 -1.45073138653 -0.914744254432 0.127189119831 1.81083224933 -1.4806040876 -0.55592053283 -1.30945994986 -2.04634197685 -0.636854521176 2.12029255827
6.6198925352 -1.45067275995 -0.917978490185 0.127030278953 1.81114993108 -1.4841035434 -0.555865827606 -1.30872575139 -2.04537507447 -0.636290411549 2.11928425201
6.66848091617 -1.45061381395 -0.921227596637 0.126871540553 1.81146740788 -1.48758398653 -0.555808021074 -1.30799962004 -2.04441402192 -0.635732144127 2.11827544376
6.71103269561 -1.45055454794 -0.924491378936 0.126712897478 1.81178469403 -1.49104551222 -0.555747168717 -1.30728156895 -2.04345880402 -0.635179711481 2.11726613325
6.74798829197 -1.45049615693 -0.927728013941 0.126557593657 1.81209530167 -1.4942217223 -0.555668412188 -1.30666313208 -2.04257193929 -0.634642003878 2.11627158987
6.78139088456 -1.45043749288 -0.930976313139 0.126402382159 1.81240572467 -1.49738049213 -0.555586957565 -1.30605188145 -2.04169038033 -0.634109615183 2.11527677137
6.81662175586 -1.45037855491 -0.934236123787 0.126247256273 1.81271597644 -1.50052193589 -0.555502855504 -1.3054478194 -2.04081410838 -0.633582534737 2.11428167341
6.85606470742 -1.45031934209 -0.937507295122 0.126092209313 1.81302607036 -1.50364616945 -0.555416155873 -1.30485094708 -2.03994310443 -0.633060752458 2.11328629142
6.90225097973 -1.45025985348 -0.940789678188 0.125937234622 1.81333601974 -1.50675331002 -0.555326908219 -1.30426126462 -2.03907734941 -0.632544258458 2.11229062079
6.94142666659 -1.45020008805 -0.944083125802 0.125782325575 1.81364583784 -1.50984347603 -0.555235161978 -1.30367877119 -2.03821682417 -0.632033042844 2.11129465695
6.97643540845 -1.45014004477 -0.947387492556 0.125627475579 1.81395553783 -1.51291678709 -0.555140966248 -1.30310346502 -2.03736150951 -0.631527095898 2.11029839527
7.01624738328 -1.45007137849 -0.951188048714 0.125451489416 1.81430751016 -1.51612826035 -0.555010734073 -1.30256366185 -2.03645403342 -0.630955725533 2.10915773561
7.05244251231 -1.45000239993 -0.954999557993 0.125275574513 1.81465933996 -1.51931925148 -0.554877644153 -1.30203219184 -2.03555279676 -0.630390684399 2.1080169392
7.08596269885 -1.44993310726 -0.958821853501 0.125099721552 1.81501104588 -1.52248995873 -0.5547417636 -1.30150904126 -2.03465776725 -0.629831955363 2.10687599443
7.11794463559 -1.44986349857 -0.962654770954 0.124923921286 1.81536264642 -1.52564058045 -0.554603159191 -1.30099419535 -2.0337689128 -0.629279521267 2.10573488991
7.15225140643 -1.44979357195 -0.966498148561 0.124748164542 1.8157141599 -1.5287713151 -0.554461896574 -1.30048763816 -2.03288620134 -0.628733365621 2.10459361424
7.1842774749 -1.4497233254 -0.970351826897 0.124572442225 1.81606560454 -1.53188236092 -0.554318041291 -1.29998935286 -2.03200960106 -0.628193471691 2.10345215639
7.21448457845 -1.44965478785 -0.974128624093 0.124402141494 1.816406206 -1.53458707912 -0.554155797448 -1.2996345227 -2.03123259928 -0.627674491929 2.1023370609
7.24668967241 -1.4495859944 -0.977912235479 0.124231857388 1.81674677421 -1.53727487572 -0.553991411898 -1.2992863712 -2.0304607612 -0.627160816908 2.10122197986
7.28127913094 -1.44951694307 -0.981702557618 0.124061582265 1.81708732446 -1.53994593835 -0.55382493847 -1.2989448771 -2.02969405703 -0.626652430796 2.10010690029
7.31917507682 -1.44944763187 -0.985499488811 0.123891308549 1.81742787189 -1.54260045352 -0.553656429928 -1.2986100185 -2.02893245717 -0.626149318293 2.09899180927
7.36183918368 -1.44937805885 -0.989302928964 0.123721028738 1.81776843151 -1.54523860653 -0.553485937975 -1.2982817729 -2.02817593214 -0.625651464644 2.09787669401
7.39986407245 -1.44930822193 -0.993112779419 0.123550735405 1.81810901818 -1.54786058103 -0.553313514797 -1.29796011758 -2.02742445301 -0.625158854283 2.09676154224
7.43561053401 -1.44924041256 -0.9968246991 0.123386492662 1.81843750366 -1.55005368165 -0.553125196806 -1.29779072514 -2.02677931289 -0.624687866132 2.09567670819
7.46851975924 -1.449172399 -1.00054017228 0.123222209782 1.81876606942 -1.55223351105 -0.552935347261 -1.29762627528 -2.02613822535 -0.624221091112 2.09459195138
7.50454599114 -1.44910417941 -1.00425914449 0.123057880898 1.81909472719 -1.55440022858 -0.552744005963 -1.29746674625 -2.02550116615 -0.623758517562 2.09350725923
7.54437823036 -1.44903575187 -1.00798156212 0.122893500201 1.81942348859 -1.55655399164 -0.552551212968 -1.29731211631 -2.02486811147 -0.623300133204 2.09242261962
7.58981965621 -1.44896711458 -1.01170737246 0.122729061936 1.81975236512 -1.55869495616 -0.552357006711 -1.29716236332 -2.0242390375 -0.622845926792 2.09133802034
7.63339506552 -1.44889826565 -1.01543652357 0.122564560407 1.82008136818 -1.56082327615 -0.55216142579 -1.29701746511 -2.02361392086 -0.622395886557 2.09025344954
7.67780779797 -1.44881839216 -1.01977324192 0.122375032647 1.82046042369 -1.56284380964 -0.551910830685 -1.29703437667 -2.02299763149 -0.621882364833 2.08899220903
7.7177956358 -1.44873828924 -1.02411173482 0.122185357898 1.82083977319 -1.56485038484 -0.551658753595 -1.29705594333 -2.022385596 -0.621373303618 2.08773103199
7.75437275848 -1.44865795403 -1.02845196603 0.121995528984 1.82121943102 -1.56684321014 -0.551405243516 -1.29708213569 -2.0217777858 -0.620868690355 2.08646990067
7.78850228488 -1.44857738373 -1.03279390006 0.121805538804 1.82159941138 -1.56882249082 -0.551150347824 -1.29711292412 -2.02117417251 -0.620368513185 2.08520879748
7.82512833088 -1.44849657558 -1.03713750207 0.121615380335 1.82197972832 -1.57078842888 -0.550894113074 -1.297148279 -2.02057472816 -0.61987276027 2.08394770512
7.86148517794 -1.44841869747 -1.04132746929 0.121433487829 1.82234351333 -1.57221168469 -0.550625822709 -1.29737931457 -2.02011346585 -0.619404096586 2.08272989177
7.90127253853 -1.44834064177 -1.04551725656 0.121251348595 1.8227077918 -1.57362576922 -0.550356605482 -1.29761272657 -2.01965496256 -0.618938309684 2.08151194699
7.9456600886 -1.44826240615 -1.04970686 0.121068958048 1.82307257289 -1.57503082024 -0.550086493312 -1.29784849765 -2.01919920361 -0.618475396596 2.08029385833
7.99753046782 -1.44818398835 -1.05389627585 0.120886311636 1.82343786572 -1.57642697336 -0.54981551683 -1.29808661033 -2.01874617432 -0.618015354903 2.07907561337
8.06310478426 -1.4481053861 -1.05808550037 0.120703404855 1.82380367928 -1.57781436177 -0.549543706682 -1.29832704731 -2.01829586036 -0.617558181629 2.07785719997
8.12686774514 -1.44802980043 -1.06211215452 0.120528944173 1.82415260064 -1.57866191773 -0.549264108886 -1.29876427103 -2.01798496579 -0.617127116887 2.07668370102
8.17749427504 -1.4479541143 -1.06613760195 0.120354138863 1.82450221126 -1.57950245494 -0.548983555441 -1.29920266514 -2.01767592196 -0.616697815276 2.07550977326
8.2218655684 -1.44787828543 -1.07016225397 0.120178968104 1.82485255278 -1.58033826425 -0.548702508776 -1.29964140876 -2.01736825542 -0.616269872046 2.07433536074
8.27388420245 -1.44780231203 -1.0741861171 0.120003429563 1.82520362986 -1.58116940583 -0.54842098569 -1.30008050076 -2.01706196651 -0.615843294271 2.07316045717
8.34062366497 -1.44772619244 -1.07820919785 0.119827520774 1.82555544744 -1.58199594809 -0.548139003585 -1.30051993606 -2.0167570534 -0.615418088411 2.07198505631
8.45814771629 -1.44765310815 -1.08206673846 0.119660072226 1.82589034454 -1.58228873361 -0.547852527143 -1.30115669814 -2.01659187285 -0.615018475503 2.07085501761
8.52294126398 -1.44757994529 -1.08592402431 0.119492107453 1.82622627408 -1.58258053118 -0.547565848696 -1.30179210697 -2.01642687827 -0.614618809787 2.06972397164
8.57380695629 -1.4475066714 -1.08978117384 0.119323614627 1.82656325973 -1.58287165052 -0.547278659581 -1.30242603651 -2.01626183107 -0.614219263039 2.06859195315
8.62815439892 -1.44743326264 -1.09363809392 0.119154647407 1.82690119417 -1.58316167019 -0.54699156281 -1.30305874737 -2.01609713507 -0.613819458032 2.06745894687
8.70183938813 -1.44735972931 -1.09749483071 0.118985177586 1.82724013382 -1.58345081721 -0.546704269914 -1.30369011681 -2.0159326019 -0.613419602846 2.06632496092
8.75404792165 -1.44728914711 -1.1011894796 0.118823933161 1.82756262267 -1.58322135893 -0.546415620919 -1.3045163515 -2.01590575889 -0.613044506022 2.06523554495
8.79803023122 -1.4472185074 -1.10488652346 0.11866194757 1.82788659385 -1.58299634302 -0.546126954275 -1.30533911483 -2.01587747674 -0.612667893029 2.06414416396
8.84041330503 -1.44714768771 -1.10858508399 0.11849924982 1.82821198935 -1.58277397079 -0.545838665956 -1.30615910783 -2.01584810485 -0.612289358849 2.06305139686
8.89084860766 -1.44707680968 -1.11228514541 0.118335943427 1.82853860213 -1.58255389065 -0.545549938516 -1.30697638839 -2.01581792787 -0.611909906161 2.06195677298
8.95576753869 -1.44700575089 -1.11598667983 0.118171932228 1.82886662453 -1.58233634109 -0.545261637915 -1.30779094314 -2.01578673593 -0.611528545737 2.06086076415
9.07760924373 -1.4469374962 -1.11953747696 0.118015563901 1.82917936119 -1.58162500892 -0.544975304348 -1.30879480532 -2.01588878781 -0.611170185993 2.05980662029
9.1407312923 -1.44686911094 -1.12309247066 0.117858348686 1.82949379162 -1.58091920477 -0.544689035468 -1.30979478652 -2.01598887414 -0.610809098015 2.05875005148
9.18990551093 -1.4468005954 -1.12665161204 0.117700287065 1.82980991486 -1.58021885397 -0.544402828998 -1.31079089797 -2.01608701613 -0.610445299917 2.05769107022
9.23194271129 -1.44673194981 -1.13021485285 0.117541379488 1.83012773001 -1.57952388293 -0.544116683456 -1.31178315096 -2.01618323501 -0.610078809408 2.05662968913
9.26936287051 -1.44666317445 -1.13378214551 0.117381626427 1.83044723614 -1.57883421926 -0.543830596754 -1.3127715566 -2.01627755195 -0.60970964514 2.05556592049
9.30500908132 -1.44659687915 -1.13721430814 0.11722876815 1.83075295269 -1.57767977987 -0.543549214638 -1.3139422059 -2.01649912654 -0.609361411086 2.05454062581
9.33735041218 -1.44653042851 -1.14065405202 0.117074851122 1.83106078674 -1.57653347929 -0.543267925545 -1.31510808204 -2.0167178398 -0.609009213922 2.05351199074
9.36944132746 -1.4464638237 -1.14410129349 0.116919875734 1.83137073752 -1.57539521497 -0.542986724168 -1.31626919098 -2.01693371385 -0.60865306842 2.0524800331
9.40426593688 -1.44639706572 -1.14755594984 0.116763842355 1.83168280428 -1.57426488554 -0.542705606462 -1.317425539 -2.01714677109 -0.608292988887 2.05144477101
9.4431842576 -1.44633015566 -1.1510179394 0.116606751384 1.83199698622 -1.57314239098 -0.542424567853 -1.31857713229 -2.01735703399 -0.607928990858 2.05040622233
9.47921983905 -1.44627617649 -1.15380654772 0.116480832017 1.83224882495 -1.57184863422 -0.542196004635 -1.31968073653 -2.01763181657 -0.607641226704 2.04956909874
9.51162444632 -1.44622206614 -1.1566031205 0.116354014366 1.83250246026 -1.57056210701 -0.541967485118 -1.3207805212 -2.01790403865 -0.607349869837 2.0487289527
9.5413368994 -1.44616782575 -1.15940758697 0.116226298329 1.83275789233 -1.56928273817 -0.541739005956 -1.32187648392 -2.01817371202 -0.607054923943 2.04788579765
9.57054515584 -1.44611345649 -1.16221987705 0.116097683838 1.83301512131 -1.56801045715 -0.541510563208 -1.32296862232 -2.01844084858 -0.606756393852 2.04703964691
9.60226071778 -1.44605895952 -1.16503992123 0.115968170825 1.83327414734 -1.56674519392 -0.541282153455 -1.32405693426 -2.01870546048 -0.60645428447 2.04619051395
9.63738990329 -1.44600433595 -1.16786765057 0.115837759237 1.83353497051 -1.56548687899 -0.541053773477 -1.32514141776 -2.01896756004 -0.606148601075 2.04533841231
9.67626935117 -1.44595118127 -1.17061736819 0.115711542635 1.83378740372 -1.56390334959 -0.540832385954 -1.32636029298 -2.01932137878 -0.60585653871 2.04451044336
9.71056366615 -1.44589786978 -1.17337789455 0.115584252607 1.83404198377 -1.56232838587 -0.540610986675 -1.32757491245 -2.01967210141 -0.605560046044 2.04367871475
9.74173036732 -1.44584440321 -1.17614913577 0.115455888554 1.83429871188 -1.56076190827 -0.540389571843 -1.32878526555 -2.02001973756 -0.60525912129 2.04284324294
9.77062260938 -1.44579078335 -1.17893099874 0.115326449931 1.83455758913 -1.5592038378 -0.540168136792 -1.32999134182 -2.02036429712 -0.60495376432 2.0420040442
9.79767292438 -1.44573701188 -1.18172339094 0.115195936186 1.83481861662 -1.55765409568 -0.539946678353 -1.3311931313 -2.02070579044 -0.604643974421 2.0411611354
9.82325079266 -1.44568309055 -1.1845262206 0.115064346822 1.83508179534 -1.55611260374 -0.539725192353 -1.33239062411 -2.02104422811 -0.604329752648 2.04031453314
9.84957788788 -1.44563029525 -1.18727113248 0.114935953253 1.83533858248 -1.55428311808 -0.53951144497 -1.33371041992 -2.02146489419 -0.604026394397 2.03948704903
9.87630014375 -1.44557731847 -1.19002965937 0.114806303816 1.83559788136 -1.55246331252 -0.539297605315 -1.33502554827 -2.02188195589 -0.603717764563 2.03865506677
9.90509020719 -1.4455241626 -1.19280168418 0.114675397327 1.83585969434 -1.55065310119 -0.539083668986 -1.33633598898 -2.02229542028 -0.603403856091 2.03781860596
9.93672947637 -1.44547083002 -1.19558709055 0.114543232634 1.83612402372 -1.54885239836 -0.538869632048 -1.33764172236 -2.02270529501 -0.603084662619 2.03697768656
9.97219652252 -1.44541732303 -1.19838576279 0.114409808626 1.83639087174 -1.54706111851 -0.538655491035 -1.33894272924 -2.02311158825 -0.602760178462 2.03613232888
10.0134074678 -1.44536364395 -1.20119758601 0.114275124234 1.83666024052 -1.54527917643 -0.538441242443 -1.34023899082 -2.02351430864 -0.602430399079 2.03528255337
10.0556868896 -1.44531832301 -1.20357423146 0.11416158961 1.83688730977 -1.54353861005 -0.53826434173 -1.3414429773 -2.02392098222 -0.60215463535 2.03456636042
10.0911805226 -1.44527285329 -1.20596278777 0.11404699768 1.83711649363 -1.54180581795 -0.538087303356 -1.34264322921 -2.02432465434 -0.601874384794 2.03384634675
10.1225218189 -1.4452272367 -1.20836316693 0.113931347311 1.83734779437 -1.54008074258 -0.537910124658 -1.34383972765 -2.0247253281 -0.601589639822 2.03312252712
10.151033399 -1.44518147512 -1.21077528133 0.11381463739 1.83758121421 -1.53836332632 -0.537732803569 -1.34503245418 -2.02512300696 -0.601300393062 2.03239491664
10.1774905108 -1.4451355704 -1.21319904377 0.113696866832 1.83781675532 -1.53665351158 -0.53755533835 -1.34622139069 -2.02551769481 -0.601006637608 2.03166353068
10.2022852446 -1.4450895244 -1.21563436746 0.113578034593 1.8380544198 -1.53495124082 -0.537377726983 -1.34740651936 -2.02590939587 -0.600708367583 2.03092838466
10.2257530644 -1.44504333893 -1.21808116602 0.113458139647 1.83829420969 -1.53325645652 -0.53719996818 -1.34858782276 -2.02629811473 -0.600405577184 2.0301894944
10.2490425457 -1.44499759906 -1.22050937061 0.113339380399 1.83853172819 -1.53138421999 -0.537028749836 -1.34984870575 -2.02673845444 -0.600107288706 2.02945874228
10.2713249614 -1.44495170035 -1.22295108369 0.113219434621 1.83877161975 -1.52952023751 -0.536857320272 -1.35110552994 -2.02717546845 -0.599803919684 2.02872371843
10.2928555036 -1.44490564505 -1.22540620418 0.113098300843 1.8390138873 -1.52766444814 -0.536685677991 -1.35235827114 -2.02760915928 -0.599495460086 2.02798444071
10.3138661005 -1.4448594354 -1.2278746315 0.112975977634 1.83925853372 -1.52581679087 -0.53651382166 -1.35360690558 -2.02803952991 -0.599181900666 2.02724092729
10.3358467873 -1.44481307362 -1.23035626545 0.112852463603 1.83950556178 -1.52397720462 -0.53634175029 -1.35485140994 -2.02846658378 -0.598863232787 2.02649319661
10.3590707234 -1.44476656188 -1.23285100628 0.112727757395 1.8397549742 -1.52214562827 -0.536169463174 -1.35609176135 -2.0288903248 -0.598539448472 2.02574126743
10.3836065806 -1.44471990239 -1.2353587547 0.112601857701 1.84000677359 -1.5203220007 -0.535996959587 -1.35732793728 -2.02931075731 -0.598210540673 2.02498515868
10.4095870146 -1.44467346997 -1.23786146783 0.112476274611 1.84025793977 -1.51835830354 -0.535830287355 -1.35862847682 -2.02977201535 -0.597883246763 2.02423314672
10.4342174143 -1.44462687497 -1.24037887924 0.112349387603 1.84051171378 -1.51640315372 -0.535663337813 -1.35992461739 -2.03022966669 -0.597550326962 2.02347650765
10.4577881801 -1.44458011995 -1.24291087683 0.112221194997 1.84076809899 -1.51445648704 -0.535496110673 -1.36121633075 -2.0306837143 -0.597211770917 2.02271526281
10.4803431615 -1.44453320748 -1.24545734904 0.112091695172 1.84102709864 -1.51251823922 -0.535328605399 -1.36250358911 -2.03113416166 -0.596867569576 2.02194943363
10.5021403134 -1.44448614003 -1.2480181847 0.111960886535 1.84128871592 -1.51058834578 -0.535160822809 -1.36378636538 -2.03158101281 -0.596517713685 2.02117904232
10.5232035299 -1.4444389201 -1.25059327318 0.111828767555 1.84155295388 -1.50866674225 -0.534992763253 -1.36506463281 -2.03202427228 -0.596162195483 2.0204041111
10.5435560347 -1.44439155018 -1.25318250433 0.111695336749 1.84181981549 -1.50675336412 -0.534824427437 -1.36633836516 -2.03246394511 -0.595801007914 2.01962466253
10.5612193346 -1.44435015967 -1.25545208782 0.111578295233 1.84205389852 -1.50498916197 -0.534681240315 -1.36749495645 -2.03287475274 -0.595484223224 2.01894343601
10.5782816893 -1.44430864678 -1.2577334738 0.111460179798 1.84229012939 -1.50323158308 -0.534537802826 -1.36864791968 -2.03328263153 -0.595162780095 2.01825848723
10.5950937866 -1.44426701336 -1.26002658167 0.111340989274 1.84252851044 -1.50148058242 -0.534394116189 -1.36979723452 -2.03368758448 -0.594836672294 2.01756983304
10.61165829 -1.44422526128 -1.26233133118 0.11122072254 1.84276904391 -1.49973611497 -0.534250181044 -1.37094288077 -2.0340896149 -0.594505894806 2.01687749018
10.6279778652 -1.44418339238 -1.26464764241 0.111099378499 1.84301173199 -1.49799813559 -0.534105998655 -1.37208483868 -2.03448872645 -0.594170442712 2.01618147578
10.6440551832 -1.44414140846 -1.26697543571 0.110976956088 1.84325657681 -1.49626659914 -0.53396157051 -1.37322308881 -2.0348849231 -0.593830311551 2.01548180719
10.6598929188 -1.44409931134 -1.26931463178 0.110853454277 1.84350358043 -1.49454146045 -0.533816898117 -1.374357612 -2.03527820916 -0.593485497506 2.01477850189
10.6754937454 -1.44405710281 -1.27166515166 0.110728872071 1.84375274485 -1.49282267434 -0.533671983204 -1.37548838941 -2.03566858922 -0.59313599721 2.01407157756
10.6908476904 -1.4440148621 -1.27402497244 0.110603597097 1.84400329479 -1.49104650772 -0.533529996453 -1.37664641651 -2.03607531882 -0.592784044952 2.01336334114
10.7061264993 -1.44397250652 -1.27639672812 0.110477191943 1.8442561051 -1.48927688265 -0.533387741044 -1.3778005696 -2.03647901645 -0.592427177879 2.0126513169
10.7213296246 -1.44393003803 -1.27878033526 0.110349655543 1.8445111779 -1.48751375266 -0.533245218939 -1.37895082815 -2.03687968684 -0.592065392677 2.01193552381
10.7364565425 -1.44388745853 -1.28117571079 0.110220986864 1.84476851526 -1.48575707119 -0.533102432515 -1.38009717203 -2.03727733508 -0.591698686342 2.01121598116
10.7515067528 -1.44384476992 -1.28358277198 0.110091184907 1.84502811917 -1.48400679169 -0.53295938437 -1.38123958145 -2.03767196654 -0.591327056348 2.01049270842
10.766479783 -1.44380197413 -1.2860014365 0.109960248716 1.84528999156 -1.48226286767 -0.532816076815 -1.38237803683 -2.03806358696 -0.590950501113 2.00976572507
10.7813751837 -1.44375907298 -1.28843162233 0.109828177358 1.84555413427 -1.48052525253 -0.532672513264 -1.38351251913 -2.03845220235 -0.590569018704 2.00903505116
10.7961925298 -1.4437160684 -1.29087324789 0.109694969956 1.84582054908 -1.47879389984 -0.532528696085 -1.38464300934 -2.03883781906 -0.590182608817 2.0083007064
10.8109349364 -1.44367297992 -1.29332681779 0.109560739456 1.84608901008 -1.47703744104 -0.532386320099 -1.38578508968 -2.0392299405 -0.589792136641 2.00756347839
10.8256007413 -1.44362978847 -1.29579204714 0.109425346171 1.84635979665 -1.47528728963 -0.532243681098 -1.38692308881 -2.03961900533 -0.589396617829 2.00682251654
10.8401895257 -1.44358649597 -1.29826885266 0.109288789244 1.8466329105 -1.47354339846 -0.532100782471 -1.38805698754 -2.04000502048 -0.588996052402 2.00607784179
10.8547008938 -1.44354310432 -1.30075715142 0.109151067845 1.8469083533 -1.47180572041 -0.531957628125 -1.38918676707 -2.04038799318 -0.588590440556 2.0053294754
10.8691344715 -1.44349961542 -1.30325686096 0.109012181191 1.84718612661 -1.47007420843 -0.531814221691 -1.39031240881 -2.04076793096 -0.588179783403 2.00457743859
10.8837784531 -1.44345603117 -1.30576789922 0.108872128535 1.84746623192 -1.46834881555 -0.531670566944 -1.3914338945 -2.04114484169 -0.587764082557 2.00382175276
10.8986351214 -1.44341235343 -1.30829018453 0.108730909163 1.84774867066 -1.46662949483 -0.531526668054 -1.39255120622 -2.04151873348 -0.587343339909 2.00306243954
10.9137067821 -1.44336858408 -1.31082363565 0.1085885224 1.84803344419 -1.46491619944 -0.53138252921 -1.39366432634 -2.04188961475 -0.586917557958 2.00229952066
10.9289957642 -1.44332472497 -1.31336817176 0.108444967612 1.84832055377 -1.46320888262 -0.531238154687 -1.39477323748 -2.0422574942 -0.586486739744 2.00153301796
10.9445044192 -1.44328077794 -1.31592371249 0.108300244192 1.8486100006 -1.46150749769 -0.531093549012 -1.39587792263 -2.04262238081 -0.586050888666 2.00076295345
10.9602351219 -1.44323674479 -1.31849017784 0.108154351572 1.84890178584 -1.45981199807 -0.53094871716 -1.3969783651 -2.0429842838 -0.585610008326 1.99998934942
10.9761902689 -1.44319262738 -1.32106748831 0.108007289227 1.84919591053 -1.45812233733 -0.530803663515 -1.39807454834 -2.0433432127 -0.585164103457 1.99921222797
10.9925341021 -1.44314842749 -1.32365556481 0.107859056663 1.84949237566 -1.45643846914 -0.530658393075 -1.39916645619 -2.04369917727 -0.584713178801 1.9984316115
11.0092752946 -1.44310414694 -1.32625432869 0.107709653421 1.84979118215 -1.45476034728 -0.530512910851 -1.40025407272 -2.04405218754 -0.584257239662 1.9976475225
11.0264227029 -1.4430597875 -1.32886370174 0.107559079077 1.85009233083 -1.45308792565 -0.530367222163 -1.40133738234 -2.04440225377 -0.583796291622 1.99685998363
11.0439853729 -1.44301535096 -1.33148360623 0.107407333246 1.8503958225 -1.45142115835 -0.530221331917 -1.40241636962 -2.04474938649 -0.583330341196 1.99606901743
11.0619480577 -1.44297085872 -1.3341103847 0.107254474231 1.85070154053 -1.44978983972 -0.530073386203 -1.40347556442 -2.04508455573 -0.582859133781 1.99527465174
11.0803417271 -1.44292629528 -1.33674718845 0.107100468952 1.85100955108 -1.44816395553 -0.529925265871 -1.40453047151 -2.04541688777 -0.582383063592 1.99447700279
11.0991759248 -1.44288166228 -1.33939394382 0.10694531718 1.85131985463 -1.44654346122 -0.52977697665 -1.40558107735 -2.04574639391 -0.581902138236 1.99367609301
11.1186532411 -1.4428369614 -1.34205057765 0.106789018724 1.85163245154 -1.44492831242 -0.529628523893 -1.40662736859 -2.04607308569 -0.581416366153 1.99287194464
11.1387948096 -1.44279219427 -1.34471701719 0.106631573417 1.85194734215 -1.4433184649 -0.529479913612 -1.4076693322 -2.04639697481 -0.580925755648 1.99206458029
11.1596224398 -1.44274736254 -1.34739319017 0.106472981129 1.85226452673 -1.44171387463 -0.529331151439 -1.40870695531 -2.04671807321 -0.580430315845 1.99125402239
11.1813740019 -1.44270246781 -1.35007902476 0.106313241757 1.85258400547 -1.44011449775 -0.52918224354 -1.40974022534 -2.047036393 -0.579930055834 1.99044029362
11.2040895843 -1.4426575117 -1.35277444959 0.106152355233 1.85290577852 -1.43852029062 -0.529033195761 -1.41076912988 -2.04735194649 -0.579424985456 1.98962341656
11.227961027 -1.44261256575 -1.35546955105 0.105990611669 1.85322926565 -1.43698903529 -0.528880167131 -1.41176321392 -2.04764728674 -0.578915246739 1.98880415806
11.2531320384 -1.44256756538 -1.35817344885 0.105827771941 1.85355494511 -1.43546262085 -0.528727040528 -1.41275304641 -2.04794003334 -0.578400969246 1.98798198125
11.2800789274 -1.44252251201 -1.36088607816 0.105663836152 1.85388281668 -1.43394100614 -0.528573822238 -1.41373861741 -2.04823019909 -0.577882163772 1.98715690769
11.3054119071 -1.44247740707 -1.36360737464 0.105498804432 1.85421288012 -1.43242415027 -0.528420518184 -1.41471991708 -2.04851779698 -0.577358841801 1.98632895872
11.3295915685 -1.44243225198 -1.36633727436 0.105332676937 1.85454513511 -1.43091201254 -0.528267134566 -1.4156969358 -2.04880284011 -0.576831014922 1.98549815582
11.3526696563 -1.44238704816 -1.36907571382 0.105165453847 1.85487958129 -1.42940455247 -0.528113677605 -1.41666966413 -2.04908534175 -0.576298695053 1.98466452047
11.3749158932 -1.44234179698 -1.37182262995 0.104997135365 1.85521621826 -1.4279017298 -0.527960153918 -1.41763809287 -2.04936531522 -0.57576189409 1.98382807431
11.3963595737 -1.44229649986 -1.37457796013 0.104827721725 1.85555504554 -1.42640350451 -0.527806569573 -1.41860221288 -2.0496427741 -0.575220624771 1.98298883872
11.4200098765 -1.44224484692 -1.37771613555 0.104633578641 1.85594333171 -1.42479252034 -0.527624252302 -1.41964788851 -2.04992810012 -0.57459801051 1.98202879756
11.4428599913 -1.44219314314 -1.3808639731 0.10443810251 1.85633428397 -1.42318699048 -0.527441925049 -1.42068819512 -2.05021045892 -0.573970073774 1.98106550339
11.465105591 -1.4421413903 -1.38402139192 0.104241293909 1.85672790117 -1.42158686062 -0.527259596651 -1.42172312299 -2.05048987077 -0.573336834542 1.98009898514
11.4867619225 -1.4420895901 -1.38718831182 0.104043153439 1.85712418211 -1.41999207683 -0.527077276358 -1.42275266275 -2.05076635606 -0.572698312822 1.97912927191
11.5078438776 -1.44203774428 -1.39036465329 0.103843681737 1.85752312551 -1.41840258559 -0.526894973318 -1.42377680517 -2.05103993531 -0.57205452912 1.97815639266
11.528366001 -1.44198585451 -1.39355033743 0.103642879467 1.85792473005 -1.41681833376 -0.52671269719 -1.42479554134 -2.05131062916 -0.571405503861 1.97718037654
11.5485422623 -1.4419339225 -1.39674528608 0.103440747331 1.85832899433 -1.41523926864 -0.526530457166 -1.42580886247 -2.05157845842 -0.570751258288 1.97620125243
11.5681763377 -1.4418822136 -1.39991687124 0.103238681748 1.85873312549 -1.41378764905 -0.526339038263 -1.42675063532 -2.05180693435 -0.570095027003 1.97522368005
11.5878584262 -1.44183047012 -1.40309621218 0.103035408863 1.85913967126 -1.41234057572 -0.526147732306 -1.42768735906 -2.05203293961 -0.569434223173 1.97424344846
11.6079846994 -1.4417786934 -1.40628324491 0.102830929523 1.85954862994 -1.41089800271 -0.525956547642 -1.42861902862 -2.05225649423 -0.568768867992 1.97326058246
11.6287704513 -1.44172688474 -1.40947790603 0.102625244598 1.85995999979 -1.40945988445 -0.525765492798 -1.4295456391 -2.05247761829 -0.568098982715 1.97227510689
11.650236748 -1.44167504543 -1.41268013267 0.102418354972 1.86037377904 -1.40802617575 -0.525574576711 -1.43046718578 -2.05269633187 -0.567424588448 1.97128704669
11.672405317 -1.44162317677 -1.41588986254 0.102210261555 1.86078996588 -1.40659683184 -0.525383807872 -1.43138366402 -2.05291265517 -0.566745706935 1.97029642649
11.6952985702 -1.44157128001 -1.41910703386 0.102000965274 1.86120855844 -1.4051718083 -0.525193195347 -1.43229506939 -2.0531266084 -0.5660623596 1.96930327115
11.7188415338 -1.44151972668 -1.42228641299 0.101792592781 1.86162530343 -1.40389714387 -0.524991033092 -1.43312159359 -2.0532949045 -0.565380153467 1.96831481507
11.7433857077 -1.44146815012 -1.42547166748 0.101583158439 1.86204417211 -1.40262610831 -0.524789100561 -1.43394351113 -2.05346127741 -0.564694225317 1.96732429326
11.7689732064 -1.4414165512 -1.42866274995 0.101372663206 1.86246516258 -1.40135866478 -0.524587405545 -1.43476082061 -2.0536257456 -0.564004595216 1.96633172587
11.7959146437 -1.44136493082 -1.4318596135 0.101161108055 1.86288827288 -1.40009477676 -0.524385955553 -1.4355735207 -2.0537883276 -0.563311283596 1.96533713279
11.8245648239 -1.44131328989 -1.43506221163 0.100948493971 1.86331350105 -1.39883440811 -0.524184758261 -1.43638161015 -2.05394904192 -0.562614310826 1.96434053392
11.855134341 -1.44126162924 -1.43827049827 0.100734821943 1.8637408451 -1.39757752302 -0.523983821584 -1.4371850878 -2.05410790703 -0.561913697146 1.9633419492
11.8838858904 -1.44120994981 -1.44148442779 0.100520092984 1.86417030302 -1.39632408603 -0.523783152823 -1.4379839525 -2.05426494152 -0.561209463466 1.96234139814
11.9150042977 -1.44115020182 -1.44517320844 0.100271715813 1.86466705736 -1.39506063287 -0.523532832631 -1.43880317693 -2.05438860786 -0.560393117293 1.96118335274
11.9443342528 -1.44109043001 -1.44886760052 0.100022106442 1.8651662761 -1.3938008953 -0.523282962738 -1.43961687263 -2.05451043386 -0.559572933092 1.9600232572
11.9722827007 -1.44103063522 -1.45256755295 0.099771266329 1.86566795633 -1.39254482954 -0.523033553251 -1.44042504124 -2.0546304449 -0.55874893918 1.95886113516
11.9989142903 -1.44097081828 -1.45627301524 0.099519196941 1.86617209511 -1.39129239232 -0.522784614146 -1.44122768447 -2.05474866636 -0.557921164025 1.95769701003
12.0245444333 -1.44091098001 -1.45998393742 0.0992658997489 1.86667868949 -1.39004354092 -0.522536155726 -1.44202480412 -2.05486512346 -0.5570896358 1.95653090525
12.049210408 -1.44085112121 -1.46370027006 0.0990113762337 1.86718773652 -1.38879823309 -0.522288188162 -1.44281640201 -2.05497984143 -0.556254382822 1.95536284406
12.0738510918 -1.44079190946 -1.46733964096 0.0987600247934 1.8676904394 -1.3877710849 -0.522021239085 -1.44348324391 -2.05503008186 -0.555428489194 1.95420778306
12.0995172427 -1.44073267325 -1.47098255403 0.0985076556951 1.8681951776 -1.3867465022 -0.521754843153 -1.44414539885 -2.05507924702 -0.554599980846 1.95305133778
12.1262512842 -1.44067341292 -1.47462897828 0.0982542701088 1.86870194877 -1.38572445511 -0.521489008644 -1.44480287047 -2.05512735715 -0.553768880152 1.95189352425
12.1543758504 -1.44061412883 -1.47827888304 0.0979998692115 1.86921075057 -1.38470491406 -0.521223743417 -1.44545566241 -2.05517443252 -0.552935209843 1.95073435816
12.1839629942 -1.4405548213 -1.48193223796 0.0977444541721 1.86972158064 -1.3836878499 -0.520959055789 -1.44610377833 -2.05522049323 -0.55209899214 1.94957385534
12.2155899505 -1.44049549071 -1.48558901302 0.0974880261703 1.87023443665 -1.38267323379 -0.520694953511 -1.44674722186 -2.05526555942 -0.551260249766 1.94841203123
12.2488023193 -1.44043681614 -1.48915288862 0.0972360628524 1.87073836328 -1.38189056936 -0.520408911022 -1.4472575953 -2.05524305001 -0.550435924516 1.94726713989
12.2851165093 -1.44037819136 -1.49271964613 0.096983134253 1.87124422048 -1.38111088038 -0.520123712165 -1.44776339858 -2.05521962391 -0.549609488629 1.94612110149
12.3264669829 -1.44031953355 -1.49628826249 0.0967293930145 1.87175170296 -1.38033267675 -0.51983913358 -1.44826542219 -2.05519586053 -0.548781615642 1.94497423154
12.3749787621 -1.44026084262 -1.49985872597 0.0964748395111 1.87226080997 -1.37955594372 -0.519555182152 -1.44876366902 -2.05517177331 -0.547952319331 1.94382653834
12.4371015857 -1.44020211858 -1.50343102111 0.0962194744847 1.87277154002 -1.37878066415 -0.519271863833 -1.44925814294 -2.05514737695 -0.54712161579 1.94267803087
12.5494976172 -1.44014336137 -1.50700513259 0.0959632986578 1.87328389167 -1.37800682129 -0.51898918518 -1.44974884782 -2.05512268585 -0.546289520396 1.94152871838
12.6202587217 -1.44007374761 -1.51116866898 0.0956623779804 1.87388573303 -1.37737123475 -0.518620559353 -1.45016925086 -2.05500844347 -0.545312637996 1.94017326585
12.6747127132 -1.44000415811 -1.51533375566 0.0953604238948 1.8744896412 -1.3767376289 -0.518253180499 -1.45058486407 -2.05489416931 -0.544334586446 1.93881705929
12.7205653202 -1.43993450571 -1.51949982384 0.095057563242 1.8750953625 -1.37610478029 -0.517886634834 -1.45099636281 -2.05478037379 -0.543356054151 1.93746017418
12.7613357602 -1.43986478177 -1.52366686823 0.0947537940535 1.87570290088 -1.37547269678 -0.517521014329 -1.45140375218 -2.05466704351 -0.54237696787 1.93610266424
12.7983347721 -1.43979498577 -1.52783487919 0.0944491166914 1.87631225561 -1.37484136707 -0.517156327717 -1.45180703685 -2.05455419395 -0.541397342994 1.93474453669
12.8351489607 -1.43972608997 -1.53186677365 0.0941518105393 1.87690686791 -1.37451233377 -0.516759476884 -1.45203557341 -2.05435479916 -0.54044314868 1.93341287886
12.875793402 -1.43965717521 -1.53589876668 0.0938537568984 1.87750297519 -1.37418321863 -0.51636358625 -1.45226103732 -2.05415653001 -0.539489547553 1.93208088306
12.9220509763 -1.43958816242 -1.53993079528 0.0935550130495 1.87810046289 -1.37385364897 -0.51596851808 -1.45248370435 -2.05395954336 -0.538536718425 1.93074856338
12.9774552287 -1.43951904503 -1.5439628669 0.0932555757392 1.87869933751 -1.37352366077 -0.51557433022 -1.45270356075 -2.05376381581 -0.537584602261 1.92941595139
13.0515880389 -1.43944982231 -1.54799498023 0.0929554444788 1.87929960003 -1.3731932564 -0.515181029756 -1.45292060814 -2.0535693548 -0.536633205165 1.9280830483
13.1048683327 -1.43938149776 -1.55188450639 0.0926634497785 1.87988358943 -1.37316993062 -0.514753033807 -1.4529598626 -2.05328739655 -0.5357101196 1.92677847925
13.1495839023 -1.43931310316 -1.55577384917 0.0923709086589 1.88046867167 -1.37314469106 -0.514325565328 -1.45299767025 -2.05300754604 -0.534789094883 1.92547359405
13.1913632642 -1.43924456415 -1.55966305045 0.0920778383048 1.88105481238 -1.3731179494 -0.513898882581 -1.45303393253 -2.05272963036 -0.533869815875 1.92416853183
13.239236336 -1.43917587955 -1.56355212311 0.0917842350383 1.88164201891 -1.37308975623 -0.513472977492 -1.45306861808 -2.05245363094 -0.532952276169 1.92286328557
13.2975218735 -1.43910704845 -1.56744106646 0.0914900976273 1.88223029373 -1.37306012379 -0.513047857883 -1.45310172538 -2.05217954875 -0.532036474189 1.92155785385
13.4088248831 -1.43902217591 -1.57212196944 0.091133161579 1.88294416583 -1.37340541278 -0.512469627451 -1.45292104299 -2.05172840404 -0.530930184981 1.91996200123
13.477503172 -1.43893700358 -1.57680359324 0.0907755555426 1.8836593779 -1.37374698777 -0.511892354427 -1.45273969637 -2.05128107573 -0.529827846152 1.91836569968
13.5348563663 -1.43885075695 -1.58148540163 0.0904199993735 1.88438878652 -1.37408651381 -0.511316957244 -1.45255746853 -2.05084206433 -0.528728920334 1.91676573856
13.583604752 -1.43876451577 -1.58616824713 0.0900661443963 1.88511726695 -1.37441183212 -0.510747287937 -1.45236577552 -2.05039335141 -0.527639074387 1.91516408412
13.6171688468 -1.43869665139 -1.58977373906 0.0897875799048 1.88567439593 -1.37498040896 -0.510248015309 -1.45204381118 -2.04995639446 -0.526795341623 1.91391458574
13.6484900333 -1.43862854075 -1.59338099882 0.0895086263632 1.88623230302 -1.37554583523 -0.509749162028 -1.45172246551 -2.04952227929 -0.525954687992 1.91266448683
13.6780103334 -1.43856018287 -1.59699001005 0.0892292815 1.88679099274 -1.37610813572 -0.509250737849 -1.45140173052 -2.04909099992 -0.525117108866 1.91141378632
13.7061113911 -1.43849157669 -1.60060075641 0.0889495430539 1.88735046963 -1.37666733476 -0.508752753341 -1.45108159862 -2.04866255033 -0.524282598907 1.91016248353
13.7328578705 -1.43842199962 -1.60421275711 0.0886644887007 1.88790567503 -1.377225862 -0.508258288983 -1.45076389304 -2.04823765206 -0.523452872376 1.90890537434
13.7602072129 -1.43835384976 -1.60769212092 0.0883928437827 1.88844896487 -1.37807407769 -0.507719965689 -1.45027367507 -2.04772877273 -0.522652476012 1.90768004844
13.7889822326 -1.43828539338 -1.61117518698 0.0881207900743 1.88899307229 -1.37891849531 -0.507181844983 -1.44978500792 -2.04722301988 -0.521855502789 1.90645362997
13.8195596961 -1.4382166293 -1.61466192489 0.0878483251496 1.88953800214 -1.37975914128 -0.506643940333 -1.44929788335 -2.04672038759 -0.521061951311 1.90522612117
13.8523771175 -1.43814755633 -1.61815230454 0.0875754465705 1.89008375929 -1.38059604195 -0.506106264804 -1.44881229301 -2.04622086998 -0.520271820391 1.90399752406
13.8883061871 -1.43807817324 -1.62164629593 0.0873021518976 1.89063034864 -1.3814292234 -0.505568831897 -1.44832822874 -2.04572446115 -0.519485108334 1.90276784084
13.9270643729 -1.43800933491 -1.62501928893 0.0870368060988 1.89116104024 -1.38254106151 -0.504989795304 -1.44768069564 -2.0451481914 -0.518728046295 1.90156204443
13.9618124381 -1.43794012422 -1.62839843121 0.0867709786801 1.89169269507 -1.38364855702 -0.504410736005 -1.44703554514 -2.04457524443 -0.51797459074 1.90035451799
13.9959373452 -1.43787053966 -1.63178367611 0.0865046672662 1.8922253179 -1.38475173626 -0.503831671613 -1.44639277059 -2.04400561655 -0.517224747358 1.89914526788
14.0336999116 -1.43780057977 -1.63517497734 0.0862378694538 1.89275891353 -1.38585062558 -0.503252619023 -1.44575236514 -2.0434393041 -0.516478522206 1.89793430006
14.0768381428 -1.43773024305 -1.63857228883 0.0859705828242 1.89329348679 -1.38694525122 -0.502673595413 -1.445114322 -2.04287630334 -0.515735920838 1.89672162057
14.1177434076 -1.43767193498 -1.64131492217 0.0857538167176 1.893727019 -1.38807564523 -0.502156542777 -1.44445410682 -2.04234415748 -0.515139895523 1.89572825394
14.1532794665 -1.43761331897 -1.64406378783 0.0855366350841 1.89416138227 -1.38920270269 -0.501639321263 -1.44379606597 -2.04181441338 -0.514546426038 1.89473316768
14.1852030627 -1.43755439392 -1.64681884863 0.0853190366723 1.89459657909 -1.39032643809 -0.501121943353 -1.44314019762 -2.04128707129 -0.513955522011 1.893736368
14.2144573213 -1.4374951587 -1.6495800675 0.0851010202152 1.895032612 -1.39144686593 -0.50060442175 -1.44248649994 -2.04076213138 -0.513367192677 1.89273786113
14.2418037846 -1.4374356122 -1.65234740755 0.0848825844252 1.89546948358 -1.39256400076 -0.500086768838 -1.44183497097 -2.04023959382 -0.512781447363 1.89173765312
14.2676220321 -1.43737575333 -1.65512083204 0.0846637279971 1.89590719644 -1.39367785715 -0.499568996919 -1.44118560869 -2.03971945868 -0.512198295274 1.89073574993
14.293000899 -1.4373160745 -1.65782006559 0.0844500309331 1.89633459057 -1.39499272466 -0.499017223343 -1.44041731596 -2.03914054287 -0.511635162158 1.88974774985
14.3172225331 -1.43725603505 -1.66052762824 0.084235814903 1.89676302263 -1.39630398807 -0.498465145958 -1.43965167066 -2.03856409984 -0.511074603164 1.88875747139
14.3403390738 -1.43719563356 -1.66324347225 0.0840210788395 1.89719249476 -1.39761166068 -0.497912780191 -1.4388886741 -2.03799013295 -0.510516635191 1.88776492359
14.3626209648 -1.43713486855 -1.66596754997 0.0838058216486 1.89762300914 -1.39891575584 -0.497360141599 -1.43812832751 -2.03741864544 -0.509961274742 1.88677011546
14.3840977716 -1.4370737386 -1.66869981396 0.0835900422021 1.89805456803 -1.40021628705 -0.496807245162 -1.43737063189 -2.03684964049 -0.509408538578 1.88577305572
14.4060715232 -1.43701224224 -1.67144021683 0.083373739352 1.89848717373 -1.40151326783 -0.496254106378 -1.43661558824 -2.03628312114 -0.508858442717 1.88477375322
14.4284514664 -1.43695074216 -1.67412237084 0.0831616130308 1.89891142637 -1.4029911194 -0.495668420339 -1.43575309197 -2.0356632396 -0.508325742257 1.88378471073
14.4518307726 -1.43688882611 -1.67681496455 0.082948850851 1.89933695073 -1.40446514184 -0.495082322942 -1.43489368295 -2.03504589634 -0.507795637454 1.88279282294
14.4764973958 -1.43682649226 -1.67951793957 0.0827354519382 1.89976374856 -1.40593534717 -0.49449583245 -1.43403736624 -2.03443109826 -0.507268153443 1.88179810161
14.5027815122 -1.43676373873 -1.6822312376 0.0825214153791 1.90019182168 -1.40740174755 -0.493908967236 -1.43318414678 -2.03381885205 -0.506743314904 1.88080055848
14.5310682536 -1.43670056367 -1.68495480047 0.0823067402215 1.90062117199 -1.40886435529 -0.493321745584 -1.43233402931 -2.03320916429 -0.506221146248 1.87980020517
14.56198016 -1.43663696523 -1.68768857009 0.0820914254708 1.90105180149 -1.41032318285 -0.492734185429 -1.43148701833 -2.03260204142 -0.505701671859 1.87879705308
14.5909979845 -1.43658230585 -1.6899950692 0.081909606994 1.90141543845 -1.41170966426 -0.492204774183 -1.43067993863 -2.03204120253 -0.505269023094 1.87794311755
14.6178299186 -1.43652729911 -1.69231071088 0.0817272321002 1.90178018823 -1.41309319401 -0.491675006051 -1.42987543102 -2.03148228152 -0.504838319953 1.87708669198
14.6429548896 -1.43647194348 -1.69463545172 0.0815443003544 1.90214605173 -1.41447377885 -0.491144895216 -1.42907350142 -2.03092528492 -0.504409582716 1.8762277858
14.6667159481 -1.43641623754 -1.69696924839 0.0813608112766 1.90251302988 -1.41585142577 -0.49061445477 -1.4282741554 -2.03037021921 -0.503982832436 1.87536640796
14.6894110847 -1.43636017984 -1.69931205759 0.0811767643634 1.90288112371 -1.41722614186 -0.490083698014 -1.42747739847 -2.02981709075 -0.503558089742 1.87450256745
14.7110873997 -1.43630376891 -1.70166383602 0.0809921590864 1.90325033426 -1.41859793429 -0.489552638389 -1.42668323599 -2.02926590578 -0.503135374901 1.87363627326
14.731996971 -1.43624700332 -1.70402454047 0.0808069948831 1.90362066267 -1.41996681038 -0.489021288828 -1.42589167316 -2.02871667049 -0.502714708422 1.87276753416
14.7526923528 -1.43618998028 -1.70636106254 0.0806237267526 1.90398719893 -1.42145084755 -0.488466718718 -1.42503126516 -2.02813279182 -0.502304117827 1.87190187673
14.7726690013 -1.43613256783 -1.70870801662 0.0804398163531 1.90435501973 -1.42293182199 -0.487911771378 -1.42417371696 -2.02755089642 -0.50189555491 1.87103337585
14.7925353574 -1.43607476424 -1.71106535305 0.0802552632824 1.90472412587 -1.42440974009 -0.487356461913 -1.42331903669 -2.02697099285 -0.501489045463 1.87016204214
14.8132989822 -1.43601656774 -1.71343302218 0.0800700671061 1.90509451822 -1.42588460842 -0.486800805551 -1.4224672323 -2.02639308956 -0.50108461488 1.86928788623
14.8349995348 -1.43595797661 -1.7158109744 0.0798842273504 1.90546619773 -1.42735643367 -0.486244817159 -1.42161831153 -2.02581719485 -0.500682288624 1.86841091857
14.8579051838 -1.4358989891 -1.71819916007 0.0796977435107 1.90583916541 -1.4288252227 -0.485688511728 -1.42077228198 -2.02524331691 -0.500282091763 1.86753114961
14.88208191 -1.43583960346 -1.72059752958 0.0795106150473 1.90621342234 -1.43029098247 -0.485131904127 -1.41992915106 -2.0246714638 -0.499884049208 1.86664858972
14.9077000683 -1.43577982776 -1.72298366206 0.0793245600959 1.90658553224 -1.43184947595 -0.484555463787 -1.41903063857 -2.02407161727 -0.499494078266 1.86576652884
14.9318689756 -1.43571962197 -1.72538125596 0.0791377859085 1.90695908062 -1.43340482305 -0.483978659751 -1.41813525319 -2.02347383281 -0.499106266826 1.86488133665
14.9547454947 -1.43565898404 -1.72779025592 0.0789502920554 1.90733406832 -1.43495703008 -0.483401508851 -1.4172430049 -2.02287812054 -0.498720644339 1.86399302516
14.9766142754 -1.43559791198 -1.73021060656 0.0787620780599 1.90771049632 -1.43650610357 -0.482824027564 -1.41635390343 -2.02228449042 -0.498337240277 1.86310160619
14.9977278183 -1.43553640376 -1.7326422525 0.0785731434091 1.90808836562 -1.43805205016 -0.482246232473 -1.41546795833 -2.02169295227 -0.497956083694 1.86220709155
15.0181113045 -1.43547445739 -1.73508513838 0.0783834875393 1.90846767736 -1.43959487673 -0.481668139516 -1.41458517887 -2.02110351576 -0.497577203943 1.86130949277
15.0377891171 -1.43541207086 -1.73753920877 0.0781931098602 1.90884843271 -1.44113459023 -0.481089765258 -1.4137055742 -2.02051619041 -0.497200629463 1.86040882155
15.0544807887 -1.43535706576 -1.73968394636 0.0780268858523 1.90918088073 -1.442542729 -0.480570026733 -1.41289978139 -2.01998399496 -0.496876693491 1.85961961037
15.07091466 -1.43530170259 -1.74183800207 0.0778600624209 1.90951452759 -1.44394841752 -0.480050045838 -1.41209656441 -2.01945344578 -0.496554544412 1.85882784371
15.0870941056 -1.43524597986 -1.74400133561 0.0776926391902 1.90984937405 -1.44535166025 -0.479529834065 -1.41129593061 -2.0189245503 -0.496234204255 1.85803353005
15.1030224793 -1.43518989605 -1.74617390666 0.0775246157699 1.9101854209 -1.44675246172 -0.479009403518 -1.41049788729 -2.01839731584 -0.495915694258 1.85723667803
15.118703102 -1.43513344971 -1.74835567491 0.0773559917282 1.91052266898 -1.44815082661 -0.478488765457 -1.40970244152 -2.01787174962 -0.495599036264 1.85643729601
15.134139269 -1.43507663932 -1.75054660001 0.0771867666214 1.91086111919 -1.44954675967 -0.477967931822 -1.40890960032 -2.01734785876 -0.495284251254 1.85563539249
15.1493342473 -1.43501946338 -1.75274664161 0.0770169399731 1.91120077249 -1.45094026576 -0.477446914145 -1.40811937055 -2.01682565029 -0.494971360395 1.85483097585
15.1642912749 -1.43496192039 -1.75495575935 0.0768465112852 1.91154162986 -1.4523313498 -0.476925724128 -1.40733175894 -2.01630513115 -0.494660384485 1.85402405445
15.178976181 -1.43490393856 -1.75716828081 0.0766759728263 1.91188270678 -1.45376236291 -0.476394903879 -1.4065207536 -2.01577274677 -0.494353468377 1.85321492902
15.193578578 -1.43484557359 -1.75939037183 0.0765047992226 1.91222505399 -1.45519091102 -0.475863902481 -1.40571247441 -2.01524208006 -0.494048503285 1.8524031645
15.2080983841 -1.4347868239 -1.76162198975 0.0763329899586 1.91256867252 -1.45661699905 -0.475332731925 -1.40490692882 -2.01471313857 -0.493745511881 1.85158876968
15.2225355252 -1.43472768789 -1.76386309193 0.0761605444916 1.91291356345 -1.45804063202 -0.474801404223 -1.40410412417 -2.01418592975 -0.493444516599 1.85077175336
15.2368899464 -1.43466816395 -1.76611363566 0.0759874622553 1.91325972792 -1.45946181506 -0.474269931543 -1.40330406766 -2.01366046096 -0.493145539494 1.84995212433
15.251161598 -1.4346082505 -1.76837357827 0.0758137426489 1.91360716714 -1.4608805534 -0.473738325652 -1.40250676632 -2.01313673945 -0.492848602789 1.84912989121
15.2653504454 -1.43454794592 -1.77064287708 0.0756393850543 1.91395588233 -1.46229685236 -0.473206598752 -1.40171222709 -2.01261477236 -0.492553728062 1.84830506273
15.2794564658 -1.43448724863 -1.77292148939 0.0754643888189 1.9143058748 -1.46371071738 -0.472674762642 -1.40092045674 -2.01209456676 -0.492260937058 1.84747764744
15.2934693634 -1.43442609978 -1.77520769462 0.0752889265419 1.91465679935 -1.4651432648 -0.472137903227 -1.40011844851 -2.01156930607 -0.491971210728 1.84664748847
15.3074012788 -1.43436454804 -1.77750341775 0.0751128077958 1.91500903684 -1.46657336205 -0.471600943567 -1.39931927308 -2.01104583027 -0.491683613119 1.8458146835
15.3212521801 -1.43430259171 -1.77980861485 0.0749360318839 1.91536258867 -1.46800101467 -0.471063896078 -1.3985229374 -2.01052414656 -0.49139816612 1.84497924138
15.3350220429 -1.4342402292 -1.78212324206 0.0747585980618 1.91571745631 -1.46942622837 -0.470526772226 -1.3977294482 -2.01000426204 -0.491114892314 1.84414117065
15.3487108572 -1.43417745881 -1.78444725546 0.0745805055813 1.91607364127 -1.4708490089 -0.46998958458 -1.39693881217 -2.0094861837 -0.490833812975 1.84330048012
15.3625921384 -1.43411427893 -1.78678061118 0.0744017536453 1.91643114514 -1.47226936214 -0.469452344623 -1.39615103577 -2.00896991846 -0.490554950207 1.84245717824
15.3766681018 -1.4340506879 -1.78912326534 0.0742223414406 1.91678996955 -1.47368729407 -0.468915064326 -1.39536612536 -2.0084554731 -0.490278325406 1.84161127357
15.390940988 -1.43398668408 -1.79147517408 0.074042268125 1.91715011619 -1.47510281074 -0.468377755527 -1.39458408716 -2.00794285435 -0.490003959863 1.84076277456
15.4054130581 -1.43392226583 -1.79383629353 0.0738615328302 1.91751158677 -1.4765159183 -0.467840430004 -1.39380492725 -2.00743206879 -0.489731874703 1.83991168962
15.4200865975 -1.43385743153 -1.79620657989 0.0736801346503 1.91787438313 -1.47792662302 -0.467303099128 -1.39302865154 -2.00692312293 -0.48946209121 1.83905802698
15.4349639157 -1.43379217952 -1.79858598934 0.0734980726672 1.9182385071 -1.47933493121 -0.466765774753 -1.39225526586 -2.0064160232 -0.489194629968 1.83820179495
15.4500473416 -1.43372650817 -1.80097447807 0.0733153459306 1.91860396057 -1.4807408493 -0.466228468463 -1.39148477586 -2.00591077591 -0.488929511597 1.83734300174
15.4653392333 -1.43366041585 -1.80337200234 0.0731319534579 1.91897074552 -1.4821443838 -0.465691191506 -1.39071718706 -2.00540738727 -0.488666756811 1.83648165539
15.4808419694 -1.43359390092 -1.80577851839 0.0729478942485 1.91933886394 -1.48354554131 -0.46515395547 -1.38995250487 -2.00490586342 -0.488406385766 1.83561776401
15.4967151114 -1.43352696177 -1.80819398251 0.0727631672697 1.9197083179 -1.48494432851 -0.464616771605 -1.38919073453 -2.0044062104 -0.488148418713 1.83475133555
15.5129669953 -1.43345959678 -1.81061835102 0.0725777714598 1.92007910952 -1.48634075217 -0.464079650963 -1.38843188115 -2.00390843413 -0.487892875877 1.83388237786
15.5296020589 -1.43339190948 -1.81305098442 0.0723916824365 1.92045128756 -1.48771417229 -0.463547814259 -1.38768872367 -2.00341931539 -0.487638971597 1.83301168339
15.5466310651 -1.43332380068 -1.81549215839 0.0722049385919 1.92082477525 -1.48908527131 -0.463016074287 -1.38694843679 -2.00293207075 -0.48738751754 1.83213854797
15.5640628273 -1.43325526884 -1.81794183067 0.0720175387704 1.92119957489 -1.49045405634 -0.46248444126 -1.38621102475 -2.00244670548 -0.487138532753 1.83126297885
15.5819063503 -1.43318631238 -1.82039995897 0.0718294818093 1.92157568882 -1.49182053449 -0.4619529262 -1.3854764917 -2.0019632248 -0.486892035262 1.83038498338
15.6003534768 -1.43311692974 -1.82286650112 0.0716407665106 1.92195311941 -1.493184713 -0.461421539519 -1.38474484165 -2.00148163381 -0.486648043477 1.82950456872
15.6194240778 -1.43304711941 -1.82534141497 0.0714513916491 1.92233186914 -1.49454659917 -0.460890291426 -1.38401607847 -2.00100193755 -0.486406575793 1.82862174194
15.6391386669 -1.43297687978 -1.8278246584 0.0712613559902 1.92271194045 -1.49590620032 -0.460359192736 -1.38329020596 -2.00052414099 -0.486167649785 1.82773651017
15.6595184148 -1.43290620931 -1.83031618935 0.0710706582675 1.9230933359 -1.49726352388 -0.459828253786 -1.38256722777 -2.000048249 -0.485931283286 1.82684888039
15.6807675983 -1.43283536576 -1.83281264697 0.0708793951276 1.92347586218 -1.4985780722 -0.459308075265 -1.38187222057 -1.99958763446 -0.485695976747 1.82596100397
15.7029476172 -1.43276410373 -1.83531678559 0.0706874984081 1.92385965562 -1.49989041606 -0.45878809381 -1.38117999899 -1.99912890118 -0.485463228026 1.82507088022
15.7263301764 -1.43269242177 -1.83782856585 0.0704949667714 1.92424471889 -1.50120056311 -0.458268319079 -1.38049056552 -1.99867205315 -0.485233052576 1.82417851527
15.7510196112 -1.43262031846 -1.84034794847 0.070301798851 1.92463105473 -1.5025085211 -0.45774876032 -1.37980392256 -1.99821709426 -0.485005466062 1.82328391511
15.7745433483 -1.43254779233 -1.84287489418 0.0701079932731 1.92501866589 -1.50381429779 -0.457229427327 -1.37912007244 -1.99776402836 -0.484780483405 1.82238708581
15.7969920197 -1.432474842 -1.84540936388 0.0699135486184 1.9254075552 -1.50511790104 -0.456710328664 -1.3784390173 -1.99731285917 -0.484558120564 1.82148803309
15.8186284608 -1.43240146602 -1.84795131844 0.0697184634707 1.92579772549 -1.50641933869 -0.456191473921 -1.37776075927 -1.99686359042 -0.484338392275 1.82058676286
15.8394815581 -1.43232766296 -1.85050071883 0.0695227363884 1.92618917966 -1.50771861867 -0.455672872345 -1.37708530036 -1.99641622575 -0.484121313426 1.81968328087
15.8623836183 -1.43224333647 -1.8534143025 0.0692986721578 1.92663730812 -1.50913304554 -0.455098689346 -1.37635866992 -1.99592966234 -0.483873811063 1.81865258865
15.884457558 -1.43215847844 -1.85633655869 0.0690738228598 1.92708700672 -1.51054479033 -0.45452488675 -1.37563547137 -1.99544552433 -0.483629717532 1.81761927147
15.9059455031 -1.43207308699 -1.85926743489 0.0688481862678 1.9275382799 -1.51195386508 -0.453951476306 -1.37491570579 -1.99496381559 -0.483389051466 1.81658333621
15.9268624602 -1.43198716022 -1.86220687877 0.0686217601335 1.92799113217 -1.51336028183 -0.453378470032 -1.37419937414 -1.99448453991 -0.483151830941 1.81554478967
15.9472230647 -1.43190069625 -1.8651548381 0.0683945421728 1.92844556809 -1.51476405272 -0.452805879462 -1.37348647726 -1.99400770099 -0.482918074246 1.8145036385
15.967041602 -1.4318136932 -1.8681112608 0.0681665300795 1.92890159228 -1.5161651899 -0.452233716291 -1.37277701584 -1.99353330245 -0.482687799223 1.81345988926
15.9869165251 -1.4317261492 -1.87107609492 0.0679377215182 1.9293592094 -1.51756370556 -0.451661991999 -1.37207099045 -1.99306134782 -0.48246102366 1.81241354841
16.0072350559 -1.43163886672 -1.87403329868 0.0677089321232 1.92981678819 -1.51887200548 -0.451115172959 -1.371422581 -1.99262099669 -0.48223445166 1.81137177949
16.0271069302 -1.43155107855 -1.87699767806 0.0674794112563 1.93027582992 -1.52017785926 -0.450568837422 -1.3707773057 -1.99218299454 -0.482011268372 1.81032772728
16.0466341107 -1.43146278301 -1.87996918816 0.0672491565947 1.93073633925 -1.52148127897 -0.450022995665 -1.37013516339 -1.99174734343 -0.481791486672 1.80928139647
16.0658221768 -1.43137397854 -1.88294778428 0.0670181657741 1.93119832089 -1.52278227675 -0.449477656883 -1.36949615276 -1.99131404529 -0.481575120302 1.80823279149
16.0846766286 -1.43128466352 -1.88593342187 0.0667864364178 1.9316617796 -1.5240808647 -0.448932830586 -1.36886027245 -1.99088310201 -0.481362182473 1.80718191673
16.1032028886 -1.43119483639 -1.88892605649 0.0665539661228 1.93212672019 -1.52537705498 -0.448388525901 -1.36822752098 -1.99045451542 -0.481152686567 1.80612877643
16.1214063024 -1.43110449554 -1.89192564382 0.0663207524742 1.93259314749 -1.52667085972 -0.447844752264 -1.36759789682 -1.99002828732 -0.480946645436 1.80507337482
16.1396867456 -1.43101475693 -1.89490809949 0.0660881175288 1.93305841738 -1.52785664903 -0.447331890569 -1.36703666951 -1.98963967593 -0.480739887227 1.8040257273
16.1583698081 -1.43092454773 -1.89789618227 0.0658548119482 1.93352502854 -1.52904026214 -0.446819593707 -1.36647819839 -1.9892532943 -0.48053640539 1.80297614913
16.1774640595 -1.43083386661 -1.90088985573 0.0656208333992 1.93399298564 -1.53022171071 -0.446307869099 -1.36592248052 -1.98886914292 -0.480336208881 1.80192464269
16.1969782441 -1.4307427123 -1.90388908358 0.0653861795284 1.93446229338 -1.5314010064 -0.445796723841 -1.36536951291 -1.98848722221 -0.480139306831 1.80087121019
16.2169212888 -1.43065108347 -1.90689382967 0.0651508479738 1.93493295649 -1.53257816085 -0.445286165203 -1.36481929254 -1.98810753259 -0.479945708036 1.79981585384
16.2375061166 -1.43055897886 -1.90990405795 0.0649148363508 1.93540497973 -1.53375318571 -0.444776199941 -1.36427181628 -1.98773007441 -0.479755421667 1.79875857568
16.2587530582 -1.43046639716 -1.91291973251 0.0646781422751 1.93587836788 -1.53492609258 -0.444266835428 -1.36372708102 -1.98735484803 -0.479568456113 1.79769937778
16.2843176663 -1.43035951029 -1.9164066504 0.0644033712058 1.93642791002 -1.53614986769 -0.443715112069 -1.36318253023 -1.98696721213 -0.479348306388 1.79647641558
16.311229482 -1.43025204066 -1.91989916882 0.0641277737865 1.93697910486 -1.53737108721 -0.44316423471 -1.36264112772 -1.98658239635 -0.479132343829 1.79525129147
16.3395590694 -1.43014398667 -1.92339724354 0.0638513464818 1.93753195947 -1.53858976823 -0.442614211586 -1.36210286715 -1.98620039968 -0.478920576923 1.79402400601
16.3696788862 -1.4300353467 -1.92690083054 0.0635740857402 1.93808648095 -1.53980592777 -0.442065050881 -1.36156774216 -1.98582122111 -0.478713014027 1.79279455966
16.4021120196 -1.42992611916 -1.930409886 0.0632959879931 1.93864267645 -1.54101958279 -0.441516760569 -1.36103574632 -1.98544485961 -0.47850966353 1.79156295276
16.4323254839 -1.42981630244 -1.93392436627 0.0630170496607 1.93920055311 -1.5422307502 -0.440969348728 -1.36050687318 -1.98507131412 -0.478310533539 1.79032918557
16.4603447563 -1.42970799435 -1.93739604187 0.0627401546721 1.93975434309 -1.54328169504 -0.440470724764 -1.36007840071 -1.98475342974 -0.478108390693 1.78911186184
16.4871246339 -1.42959916776 -1.9408714379 0.0624625169384 1.94030961856 -1.54433051508 -0.439972988164 -1.35965241323 -1.98443810808 -0.477910052769 1.78789279623
16.5128868874 -1.4294898215 -1.94435052285 0.0621841332405 1.94086638595 -1.54537722532 -0.439476144008 -1.35922890387 -1.98412534719 -0.477715524247 1.7866719868
16.5376699326 -1.42937995433 -1.94783326537 0.0619050003659 1.9414246517 -1.54642184067 -0.438980198207 -1.35880786578 -1.98381514517 -0.47752480865 1.78544943167
16.5615107502 -1.42926956505 -1.95131963423 0.0616251150875 1.94198442226 -1.54746437595 -0.438485156181 -1.35838929209 -1.98350750012 -0.477337909912 1.78422512882
16.5846742761 -1.42915865249 -1.95480959838 0.061344474164 1.94254570411 -1.54850484591 -0.43799102292 -1.35797317594 -1.98320241009 -0.477154832318 1.78299907613
16.6068120081 -1.4290505507 -1.95824607629 0.061069314451 1.94310191299 -1.54937249366 -0.437547840122 -1.35766720781 -1.98295567676 -0.476963309721 1.78179559738
16.6283050806 -1.42894075382 -1.96168357898 0.0607865944943 1.94365778949 -1.55023727493 -0.437104084364 -1.35735906508 -1.98271708126 -0.47677467107 1.78058548063
16.6493850095 -1.42883092403 -1.96512277122 0.0605074777014 1.94421602307 -1.55110293703 -0.436666272811 -1.35705328569 -1.98247601515 -0.476592978438 1.77937707378
16.6713412059 -1.42872061495 -1.96856515183 0.0602275994901 1.9447757795 -1.5519655256 -0.436228927907 -1.35675028338 -1.98223761037 -0.476415181171 1.77816685192
16.6939761291 -1.42860985181 -1.97200957676 0.059947044735 1.94533688901 -1.55282647489 -0.435792491602 -1.35644904998 -1.98200147398 -0.476240721023 1.77695523117
16.7173106575 -1.42849863347 -1.97545603142 0.0596658101555 1.94589935817 -1.55368579599 -0.435356966095 -1.35614958024 -1.98176760397 -0.476069599539 1.77574220611
16.7458265095 -1.42837003474 -1.9795176484 0.0593375584559 1.94656073645 -1.55449170848 -0.434902602914 -1.35592557709 -1.98155325431 -0.475852688394 1.77432180921
16.7759010978 -1.42823904819 -1.98357909627 0.0590049274314 1.947231467 -1.55529579196 -0.434451328151 -1.35569906038 -1.9813474729 -0.475642963097 1.77289202062
16.8078334218 -1.42810751694 -1.98764150379 0.0586689989097 1.94789660462 -1.55610813954 -0.43400387804 -1.35548535675 -1.98114437707 -0.475439772109 1.77145829479
16.842076537 -1.42797543915 -1.9917047823 0.0583297742281 1.94856413182 -1.55690952198 -0.433551374233 -1.35526424866 -1.98094507624 -0.475234100108 1.77002204946
16.8792711758 -1.42784360717 -1.99577019631 0.0579952391774 1.94923603715 -1.55771984793 -0.43310091292 -1.35505513442 -1.98075292223 -0.475033975212 1.76859218268
16.9177400834 -1.42771395708 -1.99974999492 0.0576629586962 1.94990059811 -1.5582986935 -0.432728736854 -1.35497818773 -1.98063761902 -0.474827025373 1.7671881019
16.9604951157 -1.42758386564 -2.00372992417 0.0573298328381 1.95056684982 -1.55887542907 -0.432357521972 -1.35490248199 -1.98052498903 -0.474623737727 1.76578254196
16.9988229604 -1.42745330329 -2.00770983926 0.056995877087 1.95123476133 -1.55945107231 -0.431987526785 -1.35482735291 -1.98041474425 -0.474423642541 1.76437558435
17.0340742417 -1.42732226919 -2.01168973205 0.0566610881271 1.95190433925 -1.56002563323 -0.431618752566 -1.35475279558 -1.98030688398 -0.474226740675 1.762967221
17.068382542 -1.42719076251 -2.01566959238 0.0563254628039 1.95257558989 -1.56059912304 -0.431251202569 -1.35467880417 -1.98020140745 -0.474033031203 1.76155744458
17.1046163677 -1.42706276841 -2.0195591023 0.055994872177 1.95323677115 -1.56094176698 -0.430961800418 -1.3547475721 -1.98017571975 -0.473827262861 1.76017987841
17.1446048184 -1.42693444462 -2.02344785594 0.0556634617676 1.95389959197 -1.56128345877 -0.430673236182 -1.35481629015 -1.98015211273 -0.47362431303 1.75880097819
17.1901082592 -1.42680571524 -2.02733599899 0.0553312377098 1.95456404008 -1.56162469816 -0.430385926862 -1.35488466017 -1.98013046324 -0.473423583959 1.75742076226
17.2444630457 -1.42667658829 -2.03122353058 0.0549981959104 1.95523012368 -1.56196548794 -0.430099766437 -1.35495268046 -1.9801107635 -0.473225190445 1.75603921112
17.3182250962 -1.42654706323 -2.03511044587 0.0546643339459 1.95589784761 -1.56230583436 -0.42981475756 -1.35502034831 -1.9800930151 -0.473029133722 1.75465631864
17.3717664779 -1.42642128665 -2.03890459421 0.0543357171055 1.95655508129 -1.56241481694 -0.429609693375 -1.35523103651 -1.98015512423 -0.472819002428 1.7533064879
17.4167876935 -1.42629523461 -2.04269803985 0.0540062446331 1.95721402623 -1.5625239806 -0.429405729001 -1.35544048257 -1.98021879783 -0.472610400395 1.75195523146
17.4588337876 -1.42616884354 -2.04649091341 0.0536759283039 1.95787465889 -1.56263330718 -0.429202830415 -1.35564873021 -1.980284005 -0.472403275427 1.75060254951
17.5076498468 -1.42604211299 -2.05028321096 0.0533447662806 1.95853698294 -1.56274279865 -0.429001000794 -1.35585577907 -1.98035074987 -0.472197631383 1.74924843798
17.5684014306 -1.42591504255 -2.05407492853 0.0530127567284 1.95920100204 -1.56285245691 -0.428800243316 -1.35606162879 -1.98041903662 -0.471993472116 1.74789289283
17.6161513292 -1.42579184125 -2.05777488728 0.0526859538815 1.95985460774 -1.56273359887 -0.428679861794 -1.3564088855 -1.98056612988 -0.47177364903 1.74657016749
17.6573932507 -1.42566842859 -2.06147511714 0.0523581788388 1.96051015782 -1.56261598805 -0.428560352744 -1.35675383204 -1.98071427643 -0.471554572471 1.74524559746
17.6991416184 -1.42554467072 -2.06517537063 0.052029466459 1.96116758258 -1.56249914713 -0.428442272376 -1.35709683323 -1.98086354431 -0.471335657832 1.74391948098
17.7479394521 -1.42542065965 -2.06887571422 0.0516998535111 1.96182680848 -1.56238304622 -0.428324738983 -1.35743784225 -1.98101399979 -0.471117872022 1.74259154038
17.8096095328 -1.4252963014 -2.07257607089 0.0513693047814 1.96248790594 -1.56226771596 -0.428208679273 -1.35777690041 -1.98116560179 -0.470900224329 1.74126204214
17.9149272173 -1.42517582859 -2.07618887885 0.0510437071798 1.96313910114 -1.56193025419 -0.428172040928 -1.35825368753 -1.98139385743 -0.470665789212 1.7399640002
17.9762452477 -1.42505512261 -2.07980370978 0.0507169451314 1.96379262524 -1.56159507124 -0.428136692863 -1.35872721676 -1.98162272316 -0.470430651203 1.7386635753
18.0248633218 -1.4249341446 -2.08341977187 0.0503891459167 1.96444822367 -1.56126120594 -0.428102199221 -1.35919808255 -1.98185239405 -0.470195417044 1.73736104531
18.0735245764 -1.42481288924 -2.08703705141 0.0500603074207 1.96510590066 -1.56092865608 -0.428068621941 -1.35966628627 -1.98208287986 -0.469960035937 1.73605642261
18.1355196917 -1.42469135628 -2.0906555347 0.0497304284382 1.96576565862 -1.56059741643 -0.428035967921 -1.36013182902 -1.9823141899 -0.469724516138 1.73474970916
18.2388881226 -1.42457356213 -2.09419351516 0.0494049942806 1.96641652694 -1.56005379956 -0.428080875151 -1.36072946808 -1.98261885561 -0.469471064471 1.73347226573
18.299419459 -1.42445551472 -2.09773595968 0.0490781421035 1.96707023129 -1.55951341462 -0.428127197456 -1.36132300136 -1.98292373857 -0.469215813383 1.73219163046
18.3475631138 -1.42433720458 -2.10128125053 0.0487500912004 1.9677263331 -1.55897487388 -0.428174261468 -1.36191324806 -1.98322912176 -0.468959765281 1.73090834254
18.3987370119 -1.42421862193 -2.10482936519 0.0484208389779 1.96838483754 -1.55843817518 -0.428222182172 -1.36250020793 -1.98353501781 -0.468702816194 1.72962242684
18.4664035548 -1.42409976669 -2.10838028095 0.048090384267 1.96904574697 -1.55790331062 -0.428270968474 -1.36308388042 -1.98384143816 -0.468444976039 1.72833388873
18.5796776068 -1.42400363911 -2.11128017613 0.0478181333264 1.96959024885 -1.55729133931 -0.428373501953 -1.36367404857 -1.98415432926 -0.468214733315 1.72728191364
18.6370585816 -1.42390730365 -2.11418521245 0.0475446831011 1.9701371493 -1.55668222612 -0.428477147166 -1.36426083667 -1.98446713386 -0.467982470736 1.72622705893
18.6818586752 -1.42381078373 -2.1170935859 0.0472702635206 1.97068598846 -1.55607473338 -0.428581219892 -1.3648449496 -1.98478010178 -0.467749219125 1.72516990523
18.7201385004 -1.42371406769 -2.12000527562 0.0469948722127 1.97123677107 -1.55546886229 -0.428685854693 -1.36542638538 -1.98509324102 -0.467514846852 1.72411048282
18.7542529626 -1.42361715556 -2.12292026207 0.0467185084192 1.97178949866 -1.5548646071 -0.428791058863 -1.3660051418 -1.98540655923 -0.467279359128 1.72304879706
18.7874013515 -1.42352004756 -2.12583852587 0.046441171399 1.9723441727 -1.55426196187 -0.428896837691 -1.36658121679 -1.9857200641 -0.46704276338 1.72198485289
18.8238492006 -1.42342560118 -2.12870904771 0.0461661124401 1.97289429062 -1.55350745843 -0.4290611721 -1.36725284726 -1.98608637153 -0.466789917748 1.72093906139
18.8634029245 -1.42333094363 -2.13158442441 0.0458899269679 1.97344666156 -1.55275489983 -0.42922603768 -1.36792144451 -1.98645268022 -0.466535479233 1.71989050134
18.8981787587 -1.4232360752 -2.1344646293 0.0456126140715 1.97400128736 -1.55200427907 -0.42939144211 -1.36858700374 -1.98681899866 -0.466279453912 1.71883918005
18.9296974515 -1.42314099617 -2.1373496358 0.0453341728423 1.97455816982 -1.55125558924 -0.429557393337 -1.36924952018 -1.98718533536 -0.466021847615 1.71778510489
18.9588278499 -1.42304570688 -2.14023941745 0.0450546023817 1.97511731074 -1.55050882347 -0.429723898925 -1.36990898909 -1.98755169883 -0.465762666632 1.71672828317
18.9860429471 -1.42295020761 -2.14313394787 0.0447739017926 1.97567871191 -1.54976397495 -0.429890966813 -1.37056540576 -1.9879180976 -0.465501916889 1.71566872227
19.0113512577 -1.42285700963 -2.14599127267 0.0444946605335 1.97623719443 -1.54888252303 -0.430111907028 -1.37130813661 -1.98833220545 -0.465225170487 1.71462368792
19.0354851364 -1.42276358087 -2.14885499206 0.0442141252087 1.97679826508 -1.54800329236 -0.43033337563 -1.3720474954 -1.98874618794 -0.464946406659 1.71357538085
19.0587288313 -1.42266992185 -2.1517250721 0.043932294708 1.97736192608 -1.54712627532 -0.430555382002 -1.37278347405 -1.9891600542 -0.464665630492 1.71252381064
19.0811148058 -1.42257603311 -2.15460147901 0.0436491679334 1.97792817963 -1.54625146431 -0.430777935268 -1.37351606451 -1.98957381341 -0.464382847444 1.71146898682
19.1026743529 -1.42248191518 -2.15748417912 0.0433647437928 1.97849702791 -1.54537885185 -0.431001044818 -1.3742452588 -1.98998747473 -0.464098062774 1.710410919
19.1236452765 -1.42238756859 -2.16037313887 0.0430790212074 1.97906847309 -1.54450843046 -0.43122471973 -1.37497104899 -1.99040104741 -0.46381128217 1.70934961675
19.1414558852 -1.42230833362 -2.16282673284 0.0428346372824 1.97955724094 -1.54365996517 -0.43145784749 -1.3756580367 -1.99079149956 -0.463552262618 1.70844911638
19.1589567253 -1.4222289133 -2.16528611264 0.0425891777557 1.98004815999 -1.5428133079 -0.431691373711 -1.37634230906 -1.99118178669 -0.463291476845 1.70754585292
19.1761529102 -1.4221493081 -2.16775125242 0.0423426417912 1.98054123192 -1.54196845358 -0.431925305492 -1.3770238587 -1.99157191487 -0.46302892716 1.70663983389
19.1930494753 -1.42206951857 -2.17022212645 0.042095028572 1.98103645836 -1.54112539715 -0.432159649117 -1.37770267831 -1.99196189022 -0.462764616833 1.70573106663
19.2096513781 -1.42198954516 -2.17269870901 0.041846337276 1.98153384095 -1.54028413362 -0.432394411698 -1.37837876062 -1.99235171888 -0.462498548317 1.70481955868
19.2259635036 -1.42190938838 -2.17518097447 0.041596567093 1.98203338131 -1.53944465802 -0.432629600039 -1.3790520984 -1.99274140699 -0.462230724475 1.70390531757
19.2419906598 -1.42182904874 -2.1776688973 0.0413457172217 1.98253508106 -1.53860696541 -0.432865220821 -1.37972268446 -1.99313096076 -0.461961148376 1.70298835078
19.2582471514 -1.42175000752 -2.18014269684 0.0410947916991 1.9830369321 -1.53768280695 -0.433136747566 -1.38044837088 -1.99355104932 -0.461679337677 1.70207757568
