liuchen18/hilsys_old/sim_sys/data/fwx_planned_trajectory_he.txt
this is the FWX joint values,the following info is time,x,y,theta,joint1,joint2,joint3,joint4,joint5,joint6,joint7
0.0 2.1256070282 0.064274134563 -3.78658162093 0.893823498331 -0.0440141688248 0.748691628998 1.43718120778 1.81266215365 0.36368813132 0.348365697222
0.0774498555317 2.12364918539 0.064001605952 -3.78666812137 0.893650497447 -0.0456903302153 0.748480131643 1.4358639563 1.81229520956 0.363026046426 0.347990936768
0.137438609407 2.12169085426 0.0637302543017 -3.78675304423 0.893480651737 -0.0473650935353 0.748270625905 1.43454419964 1.81193434395 0.362371467093 0.347613432791
0.188271476165 2.11973203133 0.0634600917287 -3.78683639197 0.893313956249 -0.0490384044308 0.74806312498 1.43322199282 1.81157954051 0.361724394958 0.347233211324
0.233545260341 2.11777271355 0.0631911303504 -3.78691816749 0.893150405204 -0.0507102082433 0.747857641067 1.43189739176 1.81123078095 0.361084830993 0.346850298045
0.274951403487 2.11581289793 0.0629233824208 -3.7869983735 0.892989993187 -0.0523804510839 0.747654186654 1.43057045227 1.81088804713 0.360452775332 0.346464718729
0.313199051652 2.11385258151 0.0626568598335 -3.78707701298 0.892832714219 -0.0540490792319 0.747452773495 1.42924123044 1.81055131935 0.359828226795 0.346076499767
0.349237303089 2.11189187143 0.0623912589762 -3.78715454791 0.892677644371 -0.0557158804805 0.747252315315 1.42791142373 1.81021769561 0.359208738169 0.345687206984
0.383198000932 2.10993052406 0.0621272930593 -3.7872299699 0.892526800385 -0.0573811633976 0.747055240269 1.42657751961 1.80989345639 0.358599625068 0.345293518773
0.415518798535 2.10796866926 0.0618645651313 -3.78730385632 0.892379027556 -0.0590446439755 0.746860193113 1.42524152411 1.80957508172 0.357997987762 0.344897295465
0.44658655725 2.10600630239 0.0616031074767 -3.7873761904 0.892234359387 -0.0607062961123 0.746667228859 1.42390347436 1.80926262162 0.357403840952 0.344498543404
0.47644989209 2.10404342084 0.0613429307277 -3.78744697598 0.89209278823 -0.0623660681307 0.746476356732 1.42256342701 1.80895605094 0.356817177416 0.344097291126
0.504871318996 2.10208002207 0.0610840448756 -3.78751621735 0.891954305481 -0.0640239084768 0.74628758473 1.42122143898 1.80865534239 0.356237988369 0.343693567953
0.532464177235 2.1001161036 0.0608264597097 -3.78758391892 0.891818902351 -0.0656797662091 0.746100920483 1.41987756712 1.80836046791 0.355666263891 0.343287403491
0.559250829361 2.09815179672 0.0605697901153 -3.78765061232 0.891685515552 -0.0673335304016 0.745915070617 1.41853364837 1.80806811686 0.355099142531 0.342880553875
0.585258426416 2.09618682984 0.0603148576353 -3.78771522831 0.891556283578 -0.0689852930839 0.745732686198 1.41718616787 1.80778488345 0.354542327196 0.342469584209
0.610760376491 2.09422133841 0.0600612309793 -3.7877783395 0.891430061186 -0.070634899891 0.745552382115 1.41583699155 1.80750731986 0.353992918431 0.342056285752
0.63576656398 2.09225531815 0.0598089407771 -3.78783993052 0.891306879151 -0.0722823256477 0.74537420995 1.41448615827 1.80723546681 0.353450922081 0.341640668243
0.660286650107 2.090288767 0.0595579952783 -3.78790000665 0.891186726887 -0.0739275222823 0.745198174429 1.41313372442 1.80696929109 0.352916322181 0.341222762915
0.684330108401 2.08832168292 0.0593084026799 -3.7879585731 0.891069593985 -0.0755704426607 0.745024280294 1.411779746 1.80670875947 0.352389101806 0.340802601054
0.707906221736 2.08635406405 0.0590601698835 -3.78801563612 0.890955467956 -0.0772110393902 0.744852529732 1.41042427944 1.80645383478 0.351869242046 0.340380215091
0.731022481739 2.08438604603 0.0588128842373 -3.78807171871 0.890843302767 -0.0788493222639 0.744681613544 1.40906902065 1.80620130065 0.351353905049 0.339957282447
0.753466625215 2.08241735014 0.0585674158845 -3.78812577272 0.890735194751 -0.0804851527989 0.744514202233 1.40771073563 1.80595753931 0.350848719158 0.33953053324
0.775694618545 2.08044811644 0.0583233056357 -3.78817836153 0.890630017132 -0.0821185030115 0.74434889514 1.4063511444 1.80571920417 0.350350812507 0.339101676716
0.797708586991 2.07847834112 0.0580805822461 -3.78822947107 0.890527798045 -0.0837493498205 0.744185740172 1.40499028621 1.8054863271 0.349860181601 0.338670725489
0.819510604088 2.0765080227 0.0578392514408 -3.78827910801 0.890428524165 -0.0853776499039 0.744024737547 1.40362821575 1.80525886809 0.349376802239 0.338237712536
0.841102724158 2.07453715981 0.0575993187001 -3.78832727907 0.890332182052 -0.0870033608302 0.743865887144 1.40226498725 1.80503678667 0.34890064922 0.337802670909
0.86248698231 2.07256575111 0.0573607893709 -3.78837399094 0.890238758308 -0.0886264411262 0.743709188676 1.40090065442 1.80482004225 0.348431696412 0.33736563362
0.883663882518 2.07059393565 0.0571232284845 -3.78841975515 0.890147229884 -0.0902470139037 0.743553328112 1.39953677088 1.80460553296 0.347967152795 0.336928190806
0.904638452698 2.06862142982 0.0568875423443 -3.78846355149 0.890059637201 -0.0918647265502 0.743400970139 1.39817038288 1.80439938709 0.34751252567 0.33648725353
0.925411111104 2.06664837714 0.0566532508218 -3.78850592982 0.889974880547 -0.0934796709111 0.743250713093 1.39680306269 1.80419838502 0.347064996774 0.33604443869
0.945983833727 2.06467477437 0.0564203799214 -3.78854687795 0.889892984298 -0.0950918263601 0.743102599656 1.39543484907 1.8040025484 0.346624552662 0.335599761773
0.966358552223 2.06270062064 0.0561889332542 -3.78858640337 0.88981393344 -0.0967011554885 0.742956626612 1.39406579354 1.80381183307 0.346191162061 0.335153256191
0.986537177553 2.06072591518 0.0559589142471 -3.78862451361 0.889737712977 -0.0983076218767 0.742812790554 1.392695947 1.80362619474 0.345764792855 0.334704955272
1.00652160442 2.05875065734 0.0557303253541 -3.78866121682 0.889664306548 -0.0999111895106 0.742671086271 1.39132536009 1.80344558686 0.345345411639 0.334254892814
1.0263122836 2.05677498832 0.0555027164727 -3.78869700894 0.889592722308 -0.101512086558 0.7425302091 1.38995544523 1.80326704388 0.344930296721 0.333804564144
1.04591393264 2.054798622 0.0552770176399 -3.78873090377 0.889524932653 -0.103109766581 0.742392794124 1.38858352216 1.80309640626 0.344524793081 0.33335107208
1.06532692102 2.05282170416 0.0550527340214 -3.78876343448 0.889459871224 -0.104704431317 0.742257450947 1.38721101759 1.80293060041 0.344126159141 0.332895934334
1.08455309025 2.05084423213 0.0548298890817 -3.78879459042 0.88939755934 -0.106296063576 0.742124217647 1.38583796858 1.80276963955 0.343734371981 0.3324391684
1.10359423747 2.04886620566 0.0546084843614 -3.78882437981 0.889337980571 -0.10788463223 0.741993087863 1.38446442258 1.80261347662 0.343349394272 0.33198080732
1.12226543382 2.04688762461 0.0543885208309 -3.78885281116 0.889281117869 -0.109470106904 0.741864054307 1.38309042648 1.80246206366 0.34297118783 0.331520884211
1.14094186204 2.04490848892 0.0541699992907 -3.78887989299 0.889226954208 -0.111052458204 0.741737109503 1.3817160265 1.8023153527 0.342599713784 0.331059431985
1.15962218312 2.04292894083 0.0539524595065 -3.78890610376 0.889174532678 -0.112632007706 0.741610967293 1.38034249899 1.80217052623 0.342232338047 0.330597847855
1.17830909873 2.04094869402 0.0537368438423 -3.7889304959 0.889125748393 -0.114208038404 0.74148821271 1.37896742494 1.80203311316 0.341874208839 0.330133431816
1.19700122108 2.03896789524 0.0535226494079 -3.7889535828 0.889079574596 -0.115780850496 0.741367478968 1.3775920907 1.80190020185 0.341522681508 0.329667597942
1.21569857382 2.03698654242 0.0533098968584 -3.78897535543 0.889036029331 -0.117350430511 0.741248799176 1.37621653082 1.80177179739 0.341177724077 0.32920036532
1.23440114957 2.0350046359 0.0530985858609 -3.7889958225 0.88899509518 -0.118916753714 0.741132164381 1.37484078805 1.80164785133 0.340839294375 0.328731765886
1.25310894832 2.03302217608 0.052888715587 -3.78901499298 0.888956754237 -0.120479796142 0.741017564861 1.37346490453 1.80152831462 0.340507349615 0.328261831504
1.27182196268 2.03103916351 0.0526802845224 -3.78903287621 0.88892098777 -0.122039534501 0.740904989725 1.37208892178 1.80141313715 0.340181846386 0.327790594042
1.29053885217 2.02905574033 0.0524728284701 -3.78904993056 0.888886879062 -0.123596372099 0.740793182132 1.370713987 1.80129966081 0.339860253879 0.327319350698
1.30926229924 2.02707162213 0.0522672914276 -3.78906525085 0.888856238488 -0.12514944571 0.740684659145 1.36933792638 1.80119308728 0.339547496226 0.326845599629
1.32799092202 2.02508695545 0.052063168311 -3.78907932843 0.888828083335 -0.126699141119 0.740578087704 1.36796189373 1.80109067699 0.339241041989 0.32637064976
1.34672473676 2.02310173877 0.0518604773451 -3.78909215552 0.888802429146 -0.128245448962 0.740473496823 1.36658592034 1.80099242862 0.338940850909 0.325894521088
1.36546373164 2.021115973 0.0516592160162 -3.78910374158 0.88877925702 -0.129788350432 0.740370874472 1.36521004411 1.80089829243 0.33864687721 0.325417244112
1.38420789928 2.01912965903 0.0514593820391 -3.78911409572 0.88875854875 -0.131327827804 0.740270209261 1.36383430208 1.80080821974 0.338359074728 0.324938848858
1.40295723081 2.01714279793 0.0512609720907 -3.78912322773 0.888740284728 -0.132863863803 0.740171487976 1.36245873075 1.80072216026 0.338077396984 0.324459365406
1.42461930276 2.01482431948 0.0510306146001 -3.78913296563 0.888720808921 -0.13465244203 0.740057157817 1.3608552948 1.8006235302 0.337753099926 0.323900096194
1.44607553903 2.01250490674 0.0508028324427 -3.78914047017 0.888705799839 -0.136435630004 0.739947113011 1.35925084686 1.8005335731 0.337440220609 0.323337844032
1.4673260889 2.01018475702 0.0505769517957 -3.7891463721 0.888693995981 -0.138214054438 0.739839612351 1.35764679608 1.80044880774 0.337135464745 0.322774252671
1.48837292688 2.00786386963 0.0503529891994 -3.78915066785 0.888685404483 -0.139987703513 0.739734679306 1.35604318804 1.80036920639 0.336838758057 0.322209357609
1.50921798462 2.00554224673 0.0501309384702 -3.78915337249 0.888679995203 -0.141756557343 0.739632292594 1.35444007415 1.80029469213 0.336550023946 0.321643203562
1.52986317308 2.00321989057 0.0499107929694 -3.78915450119 0.888677737808 -0.143520597439 0.739532430425 1.35283750449 1.80022518827 0.336269185495 0.321075834667
1.55030880855 2.0008969829 0.0496919492267 -3.78915460079 0.888677538614 -0.145280506571 0.739433546326 1.35123668183 1.8001576416 0.335993248611 0.320508693475
1.57056002091 1.9985731562 0.0494756475415 -3.78915257735 0.888681585488 -0.147034845159 0.739338783882 1.34963529334 1.80009810334 0.335728086027 0.319938962955
1.59081752925 1.99624860698 0.0492611999908 -3.7891490475 0.888688645183 -0.148784311481 0.739246422073 1.34803459919 1.80004329151 0.335470594207 0.319368155352
1.61108134096 1.99392333454 0.049048627785 -3.78914400267 0.888698734852 -0.150528903543 0.739156494476 1.34643463696 1.79999318725 0.335220686985 0.318796303461
1.63135143091 1.99159734163 0.0488379227131 -3.78913745808 0.88871182403 -0.152268609603 0.739068977816 1.34483545027 1.79994771609 0.334978286093 0.318223448249
1.65162777546 1.98927063105 0.0486290764324 -3.78912942882 0.888727882553 -0.15400341925 0.73898384893 1.34323708139 1.79990680447 0.334743313123 0.317649629998
1.67190874889 1.98694338932 0.0484214697055 -3.78912045523 0.888745829736 -0.155734111775 0.738899554927 1.34164065084 1.7998674824 0.334512807561 0.317076231254
1.692197545 1.98461524979 0.0482163398624 -3.78910948247 0.888767775255 -0.157459110937 0.738819172509 1.34004404226 1.79983549366 0.334292422083 0.316500613553
1.71249249077 1.98228640462 0.0480130149014 -3.78909709227 0.888792555657 -0.159179180483 0.738741054887 1.33844837674 1.79980780158 0.334079245925 0.31592415455
1.7327935862 1.97995685385 0.0478115122082 -3.78908327796 0.888820184266 -0.160894323871 0.73866522952 1.33685368582 1.79978438015 0.333873184265 0.315346887047
1.75310080323 1.97762660067 0.0476118223487 -3.78906805442 0.888850631348 -0.162604536616 0.73859167264 1.33526000574 1.79976515902 0.333674158499 0.314768847995
1.77341411227 1.97529564834 0.047413935429 -3.78905143665 0.888883866891 -0.164309815224 0.738520359964 1.33366737154 1.79975006831 0.333482090462 0.314190073683
1.79373193048 1.97296417866 0.0472172477281 -3.78903393374 0.888918872708 -0.166010986815 0.73844980766 1.33207678116 1.7997363572 0.333294198093 0.313611826197
1.81405735707 1.97063183582 0.0470229599525 -3.78901455392 0.888957632346 -0.167706399086 0.738382948782 1.33048634221 1.79972933518 0.333115770031 0.313031698838
1.83438876484 1.96829880674 0.0468304195448 -3.78899384449 0.888999051205 -0.169396865123 0.738318213949 1.32889705234 1.79972620307 0.332944091206 0.312450942193
1.85472614641 1.96596509207 0.0466396409678 -3.78897180003 0.889043140126 -0.171082393522 0.73825562621 1.32730893716 1.79972692973 0.33277905901 0.311869588703
1.8750694722 1.96363069532 0.0464506137079 -3.78894843507 0.889089870051 -0.172762985876 0.738195161494 1.32572202615 1.7997314492 0.332620595926 0.31128767133
1.89541871119 1.96129562008 0.046263326831 -3.78892376426 0.88913921166 -0.174438644589 0.738136795267 1.32413634779 1.79973969611 0.332468625216 0.310705222345
1.91577232485 1.95896004282 0.0460771948661 -3.78889826616 0.889190207871 -0.176110231161 0.73807911454 1.32255279159 1.79974912971 0.332320542947 0.310123391163
1.93593171789 1.95662361954 0.0458933770605 -3.78887101052 0.889244719156 -0.177776041111 0.738024906165 1.3209696625 1.79976464506 0.33218127867 0.30953998709
1.95609684824 1.95428653118 0.0457112437021 -3.78884251051 0.88930171917 -0.179436922799 0.737972680978 1.31938784972 1.79978367089 0.332048311274 0.3089561421
1.97626770853 1.95194877894 0.0455308063638 -3.788812762 0.889361216188 -0.181092889259 0.737922457668 1.31780737318 1.7998061715 0.331921531892 0.308371888098
1.99644426328 1.94961036658 0.0453520537122 -3.78878177911 0.889423181961 -0.182743947081 0.737874212235 1.31622825642 1.79983208569 0.331800865303 0.307787254134
2.01662648146 1.94727129786 0.0451749741724 -3.78874957599 0.889487588208 -0.184390103534 0.737827920528 1.31465052202 1.79986135304 0.331686237096 0.307202268589
2.03681288957 1.94493174348 0.0449990027044 -3.78871660148 0.889553537238 -0.186032242864 0.737782241134 1.31307496441 1.79989163219 0.331575218183 0.306617976451
2.05700635035 1.94259137187 0.0448252539901 -3.78868198454 0.889622771114 -0.187668629015 0.737739815285 1.31150006108 1.79992742688 0.331472388285 0.306032386732
2.07720535485 1.94025035751 0.044653122911 -3.78864620553 0.88969432912 -0.189300133142 0.737699233777 1.3099266069 1.79996638126 0.331375416655 0.30544652168
2.09740989272 1.9379087021 0.0444826184677 -3.78860926143 0.889768217321 -0.190926772113 0.737660511495 1.30835461651 1.800008456 0.331284189374 0.304860412514
2.11761992701 1.93556640949 0.0443137289218 -3.78857116577 0.889844408654 -0.192548556568 0.737623625144 1.3067841082 1.80005359492 0.331198634092 0.304274084593
2.13783542668 1.93322348357 0.0441464425083 -3.78853193194 0.889922876317 -0.194165497742 0.737588551636 1.30521509944 1.80010174274 0.331118678957 0.303687562709
2.15805496997 1.93088008894 0.0439802159092 -3.78849198037 0.890002779453 -0.195778492627 0.73755402031 1.30364830183 1.80015074556 0.331042064726 0.303101795748
2.17828130878 1.9285359068 0.0438161171407 -3.78845049667 0.890085746844 -0.19738579084 0.73752252902 1.30208234285 1.80020474037 0.330973034733 0.302514976025
2.19851299473 1.92619110491 0.0436535671964 -3.78840792958 0.890170881038 -0.198988275916 0.737492747906 1.3005179359 1.80026157355 0.330909441664 0.301928025202
2.2187500101 1.92384568532 0.0434925727318 -3.78836427705 0.89025818609 -0.200585967947 0.73746468842 1.29895509077 1.80032120279 0.330851167762 0.301340973702
2.23899232089 1.92149965195 0.0433331219232 -3.78831955191 0.890347636369 -0.202178880771 0.737438328407 1.29739382122 1.80038357693 0.330798143783 0.300753843522
2.25923989459 1.91915300873 0.0431752027945 -3.78827376696 0.890439206259 -0.203767028611 0.737413645674 1.29583414036 1.80044864561 0.330750301552 0.300166656044
2.27949136411 1.91680591399 0.0430182947325 -3.78822731547 0.890532109258 -0.20535131296 0.737389439027 1.29427668807 1.80051442998 0.330705544396 0.299580272363
2.29974936903 1.91445806182 0.0428634181993 -3.78817943668 0.890627866825 -0.20692998339 0.73736806711 1.29272022158 1.80058472582 0.330667794935 0.298993052139
2.32001252011 1.91210961306 0.0427100209159 -3.7881305493 0.890725641584 -0.208503927074 0.737348277286 1.29116538436 1.80065756761 0.330635081209 0.298405825373
2.3402807996 1.9097605701 0.0425581074501 -3.78808065218 0.890825435826 -0.210073166767 0.737330077991 1.28961218182 1.80073291076 0.330607282701 0.297818621614
2.36055417203 1.90741093685 0.0424076661253 -3.78802975735 0.890927225487 -0.211637718766 0.737313448478 1.28806062387 1.80081070885 0.330584333284 0.297231459871
2.38083260342 1.90506071719 0.0422586848978 -3.78797787703 0.891030986123 -0.213197599483 0.737298367569 1.28651071998 1.80089091639 0.330566169069 0.296644358358
2.40111478432 1.90271006317 0.0421106662043 -3.78792537877 0.891135982641 -0.214753708113 0.737283701272 1.28496304818 1.80097171683 0.330550847916 0.29605809834
2.4214032405 1.90035868165 0.0419645829486 -3.78787155234 0.891243635514 -0.216304305767 0.737271674429 1.28341647749 1.80105659018 0.330541988798 0.295471191624
2.44169664627 1.89800672656 0.0418199095672 -3.78781678818 0.891353163833 -0.217850276061 0.737261108567 1.28187159179 1.80114374495 0.330537786557 0.294884384983
2.46199497798 1.89565420054 0.0416766489511 -3.78776108578 0.891464568624 -0.219391644013 0.737252009777 1.28032839247 1.80123313472 0.330538118045 0.294297707213
2.48229820311 1.89330110743 0.0415347896076 -3.78770445647 0.89157782724 -0.220928427662 0.737244358649 1.27878688625 1.80132471755 0.330542920742 0.293711174595
2.50260628916 1.89094745107 0.0413943196324 -3.78764691183 0.891692916525 -0.222460644978 0.737238135248 1.2772470796 1.80141845259 0.330552135112 0.293124802498
2.52291797544 1.88859337723 0.0412547645036 -3.7875887952 0.891809149782 -0.22398918744 0.737232270068 1.27570949737 1.80151267304 0.330563964616 0.292539299943
2.54323568576 1.88623860529 0.0411170501085 -3.78752944371 0.891927852776 -0.225512336808 0.73722886016 1.27417310468 1.80161056798 0.330581743049 0.291953316483
2.56355815058 1.88388328236 0.0409806773044 -3.78746922133 0.892048297528 -0.227030967439 0.737226797859 1.27263843483 1.80171050621 0.330603822547 0.291367523661
2.58388534477 1.88152741128 0.040845647817 -3.78740812784 0.892170484511 -0.228545106435 0.73722608773 1.27110548541 1.80181243941 0.330630075951 0.290781949983
2.60421723583 1.87917099581 0.0407119498902 -3.78734617433 0.892294391528 -0.23005477257 0.737226710822 1.26957426085 1.80191633054 0.330660447958 0.290196608543
2.6245537927 1.87681403963 0.040579572362 -3.78728337132 0.892419997545 -0.231559985229 0.737228649336 1.26804476486 1.80202214245 0.330694880302 0.289611512848
2.64489380941 1.87445668247 0.0404480630925 -3.78722003978 0.892546660628 -0.233061623633 0.737230894615 1.26651747692 1.80212834639 0.330731715023 0.289027306267
2.66523960335 1.87209865579 0.0403183021182 -3.78715556096 0.892675618278 -0.234557997338 0.737235422625 1.26499144458 1.80223786428 0.330774018861 0.288442762852
2.68558996114 1.86974010006 0.040189816424 -3.78709027388 0.892806192434 -0.236049967264 0.737241193351 1.26346715809 1.80234921141 0.330820289221 0.287858486842
2.70594485912 1.86738101827 0.0400626059574 -3.78702417919 0.892938381808 -0.237537561545 0.737248208758 1.26194461215 1.80246233903 0.330870400791 0.287274505327
2.72630426331 1.86502141405 0.0399366599389 -3.78695728679 0.89307216661 -0.239020800214 0.737256452316 1.26042380868 1.80257721302 0.330924297768 0.286690830174
2.74666814562 1.86266129097 0.0398119671211 -3.78688960692 0.893207526343 -0.240499702855 0.737265906857 1.2589047497 1.80269380093 0.330981929136 0.286107472016
2.76703535033 1.86030078281 0.0396880975878 -3.78682143936 0.893343861474 -0.241975133491 0.737275621968 1.25738787561 1.80281069996 0.331041763842 0.285525015608
2.78740809283 1.85793963272 0.0395658868641 -3.78675220649 0.893482327209 -0.243445434691 0.737287459166 1.25587230471 1.80293058766 0.331106620837 0.284942347038
2.80778521887 1.85557797471 0.0394448872129 -3.78668222414 0.89362229191 -0.244911450628 0.737300442181 1.25435849084 1.80305211293 0.331175132435 0.284360010209
2.82816670037 1.85321581192 0.0393250973938 -3.7866114934 0.893763753385 -0.246373210469 0.737314571335 1.25284642593 1.8031752264 0.331247173066 0.283778031384
2.8485525063 1.8508531478 0.0392065068985 -3.78654002365 0.89390669289 -0.247830734456 0.737329831226 1.25133611032 1.80329989774 0.331322691664 0.283196420313
2.86894260856 1.8484899858 0.0390891050015 -3.78646782441 0.894051091372 -0.249284042513 0.737346206221 1.24982754437 1.80342609795 0.331401640463 0.282615185875
2.88933590168 1.846126454 0.0389724831117 -3.78639517587 0.894196388444 -0.250733980875 0.737362800502 1.24832113517 1.80355253965 0.33148260755 0.282034859877
2.90973450647 1.84376230669 0.0388574341163 -3.78632153846 0.89434366326 -0.252178929217 0.737381368278 1.24681606153 1.80368167663 0.331568180419 0.281454429593
2.93013731893 1.8413976717 0.0387435342308 -3.78624720679 0.89449232661 -0.253619712066 0.737400992571 1.24531274686 1.80381228054 0.331657119771 0.280874384134
2.95054431097 1.83903255228 0.0386307813997 -3.78617218212 0.894642375947 -0.255056359642 0.737421672623 1.24381118044 1.80394430092 0.331749297903 0.280294749472
2.97095545304 1.83666695173 0.0385191653886 -3.78609647338 0.894793793423 -0.256488891977 0.737443394081 1.24231136149 1.80407771126 0.331844669288 0.279715533278
2.99137072001 1.83430087331 0.0384086761813 -3.78602008925 0.894946561694 -0.257917329377 0.737466143031 1.24081328881 1.80421248487 0.331943186857 0.279136743461
3.01178905072 1.83193443969 0.0382989254827 -3.78594329194 0.895100156299 -0.259342498208 0.737489074594 1.23931734126 1.80434744052 0.332043551707 0.278558863695
3.03221247586 1.82956741572 0.0381906653395 -3.78586557716 0.895255585865 -0.260762817865 0.737513842335 1.2378227496 1.80448482799 0.33214813766 0.277980972141
3.05263994166 1.82719992338 0.0380834951478 -3.7857872196 0.895412300991 -0.262179091936 0.737539585202 1.23632991129 1.80462352969 0.332255821017 0.277403509542
3.07307142004 1.82483196598 0.0379774119326 -3.78570822088 0.895570298437 -0.263591351138 0.737566301166 1.23483881349 1.80476349495 0.332366474744 0.276826501064
3.09350688587 1.82246354665 0.0378724060132 -3.78562858925 0.895729561694 -0.264999615474 0.737593977267 1.23334945427 1.80490469984 0.332480055576 0.276249953213
3.11394630812 1.82009466849 0.0377684676295 -3.78554833303 0.895890074133 -0.266403904611 0.737622600513 1.23186183187 1.80504712159 0.332596522961 0.275673871814
3.13438867737 1.81772544899 0.0376652282562 -3.78546769746 0.896051345274 -0.267805024523 0.737651374269 1.23037630041 1.80518967422 0.332714677916 0.275098698336
3.15483593264 1.81535566304 0.0375634009957 -3.78538621088 0.896214318431 -0.269201435944 0.737681857943 1.22889213544 1.80533442184 0.33283669766 0.274523592483
3.17528707192 1.81298542705 0.0374626072381 -3.78530412964 0.896378480906 -0.270593920372 0.737713242576 1.22740971247 1.80548034743 0.33296156525 0.273948951708
3.19574206563 1.81061474436 0.0373628431878 -3.7852214557 0.896543828797 -0.271982508701 0.737745525 1.22592901695 1.80562740071 0.333089155457 0.273374800215
3.21620088866 1.80824361792 0.037264099586 -3.78513819681 0.896710346573 -0.273367220433 0.737778693372 1.22445004634 1.80577556073 0.333219429303 0.272801143048
3.23666351293 1.80587205071 0.0371663673827 -3.78505436048 0.896878019219 -0.274748075476 0.737812736221 1.22297279754 1.80592480569 0.333352344981 0.272227985826
3.25712897038 1.8035001553 0.0370692964885 -3.78497017667 0.897046386849 -0.276125857743 0.737846901395 1.22149760437 1.80607413877 0.333486802456 0.271655730665
3.27759912026 1.80112771603 0.0369735632033 -3.78488520369 0.897216332814 -0.277499070702 0.737882660677 1.22002378048 1.80622545374 0.333624794523 0.271083611255
3.2980730034 1.79875484403 0.0368788095407 -3.78479968121 0.897387377762 -0.278868472432 0.737919253295 1.21855168352 1.8063778267 0.333765407273 0.270511985292
3.3185505917 1.79638154272 0.0367850312782 -3.78471361114 0.897559517907 -0.280234094721 0.737956675506 1.21708129658 1.80653120557 0.33390851129 0.26994087742
3.33903186004 1.79400781487 0.0366922196033 -3.78462700076 0.897732738676 -0.28159595649 0.737994916539 1.2156126167 1.806685572 0.334054071291 0.269370291491
3.35951678331 1.79163366327 0.0366003658176 -3.78453985719 0.8979070258 -0.282954076824 0.738033965845 1.21414564056 1.80684090732 0.334202050801 0.268800231584
3.38000443335 1.78925919589 0.0365091376183 -3.78445239595 0.898081948291 -0.284309217976 0.738073113179 1.21268068384 1.80699629411 0.334351435933 0.268231065587
3.40049659108 1.78688420595 0.0364191763354 -3.78436420316 0.898258333865 -0.285659926143 0.738113748467 1.21121709343 1.80715347181 0.334504051915 0.267662093207
3.42099234018 1.78450879966 0.0363301436703 -3.78427550291 0.898435734374 -0.287006936314 0.738155156025 1.20975521132 1.80731159959 0.334659075575 0.267093637456
3.44149165405 1.78213298044 0.0362420348217 -3.78418629726 0.898614145669 -0.28835028039 0.738197331297 1.20829501913 1.80747062536 0.334816378138 0.266525722415
3.46199450755 1.7797567509 0.0361548414308 -3.78409659305 0.898793554091 -0.2896899766 0.738240264535 1.20683651363 1.80763053318 0.334975927921 0.265958350875
3.48250087853 1.77738011365 0.036068555244 -3.78400639696 0.898973946274 -0.291026043381 0.738283946183 1.20537969121 1.80779130661 0.335137691687 0.265391525943
3.50300987284 1.77500317235 0.0359828607743 -3.78391591115 0.899154917891 -0.292359221272 0.738327704988 1.20392485185 1.80795210044 0.335300734831 0.264825584784
3.52352320339 1.77262572852 0.0358983662822 -3.78382474749 0.89933724521 -0.293688098815 0.738372854624 1.20247137154 1.80811451418 0.335466729979 0.264259886133
3.54403999377 1.77024788379 0.0358147520972 -3.78373311554 0.899520509108 -0.295013388504 0.738418721346 1.20101957835 1.80827778088 0.335634933485 0.263694722809
3.56456021294 1.76786964153 0.0357320128261 -3.78364101771 0.899704704776 -0.296335121496 0.738465299792 1.19956945339 1.80844185051 0.335805222326 0.263130117276
3.58508384171 1.76549100424 0.0356501406391 -3.78354846023 0.899889819721 -0.297653315899 0.738512581258 1.19812099264 1.80860670765 0.335977563986 0.262566072318
3.60561085788 1.76311197433 0.0355691276871 -3.78345544945 0.900075841297 -0.298967989168 0.738560557078 1.19667419263 1.80877233856 0.336151930086 0.262002589812
3.62614040132 1.7607326514 0.0354886743504 -3.78336217522 0.900262389747 -0.300279860226 0.738608592256 1.19522933979 1.80893796394 0.336327459363 0.26143997923
3.64667411843 1.75835284479 0.0354093577448 -3.78326827309 0.900450194018 -0.301587559709 0.738657929566 1.1937858352 1.8091050552 0.336505682456 0.260877652784
3.66721116974 1.75597265181 0.035330875624 -3.78317393937 0.900638861444 -0.30289177739 0.738707934042 1.19234399544 1.80927291352 0.336685931647 0.260315875646
3.68775152719 1.75359207577 0.0352532221947 -3.78307917664 0.900828386913 -0.304192544009 0.738758599778 1.19090380088 1.80944148996 0.336868086854 0.259754669335
3.70829516712 1.75121111905 0.0351763900574 -3.78298399068 0.90101875882 -0.305489877184 0.738809918921 1.18946524716 1.80961077025 0.337052116851 0.259194036233
3.72884207327 1.74882978393 0.0351003718121 -3.78288838739 0.9012099654 -0.306783793797 0.738861883689 1.18802833059 1.80978074201 0.337237994933 0.258633977749
3.749391418 1.74644816616 0.0350248827887 -3.78279254536 0.901401649468 -0.30807499122 0.738913892799 1.18659332604 1.80995068664 0.337424928996 0.258074778089
3.76994478418 1.74406608241 0.0349504707545 -3.78269612193 0.90159449632 -0.309362141418 0.738967123054 1.18515965654 1.81012195871 0.337614319001 0.257515897658
3.79050136486 1.74168362592 0.0348768498286 -3.78259930129 0.901788137616 -0.310645911767 0.739020975445 1.18372762892 1.81029392154 0.337805567454 0.256957576747
3.81085757229 1.73930080003 0.0348040139192 -3.78250208598 0.901982568222 -0.311926333082 0.739075443625 1.18229722234 1.81046652581 0.33799855362 0.25639983675
3.83121691588 1.7369176069 0.0347319560038 -3.78240448157 0.902177777052 -0.313203421628 0.739130520528 1.1808684331 1.81063976044 0.338193252793 0.255842678588
3.85157937791 1.73453404873 0.0346606691095 -3.78230649342 0.90237375334 -0.314477194279 0.73918619913 1.17944125671 1.81081361271 0.338389636093 0.255286104073
3.87194417211 1.73215021765 0.0345898826747 -3.78220828977 0.902570160658 -0.315748326974 0.739241909561 1.17801595834 1.81098742026 0.338586977198 0.254730374209
3.89231280597 1.7297659372 0.0345201168254 -3.78210954806 0.90276764407 -0.317015532209 0.739298767211 1.17659198012 1.8111624306 0.338786554723 0.2541749931
3.91268451244 1.72738129681 0.034451101053 -3.7820104413 0.902965857585 -0.31827945529 0.739356206452 1.17516962074 1.81133806406 0.338987836938 0.253620178453
3.93305926789 1.72499629981 0.0343828290034 -3.78191097208 0.903164796032 -0.31954012694 0.739414220542 1.17374885834 1.81151427129 0.339190703282 0.253065951387
3.95343705013 1.72261094824 0.0343152940456 -3.78181114553 0.90336444912 -0.320797562991 0.739472803115 1.17232968896 1.81169104184 0.339395129426 0.252512312724
3.97381784587 1.72022524415 0.0342484895808 -3.78171096676 0.903564806669 -0.322051779281 0.739531947861 1.17091210848 1.8118683651 0.339601090694 0.251959263369
3.99420089398 1.71783927632 0.0341821583667 -3.78161059429 0.903765551609 -0.323303431385 0.73959111414 1.16949637304 1.81204562881 0.339807918148 0.25140704407
4.01458764726 1.71545287469 0.0341167944942 -3.78150972418 0.903967291827 -0.324551271129 0.739651360166 1.16808194174 1.81222398288 0.340016779209 0.250855198287
4.03497737265 1.71306612516 0.0340521418967 -3.78140851912 0.904169701956 -0.325795922437 0.739712151287 1.16666910613 1.81240289936 0.340227202169 0.25030392353
4.05537004355 1.71067903102 0.0339881940006 -3.78130698171 0.904372776762 -0.327037415722 0.739773480435 1.16525784369 1.81258232938 0.340439067792 0.249753240431
4.07576564076 1.70829159418 0.0339249445448 -3.78120511679 0.904576506605 -0.328275766077 0.739835341902 1.16384815056 1.81276226375 0.340652353929 0.249203149366
4.09616414949 1.70590381658 0.0338623872791 -3.7811029291 0.904780881995 -0.329510988853 0.739897729977 1.16244002247 1.81294269246 0.340867036547 0.248653651122
4.11656483668 1.70351578386 0.0338002775148 -3.78100056824 0.904985603716 -0.330743719688 0.739960131253 1.16103370771 1.81312304943 0.341082500566 0.248104967949
4.13696910638 1.70112733193 0.0337390848438 -3.78089774747 0.905191245255 -0.331972748305 0.740023550718 1.15962868075 1.81330439591 0.341299812401 0.247556678604
4.15737625065 1.69873854342 0.0336785667434 -3.78079461992 0.905397500342 -0.33319867824 0.740087482441 1.15822522656 1.81348625027 0.341518553565 0.247008962839
4.17778624436 1.69634942156 0.0336187164623 -3.78069118824 0.905604363709 -0.334421539555 0.740151919076 1.15682332206 1.81366856416 0.341738606216 0.246461840809
4.19819906832 1.69395996817 0.0335595280812 -3.78058745693 0.905811826338 -0.335641346715 0.740216855493 1.15542296342 1.81385132926 0.341959949633 0.245915312636
4.2186147092 1.69157018506 0.0335009956816 -3.78048343043 0.906019879334 -0.336858114414 0.740282286537 1.15402414644 1.81403453654 0.34218256142 0.245369378808
4.23903246205 1.6891801549 0.033442886428 -3.78037925012 0.906228239957 -0.338072458784 0.740347724224 1.15262711271 1.81421766265 0.342405877412 0.244824244588
4.25945367768 1.68678971922 0.0333856468399 -3.78027464513 0.906437449938 -0.339283206329 0.740414123921 1.15123135031 1.8144016874 0.342630870093 0.244279520864
4.27987767922 1.68439895758 0.0333290470968 -3.78016975978 0.906647220621 -0.34049094095 0.740481006347 1.14983713834 1.81458617121 0.342857169613 0.243735371469
4.30030443709 1.68200787319 0.0332730803 -3.78006459672 0.906857546746 -0.3416956924 0.740548363912 1.14844445314 1.81477106613 0.343084659105 0.243191816185
4.320733938 1.67961646774 0.0332177408536 -3.77995916016 0.90706841986 -0.342897474489 0.740616192011 1.14705329102 1.81495636471 0.343313319429 0.242648854872
4.34116616716 1.67722474292 0.0331630231855 -3.77985345431 0.907279831571 -0.34409630095 0.740684486068 1.14566364826 1.81514205957 0.343543131595 0.242106487385
4.36160044179 1.67483277867 0.0331087055812 -3.77974761285 0.907491514498 -0.345292769683 0.74075278168 1.14427575973 1.81532766504 0.343773574859 0.241564904322
4.38203807131 1.67244042175 0.0330552128487 -3.77964137961 0.907703980968 -0.346485742479 0.740821987971 1.14288912604 1.81551408677 0.344005536251 0.241023745468
4.40247839953 1.67004774887 0.0330023270823 -3.77953489081 0.907916958574 -0.347675784348 0.740891650413 1.14150402102 1.81570092353 0.344238690518 0.240483160337
4.42292139984 1.66765476316 0.0329500413056 -3.77942814907 0.908130442044 -0.348862924398 0.740961761293 1.1401204209 1.81588812855 0.344472923677 0.239943167973
4.44336706043 1.66526146623 0.0328983502203 -3.77932115837 0.908344423456 -0.350047175854 0.741032316465 1.13873832206 1.81607569504 0.344708217719 0.239403768083
4.46381536504 1.66286785965 0.0328472485634 -3.77921392263 0.908558894932 -0.351228551767 0.741103311837 1.13735772101 1.81626361651 0.344944555419 0.238864960245
4.48426565451 1.6604740208 0.0327965250952 -3.77910656845 0.908773603297 -0.352407632422 0.741174304989 1.13597884657 1.81645144194 0.345181456264 0.238326921725
4.50471919394 1.65807980136 0.0327465841819 -3.77899885327 0.908989033657 -0.353583313539 0.741246161909 1.1346012108 1.8166400091 0.345419728868 0.237789318456
4.52517535374 1.65568527533 0.0326972191261 -3.7788909058 0.909204928596 -0.354756141807 0.74131845113 1.13322508299 1.81682895218 0.345659089916 0.237252286853
4.54563410731 1.65329044581 0.0326484228791 -3.77878272865 0.909421282886 -0.355926145904 0.741391164801 1.13185043904 1.81701822504 0.345899426909 0.236715845526
4.56609543838 1.65089531433 0.0326001903938 -3.77867432554 0.909638089118 -0.357093338674 0.741464299131 1.13047727522 1.817207821 0.346140721841 0.236179994265
4.5865593381 1.64849988236 0.0325525167237 -3.77856570016 0.90985533987 -0.358257732331 0.741537850515 1.12910558847 1.81739773484 0.346382960137 0.23564473221
4.60702516356 1.64610422485 0.0325052005246 -3.77845697254 0.91007279511 -0.359419890046 0.741611397099 1.12773560229 1.81758754769 0.346625699387 0.235110224333
4.62749414292 1.64370819808 0.0324586268745 -3.77834791272 0.910290914753 -0.360578740342 0.741685764528 1.12636683905 1.81777803463 0.346869674862 0.234576160522
4.64796566728 1.64131187355 0.0324125996381 -3.77823864248 0.910509455224 -0.361734812141 0.741760542864 1.12499956412 1.81796886268 0.347114642911 0.234042665158
4.66843970855 1.63891525434 0.0323671116429 -3.77812916439 0.910728411404 -0.362888134165 0.741835723994 1.12363375256 1.81815998513 0.347360489684 0.23350975698
4.68891625639 1.63651834186 0.0323221581679 -3.77801948195 0.910947776295 -0.364038718276 0.741911304628 1.12226940127 1.81835139691 0.347607200732 0.232977435175
4.70939529602 1.63412113747 0.0322777345467 -3.77790959863 0.911167542921 -0.365186576041 0.741987281565 1.12090650748 1.81854309355 0.347854763075 0.232445698669
4.72987620966 1.63172371391 0.0322336487291 -3.77779962836 0.911387483466 -0.366332254442 0.742063252087 1.11954528945 1.81873468511 0.348102767951 0.231914701556
4.75036018557 1.62932593171 0.0321902676989 -3.77768935287 0.911608034441 -0.367474712932 0.742140004302 1.11818527979 1.81892689049 0.348351886359 0.231384154848
4.77084663554 1.62692786011 0.0321474050608 -3.77757888751 0.911828965175 -0.368614464571 0.742217147958 1.11682673885 1.81911940389 0.348601904394 0.230854173366
4.79133553148 1.62452950211 0.0321050537078 -3.77746823481 0.912050270575 -0.369751537055 0.742294675043 1.11546964219 1.81931218067 0.348852713044 0.23032477478
4.81182686305 1.62213085898 0.0320632092455 -3.77735739807 0.912271944039 -0.370885941262 0.742372582757 1.11411398744 1.81950521735 0.349104301432 0.229795957687
4.83232061842 1.61973193211 0.0320218670707 -3.77724638055 0.912493979086 -0.372017689287 0.742450867872 1.1127597706 1.81969850737 0.349356651478 0.229267722102
4.8528161946 1.61733279203 0.0319808440955 -3.77713529052 0.912716159156 -0.373147311458 0.742529145938 1.11140720652 1.81989169002 0.349609391826 0.228740210999
4.87331475029 1.61493330334 0.0319404901187 -3.77702392054 0.912938899104 -0.374273797615 0.74260816971 1.11005583649 1.82008543091 0.349863130218 0.228213155386
4.89381571057 1.61253353305 0.0319006281 -3.77691238004 0.913161980113 -0.37539764443 0.742687567678 1.10870591763 1.82027945197 0.350117686873 0.227686660135
4.91431905179 1.61013348421 0.031861250784 -3.77680067148 0.913385397229 -0.376518879929 0.742767331498 1.10735742435 1.82047370734 0.350372949766 0.227160743376
4.93482476213 1.60773315797 0.0318223540768 -3.77668879798 0.913609144228 -0.377637514136 0.742847458798 1.10601035488 1.82066819476 0.350628910876 0.226635403271
4.95533283125 1.6053325556 0.0317839336758 -3.7765767626 0.913833214986 -0.378753558207 0.742927946787 1.1046647059 1.82086290918 0.350885555549 0.226110639277
4.97584267241 1.60293174567 0.0317458147603 -3.77646466835 0.914057403489 -0.379867527666 0.743008427733 1.10332068759 1.82105751405 0.351142540392 0.225586585498
4.99635541326 1.60053059658 0.0317083309569 -3.77635231787 0.914282104457 -0.380978441187 0.743089621372 1.10197784979 1.82125262663 0.351400416549 0.225062990826
5.01687049516 1.59812917331 0.031671313964 -3.77623981505 0.914507110084 -0.382086780149 0.743171173566 1.1006364461 1.82144799339 0.351659033447 0.224539951546
5.03738789297 1.59572747882 0.0316347565586 -3.77612716234 0.914732415505 -0.383192571979 0.743253075974 1.099296451 1.82164356945 0.351918281357 0.224017485231
5.05790760078 1.59332551422 0.0315986548299 -3.77601436265 0.914958014884 -0.384295826431 0.743335326425 1.09795786259 1.82183935245 0.352178151869 0.223495590234
5.07842960382 1.59092328072 0.0315630047128 -3.77590141887 0.915183902447 -0.385396554042 0.743417922435 1.09662067788 1.82203533801 0.352438631953 0.222974265807
5.09895333456 1.58852084498 0.0315276392757 -3.77578842911 0.915409881965 -0.386495255731 0.743500512087 1.09528510317 1.82223121283 0.352699406343 0.222453637531
5.11947988815 1.58611807897 0.0314928768897 -3.77567520537 0.915636329441 -0.387590977698 0.743583784196 1.09395069653 1.82242754993 0.35296097462 0.221933470485
5.14000872365 1.5837150458 0.0314585573705 -3.77556184644 0.915863047303 -0.388684187258 0.743667400642 1.09261770749 1.82262411692 0.35322320991 0.221413853772
5.16053981596 1.58131174833 0.0314246736641 -3.77544835471 0.91609003077 -0.389774910657 0.743751353337 1.0912861114 1.82282087131 0.353486008016 0.220894803815
5.18107315767 1.57890818763 0.0313912219806 -3.77533473291 0.916317274366 -0.390863157617 0.743835640192 1.08995590594 1.82301781006 0.353749358906 0.220376319382
5.20160873845 1.5765043649 0.0313581983742 -3.77522098376 0.916544772661 -0.391948938603 0.743920258806 1.08862708777 1.82321492823 0.354013248178 0.219858400085
5.22214600407 1.57410034494 0.0313254435164 -3.77510720083 0.916772338524 -0.393032739858 0.744004872357 1.08729986038 1.82341193551 0.354277390318 0.219341163028
5.24268601863 1.57169600313 0.0312932612715 -3.77499320482 0.917000330556 -0.394113634385 0.744090140481 1.08597378916 1.82360936318 0.354542235021 0.218824388494
5.26322825896 1.56929140076 0.0312614992312 -3.77487908976 0.917228560661 -0.395192075404 0.744175740278 1.08464912057 1.82380699974 0.354807680749 0.218308158418
5.2837727014 1.56688654069 0.0312301502853 -3.774764858 0.91745702419 -0.396268089165 0.74426166348 1.08332582931 1.8240048023 0.355073622161 0.217792489331
5.30431933562 1.56448142392 0.0311992108815 -3.7746505121 0.917685715981 -0.397341684735 0.744347908297 1.08200391349 1.8242027686 0.355340051168 0.217277379753
5.32486815569 1.56207605149 0.0311686774306 -3.77453605464 0.9179146309 -0.398412871342 0.744434472849 1.08068337099 1.82440089594 0.355606958616 0.216762828426
5.34541861774 1.55967048665 0.0311383974544 -3.77442157493 0.918143590334 -0.399482122842 0.744521033852 1.07936440043 1.82459891133 0.355874077235 0.216248946414
5.3659717637 1.55726460791 0.0311086612101 -3.77430690176 0.918372936666 -0.400548537349 0.74460822374 1.07804657492 1.82479730887 0.356141813844 0.21573552731
5.38652707927 1.55485847489 0.0310793235784 -3.77419212479 0.918602490611 -0.401612554827 0.74469573378 1.07673013769 1.82499589575 0.356410088994 0.215222646775
5.40708454523 1.55245209033 0.0310503776379 -3.77407724628 0.918832247637 -0.402674200446 0.744783555972 1.07541506428 1.82519463121 0.356678802271 0.214710320332
5.42764415123 1.55004545528 0.0310218197946 -3.77396226865 0.919062202895 -0.403733483866 0.744871688309 1.07410135158 1.82539351092 0.356947940657 0.214198547508
5.44820588841 1.54763857071 0.0309936467018 -3.77384719432 0.919292351544 -0.404790413615 0.744960129216 1.07278899798 1.82559253311 0.357217497276 0.213687326738
5.46876923061 1.54523149823 0.0309657126615 -3.77373210865 0.919522522887 -0.405845450301 0.745048568673 1.07147819928 1.82579144397 0.357487229238 0.213176762184
5.48933519171 1.54282411934 0.0309382950122 -3.77361684799 0.9197530442 -0.406897716284 0.745137613458 1.07016853582 1.82599070286 0.357757502834 0.21266665979
5.50990327215 1.54041649218 0.0309112553121 -3.77350149789 0.919983744399 -0.407947639753 0.745226967752 1.06886024644 1.82619013206 0.358028253932 0.212157090424
5.53047345126 1.53800861936 0.0308845868752 -3.77338606055 0.920214619082 -0.408995244672 0.745316623897 1.06755330773 1.82638969322 0.358299387709 0.211648068504
5.55104572164 1.5356005019 0.0308582862538 -3.77327053826 0.920445663673 -0.410040540383 0.745406580015 1.0662477166 1.8265893821 0.358570891391 0.211139593608
5.57162007442 1.53319214066 0.0308323503392 -3.77315493329 0.920676873609 -0.41108353473 0.745496834828 1.06494347201 1.82678919787 0.358842760384 0.21063166387
5.5921959938 1.53078359586 0.0308066396245 -3.7730393273 0.920908085594 -0.412124676688 0.745587090368 1.06364076555 1.82698890198 0.359114768497 0.210124378181
5.61277447149 1.52837475178 0.0307814192338 -3.77292356369 0.921139612813 -0.413163111742 0.745677929299 1.0623391847 1.82718892199 0.35938724524 0.209617553685
5.63335502122 1.52596566503 0.0307565573781 -3.77280772419 0.921371291804 -0.414199255278 0.745769068553 1.06103896616 1.82738909755 0.359660148982 0.209111255382
5.65393762233 1.52355633832 0.0307320470724 -3.77269181094 0.921603118305 -0.415233132431 0.745860499834 1.05974008434 1.82758938721 0.359933377301 0.208605498958
5.67452226593 1.52114677242 0.0307078855027 -3.77257582609 0.921835088003 -0.416264750119 0.745952222277 1.05844253911 1.82778979174 0.3602069294 0.208100281954
5.69510894317 1.51873696831 0.030684069324 -3.7724597718 0.92206719659 -0.417294117509 0.746044234038 1.05714632723 1.82799030659 0.360480791913 0.207595604169
5.71611097919 1.51632698472 0.0306604652757 -3.77234372625 0.922299287685 -0.418321670812 0.746136249182 1.05585163846 1.82819071108 0.360754762936 0.207091558089
5.73732560798 1.51391670862 0.0306373267629 -3.77222753944 0.922531661318 -0.419346578265 0.746228827394 1.0545580664 1.82839140194 0.361029134799 0.206587971692
5.75875449369 1.51150619522 0.0306145281675 -3.77211128953 0.92276416113 -0.420369243555 0.746321697368 1.05326584487 1.82859223366 0.361303883696 0.20608490516
5.78039977636 1.50909544713 0.0305920627176 -3.77199497859 0.922996783004 -0.421389690798 0.746414851097 1.05197494916 1.82879316679 0.36157891175 0.205582373274
5.80226363151 1.50668446521 0.0305699274337 -3.77187860866 0.923229522863 -0.422407927909 0.746508287284 1.0506853774 1.82899419916 0.361854211276 0.205080374899
5.82434825829 1.50427325026 0.0305481194237 -3.77176218177 0.923462376651 -0.423423962411 0.746602004763 1.04939712826 1.82919532944 0.362129776621 0.204578908568
5.8466553578 1.50186185974 0.0305265109743 -3.77164577287 0.923695194449 -0.424438219922 0.746695728259 1.04811038743 1.82939634973 0.362405419441 0.204078062461
5.86918819921 1.49945018315 0.0305053445334 -3.7715292381 0.923928263996 -0.425449889799 0.746789996069 1.04682475545 1.82959762984 0.362681401511 0.203577673826
5.89194856049 1.4970382744 0.0304845001804 -3.77141265232 0.924161435554 -0.426459365124 0.746884547694 1.0455404625 1.82979903658 0.362957712182 0.203077799033
5.91493871468 1.49462613599 0.0304639714219 -3.77129601752 0.924394705157 -0.427466668784 0.74697937553 1.04425748505 1.83000053295 0.363234259297 0.202578451771
5.93816097178 1.4922137688 0.030443755222 -3.77117933562 0.924628068948 -0.428471809168 0.747074478044 1.04297582023 1.83020211514 0.363511031247 0.202079631679
5.96161766989 1.48980117356 0.0304238489579 -3.77106260854 0.924861523107 -0.429474792947 0.74716985442 1.04169546756 1.83040378318 0.363788025791 0.201581336798
5.98531062242 1.48738840647 0.0304041303017 -3.77094590821 0.925094923764 -0.430476035083 0.747265239653 1.04041660946 1.83060534215 0.364065069756 0.201083650886
6.00924328034 1.48497535944 0.0303848312094 -3.77082909651 0.925328547163 -0.43147474555 0.747361151677 1.03913885274 1.83080713611 0.364342394748 0.200586420049
6.03341754131 1.4825620851 0.0303658373636 -3.77071224522 0.925562249754 -0.432471306419 0.747457340547 1.03786242521 1.83100904515 0.364620006901 0.200089696372
6.05783582026 1.48014858597 0.0303471421739 -3.77059535624 0.925796027706 -0.433465740927 0.747553798383 1.03658730235 1.83121103115 0.364897811077 0.199593493967
6.08250057056 1.47773486284 0.0303287428972 -3.7704784314 0.926029877386 -0.434458056488 0.747650524044 1.03531348232 1.83141309196 0.36517579981 0.199097811847
6.10741427218 1.47532091642 0.0303106369749 -3.7703614725 0.926263795184 -0.435448259744 0.747747516696 1.03404096436 1.83161522714 0.36545396978 0.198602648339
6.13257886563 1.47290680169 0.0302927072603 -3.77024454864 0.926497642904 -0.436436755193 0.747844521149 1.03276992804 1.83181725435 0.365732163173 0.198108082905
6.15799799254 1.47049241286 0.0302751757733 -3.77012752708 0.926731686032 -0.437422772445 0.747942036145 1.03149998651 1.83201949409 0.366010584518 0.197613969656
6.18393043244 1.4680778014 0.0302579333424 -3.7700104767 0.926965786787 -0.438406683705 0.748039821394 1.03023136427 1.83222183722 0.366289251748 0.197120357399
6.2103865279 1.46566296978 0.0302409734594 -3.76989339935 0.927199941483 -0.439388511846 0.74813786906 1.02896403683 1.83242424612 0.366568070687 0.196627259988
6.23737684314 1.46324791868 0.0302242936951 -3.76977629674 0.927434146705 -0.440368263227 0.748236178428 1.02769800354 1.83262672051 0.366847038507 0.196134675737
6.26491215672 1.46083264885 0.0302078914474 -3.76965917058 0.927668399031 -0.441345944875 0.748334748458 1.02643326278 1.83282925856 0.367126148629 0.195642603616
6.2930028496 1.45841721413 0.0301916544927 -3.7695420873 0.927902565584 -0.442321951279 0.748433333235 1.02516999127 1.83303168956 0.367405257277 0.195151119166
6.3216613497 1.45600151085 0.0301757954619 -3.7694249192 0.928136901781 -0.443295530654 0.748532413443 1.02390780873 1.83323431268 0.367684545304 0.194660083638
6.35089852571 1.45358558943 0.0301602100076 -3.76930773248 0.928371275225 -0.444267045975 0.748631757801 1.02264693608 1.83343702823 0.367964040249 0.194169543058
6.38102430832 1.45116945225 0.0301448918032 -3.7691905289 0.928605682386 -0.445236519378 0.748731358691 1.02138734941 1.83363979993 0.368243650966 0.193679510676
6.41206569486 1.44875309998 0.0301298385024 -3.76907331008 0.928840120037 -0.446203957089 0.748831215417 1.02012904796 1.83384262732 0.368523374256 0.19318998496
6.4440505044 1.44633653336 0.0301150475614 -3.76895607762 0.92907458494 -0.44716936609 0.748931326914 1.01887202989 1.83404550816 0.368803202678 0.192700965108
6.47700669051 1.44391980506 0.030100411592 -3.76883889548 0.929308949225 -0.448133130682 0.749031456314 1.01761646992 1.83424828387 0.369083008673 0.192212522509
6.51130476419 1.44150281351 0.0300861342019 -3.76872164067 0.929543458857 -0.449094517298 0.749132067031 1.01636199376 1.83445123302 0.369362949335 0.191724525309
6.5469986344 1.43908560815 0.030072115496 -3.76860437686 0.929777986469 -0.450053880553 0.749232936078 1.01510881805 1.83465426357 0.369643058278 0.191237017448
6.58451653566 1.43666819121 0.0300583495578 -3.76848710574 0.930012528705 -0.451011240981 0.749334056452 1.01385692077 1.83485734251 0.369923252164 0.190750010794
6.62395166619 1.4342505634 0.0300448339148 -3.76836982885 0.930247082497 -0.451966605478 0.74943542711 1.01260629991 1.83506046741 0.370203523064 0.190263504682
6.66665797496 1.43183272539 0.0300315662933 -3.76825254769 0.930481644801 -0.452919980142 0.749537047338 1.0113569546 1.83526363756 0.370483867365 0.189777497756
6.71290581962 1.42941472882 0.030018443697 -3.76813532388 0.93071609243 -0.453871740348 0.749638688465 1.01010905637 1.83546670373 0.370764167893 0.189292058347
6.76349180564 1.42699647413 0.0300056611168 -3.76801803885 0.93095066248 -0.454821170119 0.749740797485 1.00886223666 1.8356699252 0.37104455931 0.188807061037
6.82049830468 1.42457800968 0.0299931232608 -3.76790075393 0.931185232323 -0.455768614576 0.749843159911 1.00761671011 1.83587322019 0.371325088756 0.188322546548
6.88734864485 1.42215933771 0.0299808241488 -3.76778347073 0.931419798737 -0.45671409453 0.749945768521 1.00637245383 1.83607655481 0.371605670383 0.187838527078
6.97374045129 1.4197404589 0.0299687614729 -3.76766619068 0.93165435883 -0.457657616397 0.750048622439 1.00512946624 1.83627992723 0.371886297906 0.187355001768
7.18150122429 1.4173213739 0.0299569330455 -3.76754891523 0.931888909724 -0.458599186105 0.750151720979 1.00388774646 1.8364833367 0.372166967663 0.186871969352
7.38241706726 1.41589991449 0.0289389029941 -3.76655417448 0.933878391235 -0.447959033454 0.754655107255 1.00204210856 1.84462588307 0.38943526504 0.185188389911
7.49439458987 1.41445048738 0.0278921274903 -3.76556001652 0.935866707143 -0.43735146789 0.759150972901 0.999903041089 1.85274328633 0.406814824024 0.183082731972
7.58168987383 1.41297439329 0.0268083424517 -3.76456820175 0.937850336692 -0.426786886875 0.763627314136 0.997468680401 1.86081755196 0.42428527234 0.180558011415
7.656744282 1.41147299458 0.0256795360905 -3.76358042375 0.939825892682 -0.416274992184 0.768072295215 0.994739365588 1.86883057427 0.441826106816 0.177618742831
7.72384193003 1.4099477106 0.0244979970137 -3.76259829693 0.94179014633 -0.405824792381 0.77247436252 0.991717595048 1.8767642744 0.459416783637 0.1742707836
7.78429988071 1.4084000145 0.0232563526166 -3.76162334731 0.94374004557 -0.395444626767 0.776822343135 0.988407957991 1.88460072364 0.477036782049 0.170521179321
7.840704657 1.40683143213 0.0219475973962 -3.76065700675 0.945672726696 -0.385142208764 0.781105526429 0.984817047457 1.89232224956 0.494665639519 0.166378019233
7.89937707522 1.40517755264 0.0205629649907 -3.75970003734 0.947586665502 -0.374965402907 0.785310410711 0.980918719658 1.89990760649 0.512269545787 0.161834853029
7.96318728039 1.40350614131 0.0190981787403 -3.75875445115 0.949477837881 -0.364880380533 0.789430429536 0.976758629105 1.90734297609 0.529840301779 0.156917087777
8.0339750982 1.40181889756 0.0175474448129 -3.7578213856 0.951343968982 -0.354893338905 0.793456603108 0.972348831518 1.91461195849 0.547357595518 0.151635320225
8.11397061341 1.40011758899 0.0159053754636 -3.75690188954 0.953182961116 -0.345010146318 0.797380584363 0.967702957105 1.92169868676 0.564801080282 0.146000817067
8.20937855544 1.39840406022 0.0141669873319 -3.7559969306 0.954992878989 -0.33523642727 0.801194669658 0.962836106963 1.92858786761 0.582150312215 0.140025491373
8.33842411548 1.39668024164 0.0123276993508 -3.75510740421 0.956771931771 -0.32557764576 0.804891802062 0.957764752465 1.93526481895 0.599384683426 0.133721908442
8.43222705265 1.3949481583 0.0103833313756 -3.75423414364 0.958518452904 -0.316039183214 0.808465569328 0.952506637953 1.94171550746 0.616483357298 0.127103319161
8.50973037672 1.39314672936 0.00832734623793 -3.75337980925 0.960227121688 -0.306680703211 0.811901225399 0.947051055308 1.94791382196 0.63338909505 0.120172432127
8.57722406699 1.39134157434 0.00615922438041 -3.75254340138 0.96189993743 -0.297453240469 0.815202536823 0.941449118772 1.95385944119 0.650115432513 0.112956421866
8.64959862982 1.38953503914 0.00387603882635 -3.7517256203 0.963535499595 -0.288362262308 0.818365025406 0.935721796884 1.95954063184 0.666640660135 0.105471027839
8.73248120053 1.38772958652 0.00147528386958 -3.7509271479 0.965132444398 -0.279413364107 0.821384831734 0.929890910542 1.96494652175 0.682942736318 0.0977330079031
8.83429196622 1.38592779555 -0.0010451089881 -3.75014865688 0.966689426435 -0.270612282063 0.824258713783 0.923979009642 1.97006717925 0.698999333416 0.089760243769
8.93358186746 1.38413235622 -0.00368675175528 -3.74939081893 0.968205102334 -0.261964888201 0.826984048132 0.918009230135 1.9748937054 0.714787922823 0.0815718427701
9.01212817081 1.38234605898 -0.00645077773733 -3.74865431111 0.969678117965 -0.253477165518 0.829558834106 0.912005128993 1.97941833714 0.730285904087 0.0731882245392
9.07873185933 1.3805116221 -0.00933939835109 -3.74794381537 0.971099109458 -0.24522154744 0.831968453932 0.905968908632 1.98361553781 0.745413370273 0.064629341684
9.15480448407 1.37869226996 -0.0123506808783 -3.74725608497 0.972474570244 -0.237137172179 0.834225659774 0.899947550499 1.98749937566 0.760205131378 0.0559218612396
9.24671229441 1.3768909554 -0.0154841595069 -3.74659181363 0.973803112925 -0.229229966296 0.836330380474 0.893964497023 1.99106626325 0.774639751461 0.0470902762876
9.34591284298 1.37511063075 -0.0187388096316 -3.7459517019 0.975083336385 -0.221505673643 0.838283187785 0.888042685304 1.99431419138 0.788696689502 0.0381603800048
9.42201799104 1.37335420976 -0.0221130355623 -3.74533644969 0.976313840801 -0.213969741429 0.840085299194 0.882204269406 1.99724282087 0.80235662553 0.029159135748
9.4854060493 1.37162452488 -0.0256046683494 -3.74474674659 0.977493247004 -0.206627196327 0.841738574184 0.8764703308 1.99985355358 0.815601805215 0.0201144871641
9.54033012496 1.36992428222 -0.0292109742734 -3.74418325976 0.978620220675 -0.199482517043 0.843245502733 0.870860589796 2.00214957422 0.828416384646 0.0110551077922
9.58910779329 1.36819868766 -0.0329270766354 -3.74365230332 0.97968213355 -0.192615344562 0.844593550305 0.865379345174 2.00411448104 0.840712801264 0.00202083102731
9.63405452497 1.36650737961 -0.0367500643621 -3.74314871871 0.980689302759 -0.185951792869 0.845802502185 0.860057479969 2.00577727007 0.852554783597 -0.00696848060153
9.67614195519 1.36485239645 -0.040675701456 -3.74267300344 0.981640733316 -0.179493982616 0.846876550967 0.854908894004 2.00714636129 0.863934166523 -0.015884182803
9.7178209389 1.36323548727 -0.0446993555375 -3.74222557473 0.98253559072 -0.173243077261 0.847820364227 0.849945235285 2.00823171549 0.874845715312 -0.0246983522371
9.76019287647 1.36165808664 -0.0488160616517 -3.74180675587 0.983373228441 -0.167199236824 0.848639023921 0.84517580347 2.00904467689 0.885287211848 -0.0333841757269
9.80354869536 1.36012129698 -0.0530205962632 -3.7414167652 0.984153209788 -0.161361595787 0.849337957388 0.840607510564 2.00959778382 0.895259467649 -0.0419163220225
9.84820502866 1.35862588051 -0.0573075554116 -3.74105570808 0.984875324029 -0.155728270596 0.849922863058 0.836244904547 2.00990455434 0.904766254366 -0.0502712750449
9.8939644856 1.35711704137 -0.0616651684509 -3.74073043958 0.98552586102 -0.150378131727 0.850383243662 0.832081011724 2.00995911782 0.913730970208 -0.0584049537759
9.94180546733 1.35564991895 -0.0660934243388 -3.7404338015 0.986119137193 -0.145224165534 0.8507420037 0.828125127376 2.00979753035 0.922248011626 -0.0663205041854
9.98833823906 1.35422429087 -0.0705868970175 -3.740165538 0.986655664183 -0.140261809507 0.851005138851 0.824375296934 2.00943476051 0.930328871645 -0.0740015041025
10.0378966872 1.35283965331 -0.0751402783442 -3.73992528377 0.987136172649 -0.13548577046 0.851178617398 0.820827842278 2.00888582798 0.937987038589 -0.0814340485224
10.0922005763 1.35149525226 -0.0797484279054 -3.73971257149 0.987561597208 -0.130890139763 0.851268320209 0.81747760066 2.00816560724 0.945237657561 -0.0886067487872
10.140919392 1.35019011648 -0.0844064176547 -3.7395268417 0.98793305679 -0.126468507901 0.851279988009 0.814318168662 2.00728865427 0.952097193218 -0.0955106796733
10.1858968129 1.34892309185 -0.089109566529 -3.73936745406 0.988251832068 -0.12221407952 0.851219177371 0.811342145529 2.00626906046 0.958583098139 -0.102139275293
10.2276913175 1.34763894921 -0.0938419981494 -3.7392412668 0.988504206581 -0.118204220023 0.851074943515 0.808533012622 2.00510312468 0.964627613414 -0.108457341087
10.267363502 1.34638993172 -0.0986104733666 -3.73913972296 0.988707294261 -0.114345687185 0.85086903057 0.805889795391 2.00382178367 0.970337544946 -0.114494082504
10.3049894754 1.34517454894 -0.103411226797 -3.73906201654 0.988862707103 -0.110631276288 0.850606203772 0.803403436886 2.00243701241 0.975731367405 -0.120249129709
10.3410041287 1.34399125581 -0.108240788836 -3.73900731059 0.988972119017 -0.107053786869 0.850290957107 0.801064717847 2.00096001663 0.980827452877 -0.125723726104
10.3757971359 1.34283847826 -0.113095976141 -3.73897474787 0.989037244442 -0.10360609687 0.849927509264 0.798864404588 1.99940121733 0.98564388079 -0.130920517816
10.4093889854 1.34171463456 -0.117973882113 -3.7389634606 0.989059818994 -0.100281221152 0.84951980422 0.796793370662 1.99777025046 0.990198286391 -0.135843353148
10.4418029517 1.34061815336 -0.122871864178 -3.73897257893 0.989041582331 -0.0970723589797 0.849071515991 0.794842695502 1.99607598041 0.99450774117 -0.140497091175
10.4732709618 1.33949433005 -0.127770987748 -3.73900916602 0.988968408143 -0.0940581633977 0.848570089292 0.792994260684 1.99431222296 0.998503571384 -0.144852285417
10.5039078272 1.33839454201 -0.132685241633 -3.73906419904 0.988858342107 -0.0911456884143 0.848034855636 0.791248550799 1.99250118189 1.00228873369 -0.148951685389
10.5337237249 1.33731734554 -0.137612725975 -3.73913685102 0.988713038153 -0.0883289877499 0.847468689492 0.78959770379 1.99064948593 1.00587797895 -0.152802150774
10.5630205058 1.33626134953 -0.142551737494 -3.73922631601 0.988534108175 -0.085602388358 0.846874243828 0.788034268072 1.98876313793 1.00928528475 -0.15641091854
10.5917981788 1.33522522069 -0.147500749855 -3.73933181227 0.988323115644 -0.0829604985874 0.846253963845 0.786551217421 1.98684755905 1.01252384636 -0.159785488589
10.6200580429 1.33420768661 -0.152458397684 -3.73945258463 0.98808157092 -0.0803982096853 0.845610100656 0.785141956047 1.98490763196 1.01560608176 -0.162933526825
10.6475278177 1.33320753748 -0.157423461375 -3.73958790613 0.987810927932 -0.0779106934896 0.844944724863 0.783800316182 1.98294774362 1.01854364623 -0.165862782351
10.6751886193 1.33217101866 -0.162373551907 -3.73974518029 0.987496379613 -0.0755786113176 0.844244022285 0.782509386478 1.98095981031 1.02126429554 -0.16854405668
10.7034345598 1.33114941279 -0.167328757098 -3.73991540359 0.987155933012 -0.073311331657 0.8435255344 0.781274405403 1.97895955664 1.02386312681 -0.171023416042
10.7322731293 1.33014171512 -0.172288242228 -3.74009794803 0.98679084413 -0.0711049210499 0.842790837825 0.780090475399 1.97695006524 1.02634950638 -0.173308410833
10.7617224237 1.32914697966 -0.177251266059 -3.74029221494 0.986402310301 -0.0689556857398 0.842041381636 0.778953067937 1.97493408371 1.02873216476 -0.175406458786
10.7905983139 1.32816431738 -0.182217169194 -3.74049763461 0.985991470963 -0.0668601615671 0.841278497786 0.77785800404 1.9729140572 1.0310192303 -0.17732481491
10.8189183046 1.32719289393 -0.187185365198 -3.74071366561 0.985559408966 -0.0648151024828 0.840503410781 0.776801434077 1.97089215782 1.03321826374 -0.179070548726
10.8466901786 1.32623192721 -0.192155332612 -3.740939794 0.985107152185 -0.0628174689164 0.839717246652 0.775779817371 1.96887031161 1.03533629275 -0.180650527166
10.8737807905 1.32522858144 -0.197100829383 -3.74118371485 0.984619310491 -0.0609493489023 0.838905462229 0.774777144841 1.96683989385 1.03729872209 -0.182033843656
10.9003416416 1.32423407035 -0.202047077033 -3.74143656587 0.98411360844 -0.0591222431939 0.838084581463 0.773802752234 1.9648127337 1.03919408604 -0.183265787776
10.9263812551 1.32324776691 -0.206993726539 -3.74169791834 0.983590903518 -0.0573337329136 0.837255464258 0.772853946088 1.9627901279 1.04102790202 -0.184352474189
10.9519082634 1.32226908489 -0.211940468511 -3.74196736634 0.983052007502 -0.0555815548222 0.836418903544 0.771928260825 1.96077321749 1.0428052928 -0.1852997904
10.9771815941 1.32129747643 -0.216887027724 -3.74224452584 0.982497688509 -0.0538635918106 0.835575630936 0.771023441573 1.95876300435 1.04453101384 -0.186113397041
11.0022025313 1.32033242975 -0.221833159265 -3.74252903354 0.98192867311 -0.0521778635128 0.834726321889 0.770137428079 1.95676036583 1.04620947953 -0.186798730075
11.0269725013 1.31937346688 -0.226778645079 -3.74282054587 0.981345648443 -0.0505225172928 0.833871600443 0.769268339496 1.95476606788 1.0478447876 -0.187361004349
11.0513440821 1.31836857027 -0.2316932492 -3.74312695549 0.980732829218 -0.0489804263575 0.832996512624 0.768400370238 1.95277170632 1.04936144601 -0.187767581113
11.0754689891 1.31736872211 -0.236606759544 -3.74343953648 0.980107667223 -0.04746463615 0.832117063881 0.767545728373 1.95078681029 1.05084333672 -0.188062026018
11.0998290096 1.31637354365 -0.241519032465 -3.74375800531 0.979470729572 -0.0459736796715 0.831233737882 0.766703017156 1.94881186369 1.05229366477 -0.188248842247
11.1244257928 1.31538268115 -0.24642994045 -3.74408209373 0.978822552723 -0.0445061826416 0.830346983257 0.765870965569 1.94684728193 1.05371540883 -0.188332338826
11.1492610637 1.31439580421 -0.251339369699 -3.74441154803 0.978163644119 -0.0430608574684 0.82945721642 0.765048417971 1.94489341955 1.05511133773 -0.188316637434
11.1743366134 1.31341260424 -0.256247218551 -3.74474612818 0.977494483824 -0.0416364973686 0.828564824178 0.764234324563 1.94295057681 1.05648402588 -0.188205679358
11.1996542937 1.31243279299 -0.261153396115 -3.74508560706 0.976815526063 -0.0402319709516 0.827670166096 0.763427732651 1.94101900566 1.05783586766 -0.188003232552
11.2250380567 1.31140511733 -0.266023676619 -3.74543799725 0.976110745691 -0.038930525882 0.826758032144 0.762612616641 1.93909082282 1.05909137244 -0.18767536312
11.2509221196 1.3103801623 -0.270892092617 -3.74579468115 0.975397377889 -0.0376462676222 0.825844189142 0.761803125703 1.93717411096 1.06033117314 -0.187264019772
11.2773160208 1.30935770052 -0.275758585339 -3.74615547151 0.974675797173 -0.0363782991502 0.824928921088 0.760998570233 1.93526900155 1.06155714897 -0.186772424851
11.3042295103 1.3083375194 -0.280623102405 -3.74652019086 0.973946358464 -0.0351257775679 0.82401249316 0.760198327258 1.93337559702 1.06277105085 -0.186203658668
11.3316725434 1.30731942021 -0.285485596766 -3.74688867104 0.973209398104 -0.0338879107888 0.823095153061 0.759401834977 1.93149397424 1.06397451096 -0.185560665981
11.3596552928 1.30630321714 -0.290346026065 -3.74726075261 0.972465234966 -0.0326639540489 0.822177132386 0.758608587468 1.92962418739 1.06516905109 -0.184846262087
11.3881881438 1.30528873648 -0.295204352137 -3.7476362844 0.971714171396 -0.0314532069761 0.821258647757 0.757818130178 1.92776627067 1.06635609084 -0.184063138889
11.4170533146 1.30422548319 -0.300022419567 -3.74802334504 0.970940050099 -0.0303390678118 0.820324304799 0.757014038216 1.92591294784 1.06746060052 -0.183176468284
11.4464853541 1.30316350956 -0.304838307148 -3.74841340175 0.970159936688 -0.0292363713266 0.819389784509 0.756211795346 1.92407130119 1.06856086265 -0.182226930873
11.476795334 1.30210267917 -0.309651990649 -3.74880632949 0.969374081214 -0.0281445608836 0.818455261514 0.755411087505 1.92224131722 1.06965799696 -0.181216826193
11.5080092969 1.30104286439 -0.314463448291 -3.74920200947 0.968582721258 -0.0270631118082 0.817520899886 0.754611635573 1.92042297101 1.07075304998 -0.180148355118
11.5401540642 1.2999839458 -0.319272660216 -3.74960032878 0.967786082624 -0.0259915293405 0.81658685388 0.753813192267 1.91861622764 1.071847 -0.179023624482
11.57325726 1.29892581173 -0.32407960828 -3.75000118012 0.966984379958 -0.0249293468501 0.815653268581 0.753015539559 1.91682104351 1.07294076198 -0.177844651642
11.607688235 1.29786835771 -0.328884275846 -3.75040446141 0.96617781737 -0.0238761240689 0.814720280531 0.752218486189 1.91503736753 1.07403519183 -0.176613368742
11.6434173479 1.29676187037 -0.333644655489 -3.75081828146 0.965350177272 -0.0229152960203 0.81377234558 0.751405162672 1.91325853547 1.07505593403 -0.175294330971
11.6775144572 1.29565575979 -0.338402733668 -3.75123417694 0.964518386311 -0.0219622101981 0.812825142351 0.750592001707 1.9114908655 1.07607948053 -0.173927291793
11.710265186 1.29454994473 -0.343158499732 -3.75165206305 0.963682614089 -0.0210165164191 0.811878783282 0.749778886255 1.90973429126 1.07710650911 -0.172513905879
11.7420372017 1.29344434929 -0.347911943952 -3.75207185904 0.962843022109 -0.0200778838589 0.810933374507 0.748965717749 1.90798874258 1.0781376554 -0.171055760716
11.7728596848 1.29233890247 -0.352663057124 -3.75249348786 0.961999764462 -0.0191459994266 0.80998901653 0.748152413599 1.90625414615 1.07917351468 -0.169554378914
11.8027609507 1.29123353795 -0.357411830594 -3.75291687608 0.96115298802 -0.018220567071 0.809045804371 0.74733890643 1.90453042606 1.08021464523 -0.168011221906
11.8317684756 1.29012819379 -0.362158256158 -3.75334195365 0.960302832886 -0.0173013066516 0.808103827976 0.74652514256 1.90281750429 1.08126157054 -0.166427692623
11.8599161146 1.28897397797 -0.366856555832 -3.75377683529 0.959433069602 -0.0164716343116 0.807147412695 0.745693823688 1.90110930895 1.08224069796 -0.164767904451
11.8874953862 1.28781956719 -0.371552514636 -3.75421311832 0.958560503541 -0.015647268642 0.806192279663 0.744862081916 1.89941152201 1.08322708112 -0.163070958452
11.9145177268 1.28666491438 -0.376246126869 -3.75465074429 0.957685251601 -0.0148279876468 0.805238504426 0.744029902489 1.89772406423 1.08422113551 -0.161338061436
11.9409943462 1.28550997564 -0.380937387054 -3.75508965731 0.956807425564 -0.0140135809107 0.804286158812 0.743197279656 1.89604685579 1.08522325118 -0.159570373765
11.9669362286 1.28435471009 -0.385626289785 -3.75552980389 0.955927132403 -0.0132038489669 0.803335311195 0.74236421565 1.89437981678 1.0862337942 -0.157769011205
11.9923541392 1.28319907976 -0.390312829762 -3.75597113291 0.955044474364 -0.0123986027448 0.802386026525 0.741530720387 1.89272286706 1.08725310845 -0.15593504763
12.0172586259 1.28204304935 -0.394997001732 -3.75641359544 0.954159549318 -0.0115976629354 0.801438366647 0.740696810447 1.89107592674 1.08828151675 -0.154069516453
12.0421338082 1.28083859593 -0.399629338544 -3.75686529544 0.953256149312 -0.0108844003501 0.80047654015 0.739844798103 1.88943349351 1.08924621862 -0.152136196382
12.0662651886 1.27963358395 -0.404259329483 -3.7573178863 0.952350967587 -0.0101748114337 0.799516332947 0.738992348621 1.88780068306 1.09022105646 -0.150173743531
12.090145516 1.2784279878 -0.408886970206 -3.757771327 0.95144408619 -0.00946875532127 0.798557798041 0.73813949827 1.88617741986 1.09120628594 -0.148183051304
12.1137773753 1.27722178388 -0.413512256381 -3.75822557816 0.950535583867 -0.0087660983253 0.797600986122 0.737286287493 1.88456362921 1.09220214725 -0.14616498085
12.1378719404 1.27601495044 -0.418135183614 -3.75868060201 0.949625536175 -0.00806671357514 0.796645945644 0.736432760508 1.88295923731 1.093208866 -0.144120362574
12.1621950082 1.27480746754 -0.422755747451 -3.75913636228 0.948714015625 -0.00737048063468 0.79569272293 0.735578964955 1.88136417129 1.09422665409 -0.142049997569
12.1867487187 1.27359931691 -0.427373943385 -3.75959282418 0.947801091838 -0.00667728517822 0.794741362289 0.7347249515 1.87977835932 1.09525571052 -0.139954658836
12.2114952547 1.27234339623 -0.431936695808 -3.76005806914 0.946870601903 -0.00607044009954 0.793775968215 0.733852688196 1.87819685029 1.0962240287 -0.137797856368
12.2367262677 1.27108668691 -0.436497111279 -3.76052380459 0.945939131016 -0.00546615748981 0.792812399632 0.732980258782 1.87662423061 1.09720438975 -0.135617953656
12.2624512093 1.26982917719 -0.441055185467 -3.76099000112 0.945006737958 -0.00486434934667 0.791850695393 0.732107722944 1.87506043515 1.09819695013 -0.13341562181
12.2886797184 1.26857085653 -0.445610914006 -3.7614566305 0.944073479179 -0.00426493175528 0.790890892671 0.731235142253 1.8735053993 1.09920185626 -0.131191510292
12.3154216173 1.2673117156 -0.450164292452 -3.76192366555 0.943139409087 -0.00366782528186 0.789933027234 0.730362579653 1.87195906 1.10021924568 -0.128946246665
12.3426869235 1.26605174616 -0.454715316287 -3.76239108007 0.942204580041 -0.00307295442408 0.788977133402 0.729490099365 1.87042135525 1.10124924722 -0.12668043809
12.3704858436 1.26479094104 -0.459263980932 -3.76285884885 0.941269042494 -0.00248024758403 0.788023244169 0.728617766644 1.86889222437 1.10229198164 -0.124394671884
12.3984759308 1.26348317132 -0.463753682787 -3.76333502248 0.940316695225 -0.00197295316725 0.787055373388 0.727727248968 1.8673672552 1.10327622635 -0.122052232093
12.427299226 1.26217447041 -0.468241062031 -3.7638113615 0.939364017197 -0.00146745809871 0.786089452314 0.726836966189 1.86585052376 1.10427380341 -0.119691297458
12.4569804962 1.26086483562 -0.472726113934 -3.76428784447 0.938411051242 -0.000963709022774 0.785125510394 0.725946986966 1.86434197604 1.10528480587 -0.11731238068
12.4875452357 1.25955426501 -0.477208833744 -3.76476445073 0.937457838722 -0.000461655340345 0.784163576017 0.725057380321 1.86284155914 1.10630932055 -0.114915978714
12.5190197014 1.2582427574 -0.481689216649 -3.76524116032 0.936504419553 3.87510501164e-05 0.783203676519 0.724168215487 1.86134922114 1.10734742826 -0.112502573508
12.5517550375 1.25693031231 -0.486167257813 -3.76571795391 0.93555083236 0.000537555403926 0.782245838324 0.723279561812 1.85986491169 1.10839920463 -0.110072632077
12.5858017095 1.25561692993 -0.490642952359 -3.76619481287 0.934597114444 0.00103480074756 0.781290086885 0.722391488631 1.85838858135 1.10946471984 -0.107626607607
12.6207919833 1.25425750755 -0.495056249449 -3.76667975125 0.933627237691 0.00144730819152 0.780320360421 0.721485401999 1.85691635024 1.11047352036 -0.105127589016
12.6543464544 1.25289706991 -0.499467240442 -3.76716458225 0.932657575688 0.00185854203597 0.77935265533 0.720579997483 1.85545179112 1.11149654136 -0.102613645657
12.6865747455 1.25153562034 -0.503875920151 -3.76764928993 0.931688160338 0.00226853238615 0.778386994712 0.719675344741 1.85399486064 1.11253383449 -0.100085175175
12.7175292268 1.25017316263 -0.508282283402 -3.76813385881 0.930719022563 0.002677307625 0.777423400931 0.718771513057 1.8525455165 1.11358544737 -0.0975425639355
12.7475575119 1.24880970108 -0.512686325036 -3.7686182739 0.929750192382 0.00308489418207 0.776461895669 0.717868571335 1.85110371776 1.11465142414 -0.0949861871826
12.7766872705 1.24744524038 -0.517088039875 -3.76910252066 0.92878169887 0.00349131714358 0.775502499876 0.716966587936 1.84966942427 1.11573180502 -0.0924164098931
12.8049453507 1.24607978568 -0.521487422769 -3.76958658496 0.927813570264 0.0038965998515 0.77454523387 0.716065630721 1.84824259713 1.11682662705 -0.0898335867651
12.8327811141 1.24466931267 -0.525821057209 -3.77007844064 0.926829858904 0.00421763804834 0.773573977285 0.715146878123 1.84681988764 1.11786618966 -0.0872006362264
12.8600539932 1.24325778004 -0.530152403171 -3.77056995311 0.925846833967 0.00453776326084 0.772604779551 0.714229255863 1.84540436416 1.11892059304 -0.0845555691919
12.8867753297 1.24184519516 -0.534481455111 -3.77106111019 0.924864519816 0.00485698965008 0.771637659357 0.713312830449 1.8439959929 1.1199898614 -0.0818986985174
12.9129562361 1.2404315657 -0.538808207547 -3.7715519 0.923882940184 0.0051753301509 0.77067263488 0.712397667704 1.84259474117 1.12107401644 -0.0792303287849
12.938608168 1.239016616 -0.543132750209 -3.77204218305 0.922902374083 0.00549658373803 0.76971000956 0.711484432991 1.84119640705 1.12216882808 -0.0765570189772
12.9637406564 1.23760091829 -0.54745488564 -3.77253221466 0.921922310872 0.00581318171621 0.768749225219 0.710571922444 1.83980933812 1.12328280749 -0.0738663679271
12.988364737 1.23618420136 -0.55177470546 -3.77302184383 0.920943052528 0.00612892674291 0.767790590969 0.709660888159 1.83842928519 1.12441171997 -0.0711651316099
13.0125955376 1.23472334123 -0.556025531822 -3.77351891241 0.919948915366 0.00636401649238 0.766818153193 0.708732699052 1.83704994428 1.12548296164 -0.0684210721995
13.0363360174 1.23326167199 -0.560274053723 -3.77401554013 0.918955659933 0.00659468043442 0.765847547014 0.707805551531 1.8356814792 1.12657374528 -0.0656612035579
13.0598288524 1.23179893696 -0.564520299976 -3.77451160311 0.91796353396 0.00682467785075 0.764879032971 0.706880044743 1.83431974691 1.12767980955 -0.062891760534
13.0830765875 1.23033514572 -0.568764264625 -3.77500709337 0.91697255345 0.00705401162832 0.763912623317 0.705956220572 1.83296473155 1.12880116233 -0.0601129479381
13.1060817427 1.22887030877 -0.573005942062 -3.77550200175 0.915982736683 0.00728268340519 0.762948332776 0.705034138606 1.83161640919 1.12993780564 -0.057325003393
13.1288468112 1.22740443674 -0.577245326773 -3.77599631933 0.914994101525 0.00751069420032 0.761986175682 0.704113857429 1.83027475673 1.13108973991 -0.0545281586979
13.1511512209 1.22593754042 -0.581482413328 -3.77649003737 0.914006665452 0.00773804443691 0.761026165998 0.703195434699 1.82893975179 1.13225696397 -0.0517226402306
13.1732947091 1.22442763757 -0.585647281494 -3.77699098077 0.913004778653 0.00788552125142 0.7600522915 0.702259909056 1.82760516675 1.13336693366 -0.0488762123193
13.1956477235 1.22291692547 -0.589809932056 -3.7774912465 0.912004247189 0.00802877229128 0.75908033643 0.701326097955 1.82628095299 1.1344967979 -0.0460166278157
13.2182120344 1.22140515152 -0.593970326823 -3.77799075911 0.911005221962 0.00817150654393 0.758110471479 0.700394309224 1.82496312689 1.13564223785 -0.0431492195806
13.2409895959 1.21989232711 -0.598128459485 -3.77848951236 0.910007715463 0.00831371984988 0.757142706576 0.699464581022 1.82365167724 1.13680324871 -0.0402741534074
13.2639823867 1.21837846443 -0.602284324378 -3.77898749878 0.909011742631 0.00845540668505 0.756177054249 0.698536966674 1.8223465867 1.1379798206 -0.0373916221173
13.2871924021 1.21686357576 -0.606437915959 -3.77948471103 0.90801731813 0.00859656116583 0.755213526724 0.697611518478 1.82104783861 1.1391719425 -0.0345018142015
13.3106216565 1.21534767346 -0.610589228797 -3.77998114191 0.907024456361 0.00873717705816 0.754252135939 0.696688287772 1.8197554169 1.14037960231 -0.0316049141058
13.3338555346 1.21379000376 -0.614665164573 -3.78048461863 0.906017502922 0.00879811472083 0.753276789804 0.695747913308 1.81846376155 1.14153093126 -0.0286678893189
13.357544012 1.21223153951 -0.618738967294 -3.78098719825 0.905012343684 0.008854948842 0.752303438329 0.694809847009 1.81718206146 1.14270239945 -0.0257198749969
13.3816953695 1.21067203003 -0.622810535218 -3.78148884989 0.904009040402 0.00891135612322 0.751332165938 0.693874144882 1.8159064537 1.1438896488 -0.0227654704896
13.4063186092 1.20911148796 -0.626879861832 -3.78198956856 0.903007603061 0.00896732736858 0.7503629807 0.692940840618 1.81463693103 1.14509266541 -0.0198048114984
13.431422906 1.20754992665 -0.630946941489 -3.78248934795 0.902008044281 0.00902285199445 0.749395893437 0.692009981058 1.81337348157 1.1463114308 -0.0168380563072
13.4570176154 1.20598735947 -0.635011768682 -3.78298818185 0.901010376496 0.00907791922867 0.74843091473 0.691081612035 1.81211609397 1.1475459257 -0.0138653599389
13.4831122758 1.20442379984 -0.63907433804 -3.78348606411 0.900014611963 0.0091325181107 0.747468054928 0.690155778431 1.81086475739 1.14879613001 -0.010886874359
13.5092174546 1.20281976898 -0.643058463889 -3.78399082467 0.899005090851 0.00910760530678 0.746491169429 0.689212769665 1.80961456373 1.14999084532 -0.00786891800882
13.5358336424 1.20121496815 -0.647040539386 -3.78449448152 0.897997777157 0.00907865461794 0.745516346053 0.688272586879 1.80837398251 1.15120586435 -0.00484176124749
13.5632410899 1.19960914763 -0.651020402213 -3.78499704575 0.89699264869 0.00904932234137 0.744543585009 0.687335068581 1.80713924055 1.15243680254 -0.00180940012003
13.5914632653 1.19800232091 -0.654998045755 -3.78549851327 0.895989713639 0.00901959565254 0.743572892835 0.68640024365 1.80591033395 1.15368363926 0.00122805323116
13.6205243357 1.1963945021 -0.658973464429 -3.78599887858 0.894988983022 0.00898946038598 0.742604278979 0.685468152488 1.80468725532 1.15494634969 0.00427046753923
13.6507484361 1.19478570534 -0.662946652802 -3.78649813623 0.893990467728 0.00895890230046 0.741637752697 0.68453883453 1.80346999772 1.15622490841 0.00731771402764
13.6821820592 1.19317594473 -0.666917605594 -3.78699628083 0.892994178527 0.00892790707346 0.740673323056 0.683612328284 1.80225855461 1.15751928942 0.0103696662639
13.7144227619 1.19152706205 -0.670807141943 -3.78750114762 0.891984444954 0.0088175492652 0.739694821434 0.682668616365 1.80104866317 1.15875895693 0.0134605315689
13.7451963121 1.1898774404 -0.674694708895 -3.78800471376 0.890977312661 0.00870317789008 0.738718445007 0.68172817688 1.79984810223 1.16001903081 0.0165591065506
13.7747524327 1.18822683085 -0.678580086263 -3.78850703059 0.889972678999 0.00858843636542 0.737744110782 0.680790660792 1.79865316341 1.16129510929 0.0196618964756
13.8034230962 1.18657524747 -0.682463267402 -3.78900809466 0.888970550869 0.00847330923762 0.736771824001 0.679856092051 1.79746384563 1.16258716675 0.0227688079393
13.8312347826 1.18492270489 -0.686344246803 -3.789507901 0.887970938185 0.0083577798122 0.735801592981 0.678924504796 1.79628014525 1.16389517354 0.0258797311369
13.8582131798 1.1832692177 -0.690223019124 -3.79000644471 0.886973850772 0.00824183139298 0.734833425878 0.677995932243 1.79510205897 1.16521909953 0.0289945581958
13.8843832131 1.18161480046 -0.694099579179 -3.79050372091 0.885979298371 0.00812544727269 0.733867330697 0.677070406719 1.79392958383 1.16655891418 0.0321131830696
13.9102401959 1.17992265993 -0.697891844734 -3.79100757467 0.884971590853 0.00792984111276 0.732887144779 0.676127640185 1.79275910298 1.16784473501 0.0352702324929
13.9353242185 1.17822981539 -0.701682219875 -3.79150993838 0.883966863426 0.00773021548877 0.731909145171 0.67518852572 1.79159772168 1.16915101529 0.0384337399468
13.9598999369 1.17653601911 -0.70547042917 -3.79201090244 0.882964935303 0.00753020532067 0.730933165985 0.674252553094 1.79044177621 1.17047334338 0.0416006310152
13.9839775989 1.17484128554 -0.709256465977 -3.79251046387 0.881965812449 0.00732979324444 0.729959211347 0.673319741334 1.78929126792 1.17181168981 0.0447708274483
14.0075672589 1.17314562962 -0.713040324858 -3.79300861808 0.880969504021 0.00712896079622 0.728987288616 0.672390118546 1.78814619628 1.17316602117 0.0479442367711
14.0306787674 1.17144906621 -0.716822000542 -3.79350536054 0.879976019113 0.00692768955829 0.728017405025 0.671463711956 1.78700656103 1.17453630368 0.0511207680343
14.0533217781 1.16975161016 -0.720601487924 -3.79400068672 0.878985366754 0.00672596114723 0.727049567678 0.67054054794 1.7858723622 1.17592250321 0.0543003317378
14.0761134094 1.16801787624 -0.724293899007 -3.79450245779 0.877981824618 0.00644514996348 0.726067651584 0.669600098645 1.78474063584 1.17725537996 0.0575178797719
14.0984449805 1.16628347551 -0.727984496195 -3.7950025555 0.876981629198 0.00616029145301 0.725087982778 0.668663618487 1.78361782132 1.17860872808 0.0607408287041
14.1203238262 1.16454816221 -0.73167295149 -3.79550110854 0.8759845231 0.00587501412902 0.724110312312 0.667730459458 1.7825002832 1.17997813215 0.0639664592076
14.1419734319 1.16281195102 -0.73535925826 -3.7959981143 0.874990511596 0.00558929923986 0.72313464334 0.666800635742 1.78138802492 1.18136355973 0.0671947055098
14.1638267568 1.16107485703 -0.739043411109 -3.79649356843 0.873999603322 0.00530312710672 0.722160982409 0.665874169651 1.78028104857 1.1827649744 0.0704254893714
14.1861062678 1.15933689529 -0.742725404808 -3.79698746666 0.873011806859 0.00501647812692 0.72118933596 0.66495108266 1.77917935647 1.18418233947 0.0736587337828
14.2088202398 1.15759808077 -0.746405234294 -3.79747980472 0.872027130741 0.00472933276047 0.720219710333 0.664031395436 1.7780829512 1.18561561793 0.0768943629087
14.2314255722 1.15582447773 -0.749995303289 -3.79797846779 0.871029804618 0.00436324882294 0.71923605179 0.663094366726 1.77698953394 1.186996201 0.0801675680636
14.2544740942 1.15405024612 -0.753583631748 -3.79847527936 0.870036181465 0.00399307394536 0.718254702825 0.662161565462 1.77590487802 1.18839723207 0.0834452777359
14.2779720103 1.15227514312 -0.757169841934 -3.79897040595 0.869045928289 0.00362243063847 0.717275330946 0.661232226911 1.77482536287 1.18981429733 0.0867250743954
14.3019280328 1.15049918355 -0.76075392722 -3.79946384518 0.868059049827 0.00325129914775 0.716297938467 0.66030636052 1.77375099373 1.191247362 0.0900069027329
14.3263510456 1.14872238259 -0.7643358822 -3.79995559292 0.867075554343 0.0028796589886 0.71532253124 0.659383983045 1.77268177497 1.19269638724 0.0932906964161
14.3512501068 1.14694475533 -0.76791570164 -3.80044564507 0.866095450051 0.00250748977028 0.714349115035 0.658465110445 1.77161771113 1.19416133394 0.0965763901264
14.3768882954 1.1451663168 -0.77149338047 -3.80093399753 0.865118745119 0.00213477118138 0.713377695545 0.657549757905 1.77055880698 1.19564216277 0.0998639195191
14.4025969886 1.14335462049 -0.774978713535 -3.80142856899 0.864129602204 0.0016832686426 0.712392325897 0.656616993513 1.7695034457 1.19707088345 0.103188635465
14.4290933089 1.14154233406 -0.778462375398 -3.80192111551 0.863144509164 0.00122762055605 0.711409330654 0.655688659458 1.76845672791 1.1985199977 0.106517094542
14.4564049792 1.13972921876 -0.781943941652 -3.80241184105 0.862163058083 0.000771442586903 0.710428293104 0.654763893431 1.76741503673 1.19998509826 0.109847136822
14.4845568554 1.13791528946 -0.785423405642 -3.80290074346 0.861185253266 0.000314714264487 0.70944921484 0.653842700271 1.76637837908 1.20146614852 0.113178715937
14.5138647089 1.13610056135 -0.7889007619 -3.80338781875 0.860211102687 -0.000142585396165 0.708472101133 0.652925091396 1.76534676131 1.2029631076 0.116511775701
14.5443757508 1.13428504954 -0.79237600512 -3.80387306296 0.859240614272 -0.000600477276925 0.707496957195 0.652011077469 1.76432018995 1.20447593446 0.119846260782
14.5764567411 1.13246876903 -0.795849130163 -3.80435647215 0.858273795897 -0.00105898217177 0.706523788179 0.65110066841 1.76329867171 1.20600458782 0.123182116676
14.6093827641 1.13062080048 -0.799227424348 -3.80484600949 0.8572947212 -0.00159610096335 0.705536791829 0.650172761331 1.76228129257 1.20748168249 0.126554777778
14.6404485439 1.12877227988 -0.802604111662 -3.80533335292 0.856320034348 -0.00213742720294 0.704552238386 0.649249434972 1.76127246828 1.20897908835 0.129930535823
14.6700191275 1.12692297376 -0.805978724383 -3.80581874359 0.855349253004 -0.00267935383835 0.70356962611 0.648329747071 1.76026857638 1.2104924094 0.133307451273
14.6984477194 1.12507289702 -0.809351255794 -3.80630217955 0.854382381081 -0.00322190183955 0.702588955996 0.64741369799 1.75926962533 1.21202160757 0.136685485545
14.7257781919 1.1232220648 -0.812721700289 -3.80678365694 0.853419426303 -0.00376509246083 0.701610232849 0.646501294019 1.75827562328 1.21356664032 0.140064591256
14.7523154922 1.12137049216 -0.816090052425 -3.80726317193 0.852460396337 -0.00430894684995 0.700633461434 0.645592540721 1.75728657856 1.21512746497 0.143444721765
14.7793967977 1.11951819409 -0.819456306918 -3.8077407207 0.851505298795 -0.0048534860638 0.699658646484 0.644687442956 1.75630249967 1.21670403864 0.146825831153
14.806645424 1.11763581429 -0.822725346853 -3.80822432346 0.850538093261 -0.00547644896755 0.698670170331 0.643764744021 1.75532319969 1.21822956692 0.150243363567
14.8350082052 1.11575291983 -0.825992838189 -3.80870556781 0.849575604562 -0.00610368557547 0.697684210388 0.642846726219 1.75435239273 1.21977529846 0.15366344659
14.8645342558 1.11386928371 -0.829258273577 -3.80918473192 0.848617276346 -0.0067315998991 0.696700179002 0.641932383736 1.75338644282 1.22133685305 0.157084329258
14.8955784046 1.11198492081 -0.832521646187 -3.80966181402 0.847663112148 -0.00736021324043 0.695718076699 0.641021712591 1.75242535992 1.22291419148 0.160505979891
14.9282184409 1.1100998462 -0.835782950204 -3.81013681038 0.846713119432 -0.00798954694513 0.694737907942 0.640114714131 1.75146915387 1.22450726983 0.163928358881
14.9628793019 1.10821407489 -0.839042179968 -3.81060971729 0.8457673056 -0.00861962225282 0.693759677174 0.639211389013 1.7505178347 1.22611604404 0.167351427284
15.0004256164 1.10632762179 -0.842299329973 -3.8110805311 0.844825677988 -0.00925046031305 0.692783388825 0.638311737216 1.74957141259 1.22774046994 0.170775146795
15.0402988259 1.10441272753 -0.845456984283 -3.81155734303 0.843872054129 -0.00995950713794 0.691793652093 0.637394363327 1.74863045505 1.22931432861 0.174234898566
15.0769332238 1.10249735511 -0.848613141112 -3.81203163675 0.842923466688 -0.0106728958959 0.690806510861 0.636481723258 1.74769795381 1.23090825889 0.177696742452
15.1143175809 1.10058128517 -0.851767257525 -3.81250372724 0.841979285705 -0.0113870446151 0.689821290625 0.635572763051 1.74677025266 1.23251790085 0.181159088454
15.1544129528 1.09866453255 -0.854919326525 -3.81297361294 0.841039514307 -0.0121019747968 0.68883799159 0.634667474519 1.74584736302 1.23414321438 0.184621911108
15.1982799461 1.09674711224 -0.858069342009 -3.81344129026 0.840104159666 -0.0128177077374 0.687856618006 0.633765854243 1.74492929639 1.23578415443 0.188085177793
15.2472376247 1.09482903917 -0.861217298019 -3.81390675566 0.839173228877 -0.0135342646303 0.686877174131 0.632867898146 1.74401606444 1.23744067582 0.191548856483
15.3042006135 1.09291032819 -0.864363188749 -3.81437000562 0.838246728957 -0.014251666582 0.685899664233 0.631973601504 1.743107679 1.23911273324 0.195012915743
15.3537319668 1.09096484849 -0.867407406349 -3.81483921787 0.837308304439 -0.0150470331479 0.684908968993 0.631061443619 1.74220549187 1.24073466699 0.198512600987
15.3978102508 1.08901892616 -0.870450169331 -3.8153057572 0.836375225791 -0.0158468098593 0.683920955826 0.630154026544 1.74131174848 1.24237651852 0.202013998166
15.4381263101 1.08707235059 -0.873490903581 -3.81576997515 0.835446789898 -0.0166474320797 0.682934862399 0.629250262772 1.74042276641 1.2440339525 0.205515653935
15.4757421612 1.08512513655 -0.876529601877 -3.81623187038 0.834522999426 -0.0174489214002 0.681950688752 0.628350140041 1.73953855861 1.2457069282 0.20901754851
15.5152894577 1.08317729898 -0.879566257746 -3.8166914395 0.833603861188 -0.0182512989522 0.680968439076 0.627453650339 1.73865913823 1.24739539961 0.212519655632
15.5581268957 1.08122885271 -0.882600864853 -3.81714867914 0.832689381907 -0.019054585769 0.679988117598 0.626560785018 1.73778451857 1.24909932063 0.216021949593
15.6053369701 1.07927981249 -0.885633417008 -3.81760358599 0.831779568215 -0.0198588028015 0.679009728576 0.625671534814 1.73691471313 1.25081864504 0.219524405232
15.6486092431 1.07730570548 -0.888562223426 -3.81806444121 0.830857857762 -0.0207407065496 0.678018471172 0.624764265868 1.73605189007 1.25248825485 0.223062058667
15.688301257 1.07533119041 -0.891489608765 -3.81852247433 0.829941791524 -0.021627086921 0.67702999114 0.623861700895 1.73519752177 1.25417760753 0.22660111448
15.7253341328 1.0733560664 -0.894414972492 -3.81897807321 0.829030593773 -0.022514400197 0.67604343729 0.62296273276 1.73434789442 1.25588239677 0.230140234291
15.7602312734 1.0713803482 -0.897338307105 -3.81943123677 0.82812426664 -0.0234026679629 0.675058809676 0.622067345264 1.73350302256 1.25760258137 0.23367940357
15.7934444404 1.06940405065 -0.900259605682 -3.81988196185 0.827222816491 -0.0242919110857 0.674076112605 0.62117552596 1.73266292101 1.25933811454 0.237218601918
15.8250546569 1.0674271885 -0.903178861432 -3.8203302453 0.826326249586 -0.0251821503392 0.673095350441 0.620287261793 1.73182760479 1.26108894942 0.24075780946
15.8554399048 1.06544977643 -0.906096067703 -3.82077608406 0.825434572078 -0.0260734064202 0.672116527612 0.619402539118 1.73099708908 1.26285503906 0.244297006835
15.8849841502 1.06344902647 -0.908907561578 -3.82122788112 0.82453097795 -0.0270420329761 0.671125211125 0.618499622038 1.73017439214 1.2645717884 0.247870945787
15.913664871 1.06144790209 -0.911717657572 -3.82167671305 0.823633314086 -0.0280151993528 0.670136777644 0.617601330058 1.72936018449 1.26630808555 0.25144604183
15.9423536849 1.05944621309 -0.914525733842 -3.82212300369 0.822740732818 -0.0289893865218 0.669150286041 0.616706549753 1.72855071623 1.26805965753 0.25502105198
15.9719199189 1.05744397414 -0.917331782552 -3.82256675227 0.821853235639 -0.0299646159744 0.668165736583 0.615815261126 1.72774600356 1.26982646284 0.2585959666
16.0026948836 1.05544120001 -0.920135796254 -3.82300795591 0.820970828363 -0.0309409082209 0.667183133882 0.614927447453 1.72694606307 1.27160845407 0.262170770746
16.0347277583 1.05343790538 -0.922937767629 -3.82344661176 0.820093516676 -0.0319182836838 0.666202482637 0.61404309143 1.72615091154 1.27340558373 0.265745449971
16.068403133 1.05143410487 -0.925737689486 -3.82388271702 0.819221306144 -0.0328967627135 0.665223787641 0.613162175186 1.72536056595 1.27521780427 0.269319990322
16.10417754 1.04940871978 -0.928430039377 -3.82432481639 0.818337107405 -0.0339522529315 0.664233035461 0.612262871222 1.72457892968 1.27698102342 0.272928781975
16.1421591978 1.04738299308 -0.931121003313 -3.82476381443 0.817459111325 -0.0350123414348 0.663245284042 0.611368073206 1.72380584084 1.27876357569 0.276538544306
16.1829684393 1.04535674599 -0.933809943573 -3.82520017054 0.816586399109 -0.0360735377964 0.662259501166 0.610476674246 1.72303750921 1.28056122584 0.280148111889
16.2209693382 1.04332999313 -0.936496851935 -3.82563388435 0.815718971497 -0.037135863326 0.661275687532 0.609588650687 1.72227395278 1.28237393223 0.283757479673
16.2567765775 1.04130274921 -0.939181720359 -3.82606495328 0.814856833621 -0.0381993380866 0.660293848273 0.608703981688 1.72151518999 1.2842016469 0.28736663782
16.290853943 1.03927502883 -0.941864540926 -3.82649337486 0.81399999047 -0.0392639820583 0.65931398864 0.607822645855 1.72076123948 1.28604432187 0.290975576967
16.323284774 1.03724684655 -0.94454530584 -3.82691914665 0.813148446892 -0.0403298151532 0.658336114007 0.606944621251 1.7200121201 1.28790190907 0.294584288222
16.3570094672 1.03519885479 -0.947116747485 -3.82735097626 0.812284787675 -0.0414722522642 0.657346684488 0.606047998787 1.71927265622 1.28971079734 0.298226720383
16.3891166508 1.03315055343 -0.949686803005 -3.82777957592 0.811427588348 -0.0426193399656 0.656360387575 0.60515572462 1.71854182184 1.2915387847 0.301869990928
16.4199781954 1.03110177579 -0.952254824526 -3.82820544011 0.810575859967 -0.0437676204507 0.655376098712 0.604266710728 1.71781578254 1.29338167812 0.305512995615
16.4496422182 1.02905253644 -0.954820803396 -3.8286285689 0.809729602384 -0.0449171147559 0.65439381927 0.603380929952 1.71709455821 1.29523943588 0.309155733706
16.4799090899 1.02700285 -0.95738473092 -3.82904896014 0.808888819912 -0.0460678424028 0.653413555139 0.602498357493 1.71637816924 1.29711200961 0.312798200152
16.5114115638 1.02495273104 -0.95994659852 -3.82946661175 0.808053516697 -0.0472198228328 0.652435312361 0.601618968028 1.71566663628 1.29899935086 0.316440390363
16.5441998482 1.02290219403 -0.962506397736 -3.82988152173 0.807223696724 -0.0483730754226 0.651459097135 0.600742735715 1.71495998017 1.30090141117 0.320082300203
16.5789634269 1.02083364167 -0.964955231886 -3.83030258326 0.806381573665 -0.0496024719827 0.650471899257 0.599847679748 1.71426398232 1.30275503711 0.323757354196
16.6155052148 1.01876481095 -0.967402666952 -3.83072029463 0.805546150934 -0.050836563823 0.649487982049 0.598956777763 1.71357672032 1.30462750863 0.327433164057
16.6543031641 1.01669554785 -0.96984805089 -3.8311351848 0.804716370592 -0.05207192987 0.648506127254 0.59806897249 1.71289431197 1.30651467956 0.33110867162
16.6959362537 1.01462586687 -0.972291374578 -3.83154725436 0.803892231459 -0.0533085907873 0.647526337178 0.597184233417 1.71221677921 1.30841650816 0.334783880195
16.7347496015 1.01255578257 -0.974732628618 -3.83195650166 0.803073736868 -0.0545465654514 0.646548618723 0.596302531961 1.71154414451 1.31033294568 0.338458789231
16.7713203983 1.01048530945 -0.977171803721 -3.83236292511 0.802260889969 -0.0557858726602 0.645572978977 0.595423839031 1.71087643061 1.31226394328 0.342133398616
16.8061225494 1.00841446192 -0.979608890714 -3.83276652323 0.801453693728 -0.0570265311485 0.644599425227 0.59454812505 1.71021366047 1.3142094521 0.345807708675
16.8400174276 1.00632740929 -0.981933481664 -3.83317639871 0.800633942772 -0.0583428155501 0.643615535083 0.593653347479 1.70956260837 1.31610675136 0.349514533315
16.8724119769 1.00424010877 -0.984256647249 -3.83358281306 0.799821114069 -0.059663830776 0.642635092151 0.592762494847 1.70892042301 1.31802262268 0.353222076954
16.9035483026 1.00215241941 -0.98657773744 -3.83398632908 0.799014082023 -0.0609861966937 0.641656782986 0.591874552052 1.70828317121 1.31995297166 0.356929313538
16.9334750643 1.00006435565 -0.988896742621 -3.83438694796 0.798212844263 -0.0623099334833 0.640680611099 0.590989485396 1.70765087702 1.32189775656 0.360636250161
16.9631106295 0.997975931984 -0.99121365265 -3.83478466861 0.797417402978 -0.06363505926 0.63970658468 0.590107262681 1.70702356515 1.32385692824 0.36434289048
16.9936492333 0.995887162819 -0.99352845749 -3.83517949002 0.796627760153 -0.0649615920605 0.63873471214 0.589227851228 1.70640126052 1.32583043748 0.368049238574
17.0254328641 0.993798062509 -0.995841147215 -3.83557141131 0.795843917568 -0.0662895498578 0.637765002127 0.588351217894 1.70578398834 1.32781823503 0.371755298938
17.0587347276 0.991694580489 -0.99803992216 -3.83596976991 0.795047200361 -0.0676925522279 0.636785679963 0.587455268768 1.70517955064 1.32975800571 0.375493184727
17.0937389515 0.989590880159 -1.00023723177 -3.83636456658 0.794257607036 -0.0691003101777 0.635809992374 0.58656298287 1.70458413523 1.331716054 0.37923179424
17.1309027498 0.987486833993 -1.00243243439 -3.83675639716 0.793473945875 -0.0705094888358 0.634836529101 0.585673398207 1.70399375498 1.33368834246 0.382970120623
17.1703590856 0.98538245635 -1.00462551988 -3.83714526352 0.792696213143 -0.0719201077731 0.63386529515 0.58478647807 1.70340843625 1.33567482934 0.386708174487
17.2129953657 0.983277761632 -1.00681647733 -3.83753116524 0.791924409712 -0.0733321842127 0.632896300279 0.583902186829 1.70282820602 1.33767546507 0.390445963402
17.2524633225 0.981172764173 -1.00900529594 -3.83791410198 0.791158536226 -0.0747457352965 0.631929554513 0.583020488398 1.70225309151 1.33969020001 0.394183495337
17.2896490177 0.979067478236 -1.011191965 -3.83829407354 0.790398593104 -0.0761607780996 0.630965068146 0.582141346256 1.70168312027 1.34171898448 0.39792077866
17.3252122848 0.976949776212 -1.01326402265 -3.8386800432 0.78962665378 -0.0776535158914 0.629993308355 0.581243478409 1.7011312368 1.34370376632 0.401690145784
17.3590796336 0.974831755983 -1.01533394741 -3.83906299162 0.788860756957 -0.0791477225919 0.62902386938 0.580348119945 1.70058448308 1.34570259228 0.405459272206
17.3916301576 0.972713431997 -1.01740172735 -3.83944291883 0.78810090252 -0.0806434145529 0.628056762259 0.579455232851 1.7000428879 1.34771541245 0.409228168336
17.4229148439 0.970594818611 -1.01946735065 -3.83981982507 0.787347090055 -0.0821406079345 0.627091998267 0.578564778653 1.69950648021 1.34974217671 0.412996844954
17.4529827168 0.968475930122 -1.02153080562 -3.84019371063 0.786599318931 -0.0836393189003 0.626129589021 0.577676718474 1.69897528933 1.35178283498 0.416765313229
17.4836587296 0.966356780765 -1.02359208066 -3.84056457595 0.785857588291 -0.085139563592 0.625169546471 0.576791013032 1.69844934493 1.35383733714 0.420533584721
17.5155840288 0.96423738469 -1.02565116429 -3.8409324216 0.785121896995 -0.0866413579934 0.624211882831 0.575907622608 1.69792867687 1.35590563293 0.424301671344
17.548971958 0.962107377188 -1.02759435073 -3.84130656296 0.784373614267 -0.0882196094926 0.623247702181 0.575005060176 1.69742678419 1.35792939874 0.428100872559
17.5840675757 0.959977092317 -1.02953535898 -3.84167763619 0.783631467804 -0.0897993827066 0.622285975024 0.574104763888 1.69693016361 1.35996694146 0.431899901441
17.6209579776 0.957846544389 -1.03147417634 -3.84204564217 0.782895455855 -0.0913806927665 0.621326714451 0.573206692675 1.69643884627 1.36201821057 0.435698771679
17.6601224564 0.955715747635 -1.03341079024 -3.84241058191 0.78216557637 -0.0929635546635 0.620369933861 0.572310805045 1.69595286352 1.36408315538 0.439497497316
17.7020067482 0.953584716222 -1.03534518819 -3.84277245657 0.781441827055 -0.0945479833761 0.619415647028 0.571417059128 1.6954722471 1.36616172517 0.443296092759
17.7411795935 0.951453464244 -1.03727735785 -3.84313126742 0.780724205347 -0.0961339938006 0.618463868072 0.570525412661 1.69499702903 1.36825386916 0.447094572769
17.778085762 0.949322005715 -1.03920728694 -3.84348701589 0.780012708403 -0.0977216007274 0.617514611448 0.569635822987 1.69452724162 1.37035953645 0.450892952445
17.8133094364 0.947181786859 -1.04102029887 -3.84384921446 0.779288311269 -0.0993852662844 0.616560145239 0.568726821072 1.69407815153 1.37242118727 0.454721686441
17.8468611542 0.945041330303 -1.04283108027 -3.84420830914 0.778570121906 -0.101050495572 0.615608291306 0.56781982576 1.69363449741 1.37449632427 0.458550335553
17.8791070621 0.942900650184 -1.04463961769 -3.84456430172 0.777858136743 -0.10271730233 0.614659065078 0.566914793111 1.69319631273 1.37658489611 0.462378916443
17.9100977808 0.940759760563 -1.04644589781 -3.84491719414 0.777152351912 -0.104385700192 0.613712482353 0.566011678805 1.69276363126 1.37868685133 0.466207446108
17.9401798123 0.938618675422 -1.04824990738 -3.84526698847 0.776452763249 -0.106055702709 0.612768559309 0.565110438151 1.69233648706 1.38080213837 0.470035941868
17.9702643961 0.936477408676 -1.05005163329 -3.84561368693 0.775759366325 -0.107727323392 0.611827312539 0.564211026106 1.69191491458 1.3829307056 0.473864421376
18.001263001 0.93433597415 -1.05185106255 -3.8459572919 0.775072156391 -0.109400575601 0.610888758986 0.563313397253 1.69149894846 1.38507250124 0.477692902585
