liuchen18/hilsys_old/sim_sys/data/fwx_planned_trajectory.txt
this is the FWX joint values,the following info is time,x,y,theta,joint1,joint2,joint3,joint4,joint5,joint6,joint7
0.0 -1.52056390807 0.0381970813358 -3.59955298329 1.17084515131 0.548533973287 1.62361584864 0.368498233161 2.77432063417 -0.0653901530705 1.45207091935
0.109453540374 -1.5201504471 0.0285155041476 -3.60362826737 1.17899571949 0.524288681873 1.63448758314 0.371866744691 2.75203099088 -0.0661927317258 1.44355733072
0.208616974979 -1.51985114925 0.0185675680862 -3.60901417523 1.18976753519 0.498932107102 1.64874887464 0.378307556259 2.7238348812 -0.0667286070244 1.432846017
0.311777068657 -1.51978496717 0.00891077224444 -3.61567798722 1.20309515917 0.475134888074 1.66638059727 0.388910767881 2.69040627583 -0.0666419773974 1.42008728538
0.411206087439 -1.52004304603 0.000248936276414 -3.62298751655 1.21771421784 0.456207025186 1.68589135308 0.403601900324 2.65522676409 -0.0655877790182 1.40638667134
0.509532316833 -1.52059455471 -0.00712231295434 -3.63004004522 1.23181927517 0.443480096295 1.70507425213 0.420743187002 2.62262199814 -0.0635495451707 1.39317783532
0.593181206591 -1.52131917713 -0.0134311407504 -3.63629765103 1.2443344868 0.43580426764 1.72255870075 0.438393714568 2.59476111246 -0.060819496467 1.38125120151
0.670799637507 -1.5221109538 -0.0190331077019 -3.64165512287 1.25504943047 0.431457873712 1.73802051908 0.455367670566 2.57169747107 -0.0577159506682 1.37075435734
0.742631781176 -1.52288624844 -0.0241196575994 -3.64605534139 1.26384986752 0.429296377543 1.75121293173 0.470709780716 2.55329210942 -0.0545676590494 1.36185951598
0.800040564893 -1.52363839005 -0.0289309379792 -3.6497921834 1.27132355153 0.428404329082 1.76286289734 0.484826377844 2.53803826025 -0.0514203758404 1.35407961593
0.850611656489 -1.52435451714 -0.0335582111623 -3.65297553139 1.27769024752 0.428350637266 1.77320722787 0.497748767836 2.52531233895 -0.0483553002414 1.34726468859
0.899704483494 -1.52502955107 -0.038058232734 -3.65569751684 1.28313421842 0.428868655412 1.78244796513 0.509562494016 2.51462122293 -0.0454200746715 1.34128428094
0.949108392293 -1.52566240499 -0.0424674447048 -3.65803317477 1.28780553428 0.429788051206 1.79075151969 0.520368472294 2.5055808545 -0.0426413074833 1.33602737569
0.995545745665 -1.52625400627 -0.0468100886191 -3.6600431773 1.29182553934 0.430996157497 1.79825377117 0.530266675379 2.49789201462 -0.0400321214608 1.33140010146
1.04564834317 -1.52680626361 -0.0511028354114 -3.66177669744 1.29529257961 0.432416001443 1.80506589726 0.53934976245 2.49131998109 -0.0375969891879 1.32732300337
1.08676090751 -1.52732151748 -0.0553574994765 -3.66327383127 1.29828684727 0.433993457232 1.811279429 0.547701077165 2.48567893828 -0.0353348716073 1.3237285808
1.12331354544 -1.52776511371 -0.0594967179012 -3.66444062598 1.3006204367 0.435641229778 1.81653715422 0.554776441456 2.48125630375 -0.0334245132479 1.32085318162
1.16178031583 -1.52817971863 -0.0636131408993 -3.66544795425 1.30263509323 0.437376710424 1.82137969352 0.561316978455 2.47742932798 -0.0316651397417 1.31832087104
1.20321035449 -1.52856737197 -0.0677114659498 -3.66631593181 1.30437104836 0.439179112752 1.82585406438 0.567372563277 2.47411260401 -0.0300489798017 1.31609322835
1.24958298381 -1.52893000143 -0.071795379861 -3.66706153099 1.30586224672 0.441032374219 1.83000040545 0.572987351234 2.47123561639 -0.0285678691085 1.31413698478
1.28914480121 -1.52926940833 -0.0758678020724 -3.66769917546 1.30713753565 0.44292397118 1.83385321176 0.578200479228 2.46873966837 -0.0272136093295 1.31242316967
1.330631225 -1.52958726223 -0.0799310721427 -3.66824119366 1.30822157206 0.444844034099 1.83744229789 0.583046696315 2.46657557 -0.0259781659917 1.31092646434
1.38008556614 -1.52988510268 -0.0839870843602 -3.66869818014 1.30913554502 0.446784714134 1.8407935709 0.587556924199 2.46470183788 -0.0248537922103 1.30962466611
1.42504494921 -1.53016434507 -0.0880373861208 -3.66907928538 1.30989775551 0.448739721856 1.84392965487 0.591758747263 2.46308328174 -0.0238331021458 1.30849824192
1.48226446935 -1.5304143059 -0.0925316783223 -3.66931099683 1.3103611784 0.450823326757 1.84677532369 0.595458921412 2.46189007651 -0.0230082022798 1.30769735116
1.52855865669 -1.53064704623 -0.0970209385426 -3.66947785734 1.31069489942 0.452916459672 1.8494311253 0.598880020483 2.46090630349 -0.0222822461797 1.30704987192
1.56879943527 -1.53086382123 -0.101506470094 -3.66958692502 1.31091303478 0.455014115428 1.85191504077 0.602044897336 2.4601066871 -0.0216473761297 1.30653957398
1.60783363395 -1.53106577657 -0.105989348337 -3.66964432609 1.31102783691 0.457112279356 1.85424288462 0.604974019378 2.45946963306 -0.0210963641007 1.30615221659
1.65224068833 -1.53125395852 -0.110470460108 -3.66965540267 1.31104999008 0.459207736835 1.85642862365 0.607685766917 2.45897659286 -0.0206225792462 1.30587525795
1.70568845023 -1.53142932292 -0.114950538818 -3.66962483105 1.31098884683 0.461297914687 1.85848463745 0.610196686773 2.45861156255 -0.0202199443652 1.30569762209
1.74994755726 -1.53159274358 -0.119430192178 -3.66955671935 1.31085262343 0.463380757119 1.86042193609 0.612521710934 2.45836067533 -0.0198828924458 1.30560950203
1.78746890398 -1.53169451712 -0.123747259354 -3.66935156134 1.31044230742 0.465212177681 1.86174912153 0.613899184902 2.45852796453 -0.0198201759161 1.30585193412
1.82149769797 -1.53178890037 -0.128064159104 -3.66912522051 1.30998962576 0.467037066873 1.86300587186 0.615163250079 2.45875753999 -0.0197969308001 1.30614494901
1.85292400269 -1.53187634065 -0.132381235413 -3.66887960656 1.30949839785 0.468854341395 1.86419751342 0.616321325606 2.4590433935 -0.019810031157 1.30648375537
1.88695786208 -1.53195725145 -0.136698777635 -3.66861642693 1.30897203861 0.470663134412 1.86532886737 0.617380214406 2.45938020553 -0.0198566178344 1.30686406301
1.92455858249 -1.53203201532 -0.141017028189 -3.66833721215 1.30841360904 0.472462760713 1.866404307 0.618346164053 2.4597632523 -0.0199340742043 1.307282022
1.96736073752 -1.53210098643 -0.145336189736 -3.6680433371 1.30782585895 0.474252686324 1.86742780706 0.619224920029 2.46018832859 -0.020040003524 1.30773417143
2.01847130684 -1.53216449295 -0.14965643119 -3.66773603949 1.30721126373 0.476032503341 1.86840298674 0.620021773224 2.46065168169 -0.0201722085287 1.30821739476
2.06428983379 -1.5321725492 -0.15378436754 -3.66733124486 1.30640167446 0.477488458346 1.86884577033 0.619979391468 2.46141128043 -0.0205172222296 1.30893114267
2.10360501052 -1.53217683384 -0.15791395111 -3.66691970221 1.30557858916 0.478932422848 1.86925865205 0.619883455744 2.46219006037 -0.0208760532172 1.30965919189
2.13883915955 -1.53217888898 -0.16204450612 -3.66650416321 1.30474751115 0.480369374434 1.86965409848 0.619754929658 2.46298022294 -0.0212424263481 1.31039530392
2.17108477926 -1.53217879998 -0.1661760988 -3.66608492749 1.30390903971 0.481799155111 1.87003299657 0.619595158311 2.46378093671 -0.0216157371115 1.31113870448
2.20566544063 -1.53217666961 -0.17030876629 -3.66566231351 1.30306381176 0.483221747244 1.87039637231 0.619405756241 2.46459131597 -0.0219953245639 1.31188858738
2.24425630287 -1.53217259363 -0.174442538451 -3.66523661087 1.30221240647 0.484637156627 1.87074516768 0.619188221338 2.46541055953 -0.0223805841997 1.31264422318
2.28901735851 -1.53216666173 -0.178577438412 -3.6648080841 1.30135535294 0.486045410496 1.87108025308 0.618943952926 2.46623793938 -0.0227709594694 1.31340494955
2.34859183986 -1.53209677406 -0.183147094402 -3.66421772007 1.30017462488 0.487228173404 1.87087936458 0.617717960732 2.46748502405 -0.0234332212316 1.31449747531
2.3962941183 -1.53202745802 -0.187718121989 -3.66363163384 1.29900245242 0.488406911119 1.870689674 0.616505183618 2.46872155257 -0.0240835868363 1.31557713814
2.43731540107 -1.53195858494 -0.192290654331 -3.66304899733 1.2978371794 0.489580412197 1.87050797799 0.615300309876 2.4699500941 -0.0247241940672 1.31664614049
2.47917437764 -1.53189014082 -0.196864625271 -3.66246966524 1.29667851523 0.490749020578 1.87033383397 0.614102806378 2.4711709938 -0.025355524494 1.31770488755
2.5282719678 -1.53182209972 -0.201439961324 -3.66189349327 1.29552617128 0.491913017995 1.87016684559 0.612912245378 2.47238463864 -0.0259779202414 1.31875381946
2.59058234637 -1.53175443684 -0.206016595741 -3.66132034688 1.29437987851 0.493072659121 1.87000663978 0.611728221435 2.47359138905 -0.026591700704 1.31979334525
2.68978859363 -1.53162653899 -0.210312767561 -3.66067596378 1.2930911123 0.493708816675 1.86929064445 0.609656967666 2.47503173498 -0.0273703568164 1.32098537912
2.74867203322 -1.53150121105 -0.214610924005 -3.66003941077 1.29181800628 0.494343772285 1.86860080543 0.607624344117 2.47645350624 -0.0281282852303 1.32215645147
2.79527597749 -1.53137834399 -0.218910880987 -3.65941029574 1.29055977622 0.494978054669 1.86793583843 0.605628616987 2.47785764821 -0.028866527654 1.3233077058
2.83526400581 -1.5312578338 -0.223212472527 -3.65878825219 1.28931568911 0.495612126066 1.86729453275 0.603668138233 2.47924504781 -0.0295860532397 1.32444020284
2.88249157375 -1.53113958126 -0.227515548869 -3.65817293737 1.28808505947 0.496246389493 1.86667574682 0.601741341643 2.48061653723 -0.0302877644537 1.32555492728
2.94229883127 -1.53102349175 -0.231819974895 -3.65756403057 1.28686724587 0.496881195199 1.86607840395 0.599846738956 2.48197289761 -0.0309725024225 1.32665279396
3.03469084879 -1.53084867972 -0.235825602891 -3.65689647925 1.28553214324 0.496932248516 1.86494852378 0.597096048738 2.48353408483 -0.0317926158657 1.32786741212
3.09091876247 -1.53067763208 -0.23983409835 -3.65623852896 1.28421624266 0.496985492182 1.86385462279 0.594400909943 2.48507294202 -0.0325869248795 1.32905754862
3.13570936395 -1.53051021845 -0.243845205092 -3.65558975648 1.2829186977 0.497041570613 1.86279517779 0.591759244755 2.48659040004 -0.0333566758405 1.33022445102
3.17431258743 -1.53034631327 -0.247858688752 -3.65494976173 1.28163870821 0.497101051228 1.86176873866 0.58916905882 2.48808734621 -0.0341030360703 1.33136928695
3.20986889893 -1.53018579566 -0.251874334719 -3.65431816649 1.28037551772 0.497164432003 1.86077392494 0.58662843887 2.48956462582 -0.0348270996248 1.33249314952
3.25003967899 -1.5300285493 -0.255891946521 -3.65369461309 1.27912841091 0.497232147934 1.85980942255 0.584135549933 2.49102304401 -0.0355298924566 1.33359706272
3.30364988336 -1.52977108968 -0.260342279435 -3.65288763455 1.27751445384 0.496551288704 1.85804370222 0.580155217803 2.49299356078 -0.0365046209222 1.33502889558
3.34777957295 -1.52951995138 -0.264798991441 -3.65209523932 1.27592966337 0.495876574683 1.85633751163 0.57626725509 2.49493071975 -0.0374395942104 1.33642477456
3.38663670339 -1.52927492266 -0.269261534228 -3.65131677424 1.27437273321 0.495209288338 1.85468827516 0.572468239867 2.49683581662 -0.0383369367727 1.33778666794
3.42402222765 -1.52903579867 -0.273729405355 -3.65055162039 1.27284242552 0.494550553365 1.85309353592 0.568754876049 2.49871010065 -0.0391986292742 1.33911641416
3.46609416197 -1.52880238145 -0.278202143818 -3.64979919157 1.27133756788 0.493901350432 1.85155095178 0.565123992326 2.50055477368 -0.0400265195914 1.34041573032
3.51080465233 -1.52850152894 -0.2823042355 -3.64899771626 1.26973461725 0.492429762407 1.84943203781 0.560536142404 2.50259974175 -0.0409590537635 1.34179335405
3.54957598133 -1.52820744353 -0.286416218966 -3.64821085952 1.26816090378 0.490965247686 1.84737775483 0.55604684827 2.50461162897 -0.0418513138057 1.34313589756
3.58440563539 -1.52791994711 -0.290537431023 -3.64743807693 1.26661533859 0.489509326934 1.84538572439 0.551653134602 2.50659137574 -0.0427052848117 1.34444506648
3.62219995644 -1.52763886499 -0.294667253124 -3.64667884522 1.26509687518 0.488063365068 1.84345365042 0.547352098868 2.508539913 -0.0435228327411 1.34572247151
3.66573918261 -1.52736402612 -0.298805107689 -3.64593266214 1.26360450902 0.48662858402 1.84157931892 0.543140914396 2.51045815824 -0.0443057122384 1.34696963304
3.71399452602 -1.52702227633 -0.302583756971 -3.64514342488 1.2620260345 0.484317975353 1.83915891518 0.537995099103 2.51256451459 -0.0451745049984 1.34827606169
3.75429804591 -1.52668742304 -0.306377144125 -3.64436849558 1.2604761759 0.48201354807 1.83680694061 0.532949915945 2.51463861992 -0.0460037651421 1.34954890914
3.78984153827 -1.52635933193 -0.31018448837 -3.64360744665 1.25895407804 0.479717113796 1.83452127726 0.528002974361 2.51668106647 -0.0467952901562 1.35078960323
3.82550842368 -1.52603786882 -0.314005050289 -3.64285986037 1.25745890549 0.477430334535 1.83229985368 0.523151905954 2.51869246631 -0.0475507832818 1.35199950794
3.86620266834 -1.52572290003 -0.317838129077 -3.64212532956 1.25598984385 0.475154732106 1.83014064752 0.51839437045 2.52067344586 -0.0482718584174 1.35317992504
3.91003868231 -1.5253414308 -0.321335504031 -3.64135233057 1.25444384587 0.471956568178 1.82747045061 0.512724393484 2.52283269616 -0.0490633963488 1.35440440195
3.94735035163 -1.52496679641 -0.324853830526 -3.64059327183 1.2529257284 0.468762331805 1.82487233151 0.507154899543 2.52496037664 -0.0498167917831 1.3555967726
3.98335063132 -1.52459891009 -0.328392205099 -3.63984783727 1.25143485927 0.465574189833 1.82234443796 0.501684125849 2.52705676182 -0.0505336561123 1.3567582098
4.02375072427 -1.52423768231 -0.331949760897 -3.63911571124 1.24997060722 0.462394166239 1.81988493061 0.496310286451 2.52912216928 -0.0512155282682 1.35788984826
4.06672436288 -1.52388302129 -0.335525665877 -3.63839657973 1.24853234419 0.459224148448 1.81749198779 0.49103158011 2.53115695339 -0.0518638773615 1.35899278409
4.11599499555 -1.5234624214 -0.338800910485 -3.63764282915 1.24702484304 0.455093702745 1.81462979467 0.484866026218 2.53336058297 -0.0525696396641 1.36012705788
4.15727738114 -1.52304850675 -0.342104605626 -3.63690279243 1.2455447696 0.450964354783 1.81184397705 0.478800055358 2.53553266972 -0.053238992366 1.36123030981
4.19563834305 -1.52264123841 -0.345435714231 -3.63617625334 1.24409169141 0.446838706912 1.8091329158 0.472832522511 2.53767321032 -0.0538733885463 1.36230349656
4.23912882307 -1.52224057215 -0.348793230131 -3.6354629881 1.24266516094 0.442719223645 1.80649497302 0.466962218963 2.53978226406 -0.0544742263073 1.36334755762
4.29094904362 -1.52184645896 -0.352176177218 -3.63476276695 1.24126471864 0.438608234954 1.80392849862 0.461187881427 2.54185994629 -0.0550428496395 1.36436341338
4.34100351651 -1.5213874178 -0.355303770865 -3.6340316302 1.23980244513 0.433511149533 1.80094244085 0.454559343826 2.54409574073 -0.0556576736468 1.36539935272
4.38370290364 -1.52093491746 -0.358468345829 -3.6333142605 1.23836770573 0.428412938169 1.79803817754 0.448029962096 2.54629898677 -0.0562380671925 1.36640478314
4.42963895719 -1.52048896472 -0.36166871043 -3.63261052468 1.2369602341 0.423316734525 1.79521425283 0.441599159335 2.54846945529 -0.0567853658485 1.36738049385
4.46927087537 -1.52004955872 -0.36490369794 -3.63192027508 1.2355797349 0.41822553438 1.79246916177 0.435266257525 2.55060699776 -0.0573008628448 1.36832727374
4.50463397256 -1.51961669153 -0.368172166716 -3.63124335136 1.23422588745 0.413142196105 1.78980135864 0.42903048761 2.55271153942 -0.0577858086407 1.36924590836
4.54211943886 -1.51912067433 -0.371238694095 -3.63053955556 1.23281829586 0.407063774591 1.78677194594 0.421983716438 2.55496072011 -0.0583073090012 1.3701741539
4.57738350528 -1.51863114245 -0.374351291039 -3.62984993308 1.2314390509 0.400984169276 1.78383092581 0.415037102832 2.55717510651 -0.0587966525088 1.37107181742
4.61514933947 -1.51814814369 -0.377508578411 -3.62917441043 1.2300880056 0.394907139045 1.78097689054 0.408190544433 2.55935431853 -0.0592551001259 1.37193957864
4.65639861254 -1.5176717159 -0.380709197112 -3.62851289343 1.22876497159 0.388836294803 1.77820835496 0.401443801945 2.56149807423 -0.0596838777979 1.37277813017
4.7025379396 -1.51720188759 -0.383951809221 -3.62786526932 1.22746972338 0.382775097262 1.77552376672 0.394796510279 2.56360618248 -0.060084175 1.37358817354
4.74104463205 -1.51675958426 -0.38653124542 -3.62730700533 1.22635319541 0.376902082441 1.7730368662 0.388623026904 2.56546790087 -0.0604434738334 1.37426108685
4.77599927787 -1.51632184161 -0.389149034477 -3.62675909121 1.22525736716 0.371030551921 1.77061655004 0.382521113943 2.56730316566 -0.0607822305615 1.37491243508
4.81465674579 -1.51588870818 -0.391804245235 -3.62622150416 1.22418219305 0.365163092197 1.76826194857 0.376490922794 2.56911171959 -0.06110115167 1.37554258269
4.85779664352 -1.51546022653 -0.394495954808 -3.62569420864 1.22312760202 0.359302206604 1.76597214182 0.370532521005 2.5708933614 -0.0614009278579 1.37615190524
4.90827514572 -1.51503643348 -0.397223249343 -3.62517715745 1.22209349964 0.353450313709 1.76374616488 0.36464589762 2.57264794241 -0.0616822331868 1.37674078733
4.95800864465 -1.51461736038 -0.399985225283 -3.62467029256 1.22107976986 0.347609744956 1.76158301247 0.358830967233 2.57437536331 -0.0619457244237 1.37730962079
5.00543389917 -1.51415052306 -0.402669477711 -3.62414744672 1.22003407817 0.340981802135 1.7592188757 0.352432612147 2.57619666216 -0.0622312905112 1.3778739478
5.04662810856 -1.51368844334 -0.405397604109 -3.62363562382 1.21901043237 0.334361675689 1.75692614713 0.346109217826 2.5779886255 -0.0624985361883 1.37841629544
5.08983109301 -1.51323118182 -0.408168523374 -3.62313479631 1.21800877736 0.327752310715 1.75470378084 0.3398610084 2.57975104854 -0.0627481487384 1.37893704044
5.12833454715 -1.51277879204 -0.410981164166 -3.62264492236 1.21702902946 0.321156546977 1.75255067429 0.333688109913 2.58148378803 -0.0629807978014 1.37943657218
5.17004416061 -1.51233132073 -0.413834465895 -3.62216594711 1.21607107896 0.314577117371 1.75046567486 0.327590556702 2.58318675802 -0.0631971345855 1.37991529019
5.20746544143 -1.5118888081 -0.416727380314 -3.62169780375 1.21513479224 0.308016645363 1.74844758559 0.321568296274 2.58485992607 -0.0633977912166 1.380373602
5.2483942564 -1.51140313362 -0.419588638784 -3.62121849084 1.21417616641 0.30072601504 1.7462867745 0.315033601512 2.58660784003 -0.0636160136868 1.38082067148
5.28559993543 -1.51092253719 -0.422497958201 -3.62075089305 1.21324097084 0.29345368063 1.74420090265 0.308578139498 2.58832353865 -0.0638184710539 1.38124555487
5.31964414717 -1.5104470817 -0.425454105073 -3.62029495712 1.21232909897 0.286202813523 1.74218864592 0.302202063677 2.590006951 -0.0640058196391 1.38164866932
5.35404755623 -1.50997682204 -0.428455860341 -3.61985061553 1.21144041579 0.278976449533 1.74024862627 0.29590542063 2.59165806801 -0.0641786947224 1.38203044235
5.39069078943 -1.50951180537 -0.431502020325 -3.61941778804 1.21057476081 0.271777488673 1.73837941945 0.289688157755 2.59327693723 -0.0643377101198 1.38239130923
5.42545589442 -1.50905207149 -0.434591398405 -3.61899638289 1.20973195052 0.264608693643 1.73657956168 0.283550129157 2.59486365834 -0.0644834579091 1.38273171051
5.46032542167 -1.50862551495 -0.437243970579 -3.61862965328 1.2089984913 0.257905150603 1.73495985035 0.277915410648 2.59626962889 -0.0646217609831 1.3830081377
5.49814842388 -1.50820297635 -0.439933704089 -3.61827193104 1.20828304681 0.25122515782 1.7333961696 0.2723420107 2.59765031676 -0.0647504638619 1.38326845607
5.54032226027 -1.50778449086 -0.442659739556 -3.61792315952 1.20758550379 0.244570726924 1.73188748231 0.266829907895 2.59900579144 -0.0648699458344 1.38351295627
5.57788100088 -1.50737008892 -0.445421229098 -3.61758327539 1.20690573552 0.237943779462 1.73043272885 0.261379022239 2.60033615256 -0.0649805733015 1.38374193176
5.61192496947 -1.50695979647 -0.448217336467 -3.61725220927 1.20624360328 0.231346148261 1.72903083095 0.255989219421 2.60164152702 -0.0650826999644 1.3839556774
5.6433989818 -1.50655363507 -0.451047237788 -3.61692988643 1.2055989576 0.224779577523 1.72768069506 0.250660313968 2.60292206672 -0.0651766668627 1.38415448851
5.6727841409 -1.50615162207 -0.453910122175 -3.61661622735 1.20497163943 0.218245723383 1.72638121565 0.245392072347 2.60417794623 -0.0652628025843 1.38433865977
5.70231433289 -1.5057225694 -0.45680136676 -3.61629975055 1.20433868584 0.21124117559 1.72503872017 0.23981935467 2.60546776732 -0.0653601552509 1.38450797793
5.73011438607 -1.5052978331 -0.459729981161 -3.61599248647 1.20372415767 0.204272048473 1.72375082935 0.234310332579 2.60673148096 -0.0654499122141 1.3846617777
5.75658748303 -1.50487743564 -0.462695057406 -3.6156943525 1.20312788974 0.197340169692 1.72251631495 0.228864789669 2.60796928438 -0.0655324021611 1.38480036719
5.78179349265 -1.50446139468 -0.465695703435 -3.61540526134 1.20254970741 0.190447264733 1.7213339391 0.223482456574 2.60918139726 -0.0656079406724 1.38492405299
5.80602987539 -1.50404972333 -0.468731042853 -3.61512512162 1.20198942798 0.183594959943 1.72020245783 0.218163015521 2.61036805898 -0.0656768307371 1.38503313901
5.82933101523 -1.50364243036 -0.471800215413 -3.61485383853 1.20144686179 0.176784784059 1.71912062437 0.21290610368 2.61152952638 -0.0657393630823 1.38512792574
5.85173033488 -1.50323952032 -0.47490237739 -3.61459131428 1.2009218133 0.170018170097 1.71808719197 0.207711316396 2.61266607164 -0.0657958166151 1.38520870949
5.87454138965 -1.50281585858 -0.478050634845 -3.61432943682 1.20039805839 0.162883886956 1.71704283975 0.202289719154 2.61382142464 -0.0658611325457 1.38527325052
5.89668674098 -1.50239674799 -0.481234966206 -3.61407673437 1.19989265349 0.155796786475 1.71604927173 0.196932731816 2.61495083845 -0.0659206868097 1.38532322108
5.91818315646 -1.50198219269 -0.484454459297 -3.61383310477 1.19940539427 0.148758344158 1.71510513914 0.191639920299 2.61605461338 -0.0659747503526 1.38535892297
5.93904720372 -1.50157219238 -0.487708221423 -3.61359844346 1.19893607166 0.141769931157 1.71420909868 0.186410808105 2.61713306273 -0.0660235826321 1.38538065246
5.95929523335 -1.50116674248 -0.490995378695 -3.61337264407 1.19848447287 0.13483281874 1.7133598154 0.181244880783 2.61818651047 -0.0660674322818 1.38538869963
5.97894336302 -1.50076583443 -0.49431507616 -3.61315559876 1.19805038226 0.12794818125 1.71255596511 0.176141589078 2.61921528932 -0.066106537705 1.38538334794
5.99800747066 -1.5003694558 -0.497666477894 -3.61294719871 1.19763358215 0.121117099052 1.7117962367 0.171100351985 2.62021973922 -0.0661411275462 1.3853648739
6.01509486587 -1.50000987985 -0.500644423497 -3.61276767549 1.19727453571 0.1149119767 1.71114051336 0.166555221358 2.6211034246 -0.0661777452368 1.38533401322
6.03185971683 -1.49965387327 -0.50364808302 -3.61259497615 1.19692913704 0.108750569586 1.71051931083 0.162058853792 2.6219680798 -0.0662111412459 1.38529288737
6.04830686507 -1.49930142529 -0.506676871201 -3.61242902626 1.19659723726 0.102633569716 1.70993171185 0.157610830696 2.62281394451 -0.066241462206 1.38524167823
6.06493005325 -1.49895252283 -0.509730215271 -3.61226975115 1.19627868704 0.0965616126563 1.70937681007 0.153210716044 2.62364126114 -0.0662688495934 1.38518056319
6.08156368696 -1.4986071507 -0.512807554315 -3.61211707603 1.1959733368 0.0905352804701 1.70885371089 0.148858058457 2.62445027386 -0.0662934401707 1.38510971495
6.09820669583 -1.49826529169 -0.515908339215 -3.61197092616 1.19568103705 0.084555103571 1.70836153234 0.144552392605 2.62524122796 -0.0663153662573 1.38502930149
6.11485806749 -1.49792692666 -0.519032032579 -3.61183122697 1.19540163868 0.0786215625269 1.70789940576 0.140293240579 2.62601436936 -0.066334755935 1.3849394861
6.13151684635 -1.49759203465 -0.522178108623 -3.61169790418 1.1951349931 0.0727350899909 1.70746647644 0.13608011314 2.62676994395 -0.0663517333676 1.38484042731
6.14868294146 -1.49724989036 -0.525366421075 -3.61156847523 1.19487613519 0.0667167812946 1.70705001383 0.13179323599 2.62752388586 -0.0663726336471 1.38472958086
6.1658547553 -1.49691127067 -0.528577723385 -3.61144552248 1.19463022969 0.0607475618347 1.70666264965 0.127552894949 2.62826013832 -0.0663913316619 1.38460940089
6.18303135047 -1.49657615122 -0.531811483993 -3.61132897163 1.194397128 0.054827800992 1.70630352415 0.123358575163 2.62897895079 -0.0664079468957 1.384480039
6.20021184864 -1.49624450598 -0.535067183729 -3.6112187489 1.19417668254 0.0489578219737 1.70597179365 0.119209752334 2.62968057181 -0.0664225954387 1.38434164215
6.21756725733 -1.49591630733 -0.538344315065 -3.61111478104 1.19396874681 0.0431379047105 1.70566663083 0.115105894374 2.63036524843 -0.0664353903408 1.38419435264
6.23509857073 -1.49559152619 -0.541642381967 -3.61101699546 1.19377317566 0.0373682876852 1.70538722519 0.111046462492 2.63103322589 -0.0664464417527 1.38403830825
6.25280682398 -1.4952701321 -0.544960899704 -3.61092532026 1.19358982525 0.0316491698498 1.70513278313 0.10703091218 2.63168474732 -0.0664558571815 1.38387364229
6.27069310105 -1.49495209329 -0.548299394686 -3.61083968427 1.19341855328 0.0259807123724 1.70490252827 0.103058694192 2.63232005357 -0.0664637415929 1.38370048378
6.28903413839 -1.49463219758 -0.551670818353 -3.61075910363 1.19325739199 0.0202756695405 1.70469269779 0.0990721056684 2.63294638979 -0.0664732295971 1.38351728693
6.30755797406 -1.49431564361 -0.555062044044 -3.61068454419 1.19310827311 0.0146223076643 1.70450622614 0.0951285044982 2.63355669199 -0.0664813847773 1.38332565849
6.32626579317 -1.49400239648 -0.558472611635 -3.61061593625 1.19297105724 0.00902070942668 1.70434236491 0.0912273282027 2.63415119652 -0.0664883081842 1.38312571812
6.34515883195 -1.49369242024 -0.561902072322 -3.61055321097 1.19284560668 0.00347092384824 1.70420038355 0.0873680117103 2.63473013694 -0.0664940987571 1.38291758156
6.36423837665 -1.49338567798 -0.565349987845 -3.61049630036 1.19273178545 -0.00202703123474 1.70407956935 0.0835499885438 2.63529374379 -0.0664988535485 1.3827013608
6.38369843467 -1.49308213195 -0.568815930283 -3.61044513725 1.19262945925 -0.00747316751944 1.70397922728 0.0797726915143 2.63584224439 -0.0665026678695 1.38247716412
6.40354612006 -1.49278174359 -0.572299481848 -3.61039965541 1.19253849555 -0.0128675246929 1.70389868001 0.0760355534004 2.63637586283 -0.0665056353596 1.38224509633
6.42381703939 -1.49248447363 -0.575800234679 -3.61035978943 1.1924587636 -0.0182101689071 1.7038372677 0.0723380075666 2.63689481989 -0.0665078480848 1.38200525885
6.44459465572 -1.49219028221 -0.57931779012 -3.61032547481 1.19239013436 -0.0235011906577 1.70379434783 0.0686794888516 2.63739933285 -0.0665093967305 1.38175774985
6.46588881009 -1.49189912883 -0.582851760559 -3.61029664796 1.19233248066 -0.0287407059537 1.70376929516 0.0650594328511 2.63788961595 -0.0665103702687 1.38150266441
6.48770954124 -1.49161097256 -0.586401766161 -3.61027324615 1.19228567704 -0.033928851099 1.70376150133 0.0614772783171 2.63836587967 -0.0665108566077 1.38124009466
6.51029066614 -1.49132577201 -0.589967436699 -3.61025520752 1.19224959977 -0.0390657839371 1.70377037475 0.0579324663509 2.63882833116 -0.0665109422734 1.38097012986
6.53365587555 -1.49104348542 -0.593548410838 -3.61024247109 1.19222412691 -0.0441516819593 1.70379534029 0.0544244411586 2.63927717418 -0.0665107125431 1.3806928566
6.55807131951 -1.49076407075 -0.597144335936 -3.61023497676 1.19220913827 -0.0491867410897 1.70383583913 0.0509526504485 2.63971260907 -0.0665102514925 1.38040835889
6.5835813321 -1.49048748567 -0.600754867846 -3.61023266528 1.19220451531 -0.0541711745163 1.70389132832 0.0475165457896 2.64013483276 -0.066509642047 1.38011671824
6.61049858474 -1.49021368769 -0.604379670713 -3.61023547826 1.19221014126 -0.0591052115863 1.70396128064 0.0441155829626 2.64054403885 -0.0665089659954 1.37981801389
6.63886997148 -1.48994735153 -0.607999711096 -3.61024369731 1.19222657936 -0.0639089964112 1.70404362808 0.0408006700774 2.64093499838 -0.0665054592258 1.37951455346
6.6655816872 -1.48968366468 -0.6116328064 -3.61025681398 1.1922528127 -0.0686638402226 1.7041389864 0.0375191325316 2.64131357055 -0.0665020345487 1.37920434423
6.69083368302 -1.48942258503 -0.615278657995 -3.61027477341 1.19228873156 -0.0733700200153 1.70424689155 0.0342704504987 2.64167993506 -0.0664987682402 1.37888745716
6.71494223793 -1.48916407046 -0.618936974875 -3.61029752157 1.19233422788 -0.078027824383 1.70436689343 0.0310541093874 2.64203426851 -0.0664957354822 1.37856396136
6.7393729576 -1.48890807897 -0.622607473063 -3.61032500521 1.19238919516 -0.082637552219 1.70449855553 0.0278696002464 2.64237674436 -0.0664930104543 1.37823392418
6.76513316504 -1.48865456863 -0.626289875432 -3.61035717188 1.1924535285 -0.0871995119162 1.70464145461 0.0247164199297 2.64270753303 -0.0664906663471 1.37789741128
6.79256453436 -1.48840349767 -0.629983911535 -3.61039396988 1.1925271245 -0.091714020606 1.70479518041 0.0215940712415 2.64302680193 -0.0664887753755 1.37755448677
6.82236020258 -1.48815482451 -0.633689317447 -3.61043534827 1.19260988128 -0.0961814034458 1.7049593353 0.018502063069 2.64333471549 -0.0664874087789 1.37720521323
6.85437770701 -1.4879174236 -0.63736449208 -3.61048139682 1.19270197838 -0.100450750217 1.70512721833 0.015536867406 2.64362205148 -0.0664811386152 1.37685461397
6.88400987606 -1.48768224153 -0.641049565106 -3.6105317155 1.19280261574 -0.104675542828 1.70530408576 0.0125997918498 2.64389881294 -0.0664754928986 1.3764980915
6.91172090426 -1.48744923907 -0.644744313833 -3.61058625766 1.19291170005 -0.108856126531 1.70548960458 0.00969038493822 2.64416514843 -0.0664705355505 1.37613570115
6.93789277524 -1.48721837733 -0.648448521239 -3.61064497735 1.19302913944 -0.112992851084 1.7056834522 0.00680820152802 2.6444212039 -0.0664663295099 1.37576749708
6.96285657443 -1.48698961774 -0.652161975481 -3.61070782934 1.19315484342 -0.117086069907 1.70588531629 0.00395280294849 2.64466712278 -0.0664629368369 1.3753935324
6.98813139178 -1.48676292211 -0.655884469791 -3.61077476904 1.19328872281 -0.121136139692 1.70609489432 0.00112375704324 2.64490304589 -0.0664604186579 1.37501385909
7.01502482185 -1.48653825259 -0.659615802326 -3.6108457525 1.19343068975 -0.125143419929 1.70631189339 -0.00167936183649 2.64512911163 -0.0664588352065 1.37462852815
7.0436388508 -1.48631557173 -0.663355776034 -3.61092073648 1.1935806577 -0.129108272482 1.70653602998 -0.00445697284293 2.64534545603 -0.0664582458538 1.37423758967
7.07850565334 -1.48607786981 -0.667564308235 -3.61101046013 1.19376010501 -0.133345203183 1.7067850691 -0.00744476929735 2.6455679487 -0.0664495318171 1.37379387203
7.11727152607 -1.48584249535 -0.671782048873 -3.61110491361 1.19394901196 -0.137531312842 1.7070416893 -0.0104025634251 2.64577891017 -0.0664421709843 1.37334351138
7.15228898478 -1.48560939837 -0.676008765819 -3.61120403974 1.19414726421 -0.141667132598 1.70730555694 -0.0133309057706 2.645978518 -0.066436238564 1.37288657236
7.18585384445 -1.4853785296 -0.680244233563 -3.61130778237 1.19435474949 -0.145753193628 1.70757635065 -0.0162303365113 2.64616694631 -0.0664318083446 1.37242311842
7.22355080614 -1.48514984055 -0.684488232612 -3.61141608636 1.19457135745 -0.14979002637 1.70785376084 -0.0191013854131 2.64634436583 -0.0664289527727 1.37195321183
7.26653755023 -1.48492328348 -0.688740549335 -3.61152889744 1.19479697962 -0.153778160177 1.70813748917 -0.0219445719126 2.64651094392 -0.0664277428951 1.37147691364
7.31877117846 -1.48469881141 -0.693000975785 -3.61164616229 1.19503150931 -0.157718122936 1.70842724821 -0.0247604052362 2.64666684466 -0.0664282483712 1.37099428376
7.36094242648 -1.48449435812 -0.697163254371 -3.61176600383 1.19527119241 -0.161308725824 1.70869905277 -0.0273543609924 2.64679663994 -0.0664187338058 1.37051865282
7.39796733765 -1.48429170718 -0.701331592453 -3.6118897417 1.19551866814 -0.164856613616 1.70897537686 -0.0299244737644 2.64691703335 -0.0664108939418 1.37003747695
7.43153301769 -1.48409081883 -0.705505839111 -3.61201733077 1.19577384627 -0.168362273887 1.70925600999 -0.032471170499 2.6470281626 -0.0664047843382 1.36955080601
7.46351369293 -1.48389165403 -0.709685847635 -3.61214872671 1.19603663816 -0.171826190558 1.70954074936 -0.0349948694103 2.64713016281 -0.0664004593678 1.36905868899
7.49853750439 -1.48369417448 -0.713871475097 -3.61228388601 1.19630695676 -0.175248843469 1.70982939963 -0.0374959801001 2.64722316658 -0.0663979723867 1.36856117412
7.53766361866 -1.48349834257 -0.718062582288 -3.61242276587 1.19658471647 -0.178630708413 1.71012177247 -0.0399749036153 2.64730730395 -0.0663973755442 1.36805830876
7.58277032301 -1.48330412141 -0.722259033589 -3.6125653242 1.19686983313 -0.18197225695 1.71041768636 -0.0424320326383 2.6473827025 -0.0663987198796 1.36755013946
7.62074386095 -1.48313252029 -0.726324960499 -3.61270819142 1.19715556757 -0.184924065051 1.71068428471 -0.0446396213058 2.64743311158 -0.0663876847602 1.36705419848
7.65479533785 -1.48296225863 -0.730394386139 -3.61285415595 1.19744749663 -0.187841451386 1.71095324211 -0.046828864677 2.6474760739 -0.066378443246 1.36655379212
7.68610590782 -1.48279330695 -0.734467222221 -3.61300318396 1.19774555266 -0.190724826053 1.7112244362 -0.0490000760331 2.647511692 -0.0663710332629 1.36604895735
7.71729205871 -1.48262563632 -0.738543382905 -3.61315524219 1.19804966912 -0.193574594461 1.7114977489 -0.0511535619479 2.64754006642 -0.0663654916666 1.36553973034
7.75108904007 -1.48245921845 -0.742622784408 -3.61331029803 1.19835978079 -0.196391156771 1.71177306656 -0.053289622671 2.64756129608 -0.0663618548857 1.36502614698
7.7888244626 -1.48229402559 -0.746705345106 -3.61346831936 1.19867582345 -0.199174908428 1.71205027942 -0.055408551943 2.64757547795 -0.0663601582572 1.36450824236
7.83239278239 -1.48213003059 -0.750790985363 -3.61362927466 1.19899773406 -0.201926239825 1.71232928171 -0.0575106373448 2.64758270734 -0.0663604364909 1.36398605113
7.87428760642 -1.48196772868 -0.755370216925 -3.61381467633 1.1993685374 -0.20464340201 1.71260856825 -0.0596440289645 2.64756397583 -0.0663435013227 1.36339730598
7.91149507277 -1.48180671432 -0.759951544894 -3.61400328141 1.19974574755 -0.207324684888 1.71288911688 -0.0617589837587 2.64753750855 -0.066328927984 1.36280388725
7.94712382686 -1.48164695535 -0.764534900624 -3.61419505227 1.20012928927 -0.209970592379 1.71317082739 -0.0638558433578 2.64750342013 -0.0663167536236 1.3622058356
7.98662008506 -1.4814884204 -0.769120217609 -3.61438995205 1.20051908884 -0.212581620058 1.71345360364 -0.06593494104 2.64746182289 -0.0663070143648 1.36160319088
8.03162850629 -1.48133107887 -0.773707431238 -3.61458794461 1.20091507396 -0.215158255255 1.71373735338 -0.0679966018809 2.64741282682 -0.0662997452786 1.36099599217
8.08582353716 -1.48117490091 -0.778296478687 -3.61478899455 1.20131717383 -0.217700977031 1.71402198815 -0.0700411430615 2.64735653978 -0.0662949806019 1.36038427784
8.12895374383 -1.48104980802 -0.782666825885 -3.61498528904 1.20170976281 -0.219723905061 1.71425067494 -0.0717444215497 2.64727453163 -0.0662705042934 1.35979811825
8.16701044484 -1.48092557256 -0.787037443442 -3.61518388539 1.20210695553 -0.221720984808 1.71447947689 -0.0734347374243 2.64718688735 -0.0662481097775 1.35920857725
8.20146462938 -1.48080217411 -0.791408308425 -3.61538475932 1.20250870338 -0.223692575402 1.71470835071 -0.0751123091569 2.64709368238 -0.0662278176066 1.35861568047
8.23328413135 -1.48067959274 -0.795779398686 -3.61558788699 1.20291495873 -0.225639029642 1.71493725488 -0.0767773500001 2.64699499067 -0.0662096476409 1.35801945298
8.26416926646 -1.48055780903 -0.800150692693 -3.61579324505 1.20332567484 -0.227560693936 1.71516614957 -0.0784300682167 2.6468908848 -0.0661936192967 1.35741991939
8.29733511243 -1.48043680401 -0.804522169543 -3.61600081058 1.20374080589 -0.229457908535 1.71539499656 -0.0800706671448 2.64678143597 -0.0661797514154 1.35681710385
8.32642412003 -1.48034842353 -0.808648566014 -3.6162009996 1.20414118394 -0.230820013693 1.71555979159 -0.0813541780902 2.64664912747 -0.0661434473666 1.35624527848
8.35798882194 -1.48026056098 -0.812774204996 -3.6164027103 1.20454460534 -0.23216517839 1.71572415832 -0.0826292661176 2.64651298938 -0.0661088155433 1.35567122147
8.39250434793 -1.48017320481 -0.816899088237 -3.61660592883 1.20495104239 -0.233493631169 1.71588808444 -0.0838960563732 2.6463730665 -0.0660758659638 1.35509494684
8.43100519098 -1.4800863437 -0.821023217649 -3.61681064157 1.20536046789 -0.234805596779 1.7160515581 -0.0851546709967 2.64622940269 -0.0660446078937 1.35451646815
8.47530594033 -1.47999996659 -0.825146595162 -3.61701683518 1.20577285509 -0.236101295897 1.71621456797 -0.0864052294183 2.64608204106 -0.0660150503528 1.35393579871
8.52988796454 -1.47991406275 -0.829269222595 -3.61722449654 1.20618817781 -0.237380944743 1.71637710341 -0.0876478487195 2.64593102419 -0.0659872027684 1.35335295181
8.58937867606 -1.4798515136 -0.833897897239 -3.61746217679 1.20666353832 -0.238263749381 1.71648816516 -0.088696378287 2.64572564509 -0.0659239603175 1.3526962658
8.63660206828 -1.47978933247 -0.838525103809 -3.61770111133 1.20714140739 -0.239133197854 1.71659849047 -0.0897381189281 2.64551694567 -0.0658624425491 1.3520377841
8.67893495657 -1.47972750997 -0.843150859614 -3.61794128916 1.20762176306 -0.239989497396 1.71670808034 -0.0907731704709 2.64530496386 -0.0658026554949 1.35137751652
8.72855820883 -1.4796660371 -0.847775181386 -3.61818269954 1.20810458381 -0.240832849961 1.71681693606 -0.0918016308133 2.64508973719 -0.0657446062153 1.35071547297
8.79249816491 -1.47960490501 -0.852398085638 -3.6184253319 1.20858984854 -0.241663453713 1.716925059 -0.0928235952178 2.64487130237 -0.0656883009894 1.35005166298
8.89804907635 -1.47958500485 -0.856686652401 -3.61865464337 1.20904847148 -0.241841292285 1.71694525487 -0.0933957197602 2.64463120676 -0.0655999087559 1.34943428874
8.95830611624 -1.47956526761 -0.860974119741 -3.61888445426 1.20950809326 -0.242012900183 1.71696484095 -0.0939640652602 2.64438950039 -0.0655123833905 1.34881632434
9.0056982662 -1.47954567939 -0.865260642275 -3.61911475368 1.20996869209 -0.242179850725 1.71698408991 -0.0945300321625 2.64414635966 -0.0654263880675 1.34819783726
9.04610925804 -1.47952610516 -0.869546524047 -3.61934557581 1.21043033635 -0.242343155321 1.71700298266 -0.0950933760664 2.64390165347 -0.0653409304466 1.34757860455
9.08857697116 -1.47950667441 -0.873831480243 -3.61957688036 1.21089294545 -0.242501918044 1.71702154198 -0.0956543750316 2.64365553403 -0.0652569984482 1.34695885136
9.13471870366 -1.47952887801 -0.877774069312 -3.61979340093 1.2113259866 -0.24201058505 1.71695028722 -0.0957611028638 2.64339039375 -0.0651389889942 1.34638855448
9.18518269258 -1.47955093697 -0.881717897192 -3.62000989488 1.21175897451 -0.241523719738 1.71687962806 -0.0958695084326 2.64312523388 -0.0650215038906 1.34581844739
9.22690027112 -1.47957287284 -0.88566253531 -3.62022633812 1.21219186099 -0.241039873262 1.7168093824 -0.0959786957085 2.64286000619 -0.0649043998849 1.34524859819
9.2684031421 -1.47959466612 -0.889607868647 -3.62044274273 1.2126246702 -0.240558887059 1.7167394854 -0.0960882107672 2.642594657 -0.0647872939348 1.34467897842
9.31867816969 -1.47961635838 -0.89355410045 -3.62065908621 1.21305735715 -0.240080979187 1.71667005184 -0.0961989103106 2.64232928503 -0.0646709642089 1.34410964583
9.40260755005 -1.47969511868 -0.898062047023 -3.62091034611 1.21355987696 -0.238690450534 1.71647306867 -0.0957751287402 2.6419765951 -0.0644816142572 1.34346110696
9.45928179532 -1.47977344699 -0.902575207473 -3.62116091104 1.21406100682 -0.237313529834 1.71627842116 -0.0953566541276 2.64162559631 -0.0642919932707 1.3428139779
9.50541409583 -1.47985134778 -0.907093504684 -3.62141078155 1.21456074784 -0.235950021705 1.71608607048 -0.094943410074 2.64127627147 -0.0641021148981 1.34216826392
9.5601557821 -1.4799288253 -0.911616863038 -3.62165995834 1.21505910142 -0.23459973472 1.71589597859 -0.0945353206106 2.64092860355 -0.0639119916003 1.34152397012
9.6123511063 -1.48003143036 -0.914905900644 -3.62184390867 1.21542700208 -0.232902485749 1.71565964027 -0.0937667337647 2.64063551067 -0.0637248235253 1.34105900852
9.6538206216 -1.48013364641 -0.918201616853 -3.62202716601 1.21579351676 -0.231218241585 1.71542613404 -0.0930035679863 2.64034439809 -0.0635370375623 1.34059536077
9.68925759646 -1.48023547529 -0.921503939159 -3.62220972694 1.21615863862 -0.229546873748 1.71519542369 -0.0922457834701 2.64005525915 -0.0633486439225 1.34013303704
9.72108344891 -1.48033691888 -0.924812795944 -3.62239158809 1.21652236092 -0.227888254867 1.71496747345 -0.0914933408664 2.63976808714 -0.0631596532464 1.33967204728
9.75701567079 -1.48043797897 -0.928128116494 -3.62257274631 1.21688467737 -0.226242259157 1.71474224806 -0.0907462006121 2.63948287526 -0.0629700754566 1.33921240136
9.7950600901 -1.48057843491 -0.93113202308 -3.62273950651 1.21721819775 -0.224002550129 1.71443876619 -0.0895701883824 2.63918355116 -0.0627459962956 1.33880086127
9.82805985648 -1.48071841862 -0.934146631673 -3.62290543942 1.21755006358 -0.221778977988 1.71413965534 -0.0884011672545 2.63888690703 -0.0625209682909 1.33839085495
9.85774229652 -1.48085793031 -0.937171836445 -3.62307053488 1.2178802545 -0.219571414553 1.71384486378 -0.0872391123522 2.63859294493 -0.0622950053996 1.33798240413
9.88936007482 -1.48099697023 -0.940207532559 -3.62323478298 1.21820875069 -0.217379732077 1.71355434022 -0.0860839983653 2.63830166658 -0.0620681214608 1.3375755303
9.92546718448 -1.48113553863 -0.943253616124 -3.62339817403 1.21853553279 -0.215203803225 1.71326803377 -0.0849357997205 2.63801307338 -0.0618403304273 1.3371702547
9.9644608339 -1.48131174384 -0.946014269013 -3.62354858197 1.21883634869 -0.2124643624 1.7129117787 -0.0833775656442 2.63771110205 -0.0615793972778 1.33680962653
9.99769469791 -1.48148741089 -0.948790199186 -3.62369810566 1.21913539606 -0.209743344759 1.71256159694 -0.0818275952016 2.63741237556 -0.0613172835355 1.33645061001
10.0273489136 -1.48166253739 -0.951581268672 -3.62384672567 1.21943263607 -0.207040644893 1.71221742295 -0.0802858896222 2.63711691009 -0.0610540056691 1.33609324253
10.0602816868 -1.48183712106 -0.954387340289 -3.62399442288 1.21972803051 -0.204356156158 1.7118791912 -0.0787524494381 2.63682472105 -0.0607895807778 1.335737561
10.098860723 -1.48201115967 -0.957208277631 -3.62414117862 1.22002154198 -0.201689771037 1.71154683642 -0.0772272741447 2.6365358233 -0.0605240259271 1.33538360203
10.1354001861 -1.48218572511 -0.959346675741 -3.62425405168 1.2202472881 -0.199027230398 1.71121971348 -0.0756340104692 2.63628432148 -0.0602768655939 1.33512213043
10.1659192837 -1.48235987615 -0.961499140478 -3.62436629987 1.22047178447 -0.196378690248 1.71089807547 -0.0740472573899 2.63603541344 -0.060028776748 1.3348617718
10.1929093027 -1.4825336095 -0.963665574183 -3.62447790522 1.22069499517 -0.193744112019 1.71058187712 -0.0724670362133 2.63578911922 -0.0597797704228 1.33460255894
10.2174994618 -1.48270692191 -0.965845879356 -3.62458885003 1.22091688481 -0.191123455741 1.710271073 -0.0708933674533 2.6355454584 -0.0595298578228 1.33434452451
10.2448338967 -1.4828798102 -0.968039958653 -3.62469911686 1.22113741845 -0.188516680066 1.70996561751 -0.0693262709718 2.63530445005 -0.0592790505044 1.33408770086
10.2761369549 -1.4830522712 -0.970247714893 -3.62480868848 1.22135656171 -0.185923742349 1.70966546488 -0.0677657658955 2.63506611279 -0.059027360222 1.33383212014
10.3103322126 -1.48325202365 -0.972272201089 -3.62491075591 1.22156069656 -0.182924440469 1.70932369269 -0.0659070747278 2.63481705583 -0.0587519655404 1.33360523042
10.3392865908 -1.48345131908 -0.974314308587 -3.62501218088 1.2217635465 -0.179940125513 1.70898869686 -0.0640556394114 2.63457092896 -0.0584755753737 1.33337944541
10.3652024107 -1.48365015192 -0.976373922389 -3.62511293791 1.22196506057 -0.176970786069 1.70866042493 -0.0622115051348 2.6343277647 -0.0581982021637 1.33315481114
10.389337322 -1.48384851672 -0.978450927333 -3.62521300171 1.22216518817 -0.174016408149 1.70833882367 -0.060374716322 2.63408759471 -0.057919859218 1.33293137314
10.4162190271 -1.48404640805 -0.980545208086 -3.62531234742 1.22236387957 -0.171076975524 1.70802383959 -0.0585453162274 2.63385045011 -0.0576405599812 1.33270917681
10.4474899887 -1.48424382053 -0.982656649166 -3.62541095048 1.2225610857 -0.168152469668 1.7077154187 -0.0567233471393 2.63361636137 -0.0573603183598 1.33248826724
10.4830962189 -1.4844658703 -0.984617594994 -3.62550375539 1.22274669551 -0.164862484914 1.7073751303 -0.0546320995834 2.63337221907 -0.0570587461511 1.33229127553
10.5128339374 -1.48468741235 -0.986599655863 -3.62559586829 1.22293092133 -0.161588405549 1.70704287824 -0.0525489034786 2.63313137673 -0.0567561420305 1.33209542533
10.543299929 -1.48490843864 -0.98860269896 -3.62568725561 1.22311369596 -0.15833024732 1.70671860155 -0.0504738301079 2.63289387994 -0.0564525211251 1.33190077703
10.5697028786 -1.48512894119 -0.990626590904 -3.62577788414 1.22329495302 -0.155088022436 1.70640223837 -0.0484069494689 2.63265977342 -0.056147899255 1.33170739069
10.5981569831 -1.48534891208 -0.992671197754 -3.62586772114 1.22347462702 -0.151861739727 1.706093726 -0.0463483302687 2.63242910101 -0.0558422928549 1.33151532601
10.6319183419 -1.48556834344 -0.994736385039 -3.62595673433 1.2236526534 -0.14865140473 1.70579300105 -0.0442980398451 2.63220190574 -0.0555357188466 1.33132464236
10.6660312546 -1.48577500298 -0.996405109891 -3.6260292821 1.22379774894 -0.145624900853 1.7055161548 -0.0423374817859 2.63199934671 -0.0552569607829 1.33117769776
10.6940826877 -1.4859812434 -0.998091743412 -3.62610124934 1.22394168342 -0.142610765602 1.70524606527 -0.0403834930822 2.63179952473 -0.0549774378721 1.33103167901
10.7186314612 -1.48618705798 -0.999796190066 -3.62617260986 1.22408440445 -0.139609023713 1.70498268756 -0.0384361351786 2.63160247658 -0.0546971620925 1.33088663358
10.7445851761 -1.48639244001 -1.00151835378 -3.62624333779 1.22422586032 -0.136619697443 1.70472597615 -0.0364954685877 2.6314082385 -0.0544161458046 1.33074260877
10.7742969995 -1.48659738286 -1.00325813794 -3.62631340757 1.22436599987 -0.133642806627 1.70447588485 -0.0345615529822 2.63121684612 -0.054134401858 1.33059965159
10.8103974564 -1.48680187988 -1.00501544544 -3.62638279392 1.22450477258 -0.13067836873 1.70423236688 -0.032634447138 2.63102833446 -0.0538519435039 1.33045780879
10.8398659616 -1.48700592451 -1.0067901787 -3.62645147187 1.22464212848 -0.127726398849 1.7039953748 -0.0307142089863 2.63084273785 -0.0535687844838 1.33031712683
10.8732849532 -1.4872257285 -1.00849047075 -3.62651770031 1.22477458536 -0.12454198396 1.70374638058 -0.0286217766286 2.63065026918 -0.0532720341632 1.33018894472
10.9011778469 -1.48744505456 -1.01021071995 -3.62658322335 1.22490563144 -0.121370654035 1.70350484793 -0.026536666393 2.63046090786 -0.0529745404173 1.3300618718
10.9273473965 -1.48766389432 -1.01195081773 -3.62664801054 1.22503520582 -0.118212442602 1.70327072386 -0.0244589543907 2.63027469743 -0.0526763188002 1.32993596446
10.9569255404 -1.48788223948 -1.01371065481 -3.62671203175 1.22516324824 -0.115067380125 1.70304395446 -0.0223887156935 2.6300916806 -0.0523773854941 1.32981127869
10.9828805143 -1.48810008177 -1.01549012119 -3.62677525731 1.22528969936 -0.111935494155 1.70282448514 -0.0203260242373 2.62991189943 -0.0520777571107 1.32968787024
11.0062796952 -1.48831741299 -1.01728910621 -3.62683765787 1.22541450049 -0.108816809319 1.70261226042 -0.0182709529294 2.62973539508 -0.0517774508706 1.32956579438
11.0300494734 -1.48853422498 -1.01910749853 -3.62689920446 1.22553759366 -0.105711347362 1.70240722405 -0.0162235736089 2.62956220787 -0.0514764845464 1.32944510594
11.0560131362 -1.48876371516 -1.0208780583 -3.62695908721 1.22565735915 -0.102420153771 1.70219718092 -0.0140380871352 2.62938390223 -0.0511643911222 1.32933366281
11.0794559945 -1.48899265601 -1.02267014923 -3.62701808972 1.22577536417 -0.0991427608614 1.70199509864 -0.0118607605907 2.6292091213 -0.0508516125664 1.32922361314
11.101014682 -1.48922103776 -1.02448364904 -3.62707617847 1.22589154167 -0.0958792033249 1.70180091462 -0.0096916813775 2.62903791289 -0.0505381691944 1.3291150205
11.1212385095 -1.4894488507 -1.02631843462 -3.62713332041 1.22600582557 -0.0926295123715 1.70161456538 -0.00753093557226 2.62887032388 -0.0502240819225 1.329007948
11.1403992618 -1.48967608521 -1.02817438204 -3.62718948297 1.22611815067 -0.0893937158466 1.70143598649 -0.00537860796144 2.62870640015 -0.0499093722706 1.3289024582
11.1587338021 -1.48990273173 -1.03005136659 -3.62724463401 1.22622845275 -0.0861718382742 1.70126511268 -0.00323478202729 2.62854618655 -0.0495940623492 1.32879861311
11.1762772359 -1.49012878074 -1.03194926283 -3.62729874191 1.22633666855 -0.0829639009199 1.70110187789 -0.00109953989615 2.62838972701 -0.0492781747845 1.32869647421
11.1915278782 -1.49033484133 -1.03358762839 -3.6273449395 1.22642906374 -0.0800367188621 1.70095953072 0.000858545125592 2.62825013761 -0.0489943615567 1.32861292551
11.2064218081 -1.49054041958 -1.03524324182 -3.62739030138 1.2265197875 -0.0771205926525 1.70082346761 0.00280971194763 2.62811358027 -0.0487101026865 1.32853072692
11.2209670147 -1.49074550825 -1.03691601231 -3.62743480417 1.22660879308 -0.0742155411425 1.70069363989 0.00475389773577 2.62798008772 -0.0484254153147 1.32844992401
11.2351713141 -1.49095010019 -1.03860584856 -3.62747842484 1.22669603441 -0.0713215809916 1.70056999843 0.00669104058705 2.62784969209 -0.0481403169178 1.32837056199
11.2490423659 -1.49115418828 -1.0403126588 -3.62752114068 1.2267814661 -0.068438726744 1.70045249358 0.00862107951067 2.6277224248 -0.0478548253005 1.32829268565
11.26272312 -1.49135776547 -1.04203635079 -3.62756292928 1.22686504329 -0.0655669908228 1.70034107507 0.0105439543769 2.62759831648 -0.0475689586804 1.32821633926
11.2762158718 -1.49156082475 -1.04377683185 -3.62760376861 1.22694672196 -0.0627063836216 1.7002356923 0.0124596060397 2.6274773972 -0.0472827354948 1.32814156677
11.2895228983 -1.49176335917 -1.04553400888 -3.62764363697 1.22702645868 -0.059856913489 1.70013629416 0.0143679762631 2.62735969628 -0.0469961745195 1.32806841164
11.3027970441 -1.49197123402 -1.04728508937 -3.62768264278 1.2271044703 -0.0569306586789 1.70004019795 0.0163337686218 2.62724117613 -0.0467045710734 1.32799921798
11.3157585934 -1.49217856 -1.04905365178 -3.62772063126 1.22718044726 -0.0540158277834 1.69995034495 0.0182919807966 2.62712601224 -0.0464126439007 1.3279317124
11.3284146025 -1.49238532963 -1.05083959756 -3.62775757959 1.22725434392 -0.0511124297335 1.69986668026 0.0202425501672 2.62701423532 -0.0461204136372 1.32786594083
11.3407719807 -1.49259153548 -1.05264282774 -3.62779346537 1.22732611547 -0.0482204712823 1.69978914864 0.0221854152096 2.62690587544 -0.0458279011583 1.32780194878
11.3530800095 -1.49279717022 -1.05446324295 -3.6278282665 1.22739571774 -0.0453399570362 1.69971769427 0.0241205153904 2.62680096173 -0.045535127704 1.32773978109
11.365217233 -1.49300222657 -1.05630074342 -3.62786196132 1.22746310738 -0.0424708895369 1.69965226101 0.0260477912515 2.62669952264 -0.0452421147419 1.32767948214
11.3774384184 -1.49320669735 -1.05815522904 -3.62789452852 1.22752824178 -0.0396132692664 1.69959279226 0.0279671843718 2.62660158577 -0.044948884026 1.32762109571
11.3897708753 -1.49341057543 -1.06002659936 -3.6279259472 1.22759107914 -0.0367670947107 1.69953923116 0.0298786374178 2.62650717801 -0.0446554575134 1.32756466509
11.4024003961 -1.49361678386 -1.06190528558 -3.62795635671 1.22765189815 -0.0338886489409 1.69949091843 0.031814350368 2.62641426882 -0.0443594651193 1.3275111275
11.4151453574 -1.49382237879 -1.06380114401 -3.62798556987 1.22771032449 -0.0310217954365 1.69944857766 0.0337419015503 2.62632498999 -0.044063310705 1.32745963216
11.4281336575 -1.49402735294 -1.06571407082 -3.62801356595 1.22776631664 -0.0281665296451 1.69941214954 0.035661233261 2.62623936779 -0.0437670175312 1.32741022263
11.4413681766 -1.49423169915 -1.06764396194 -3.6280403245 1.22781983373 -0.0253228449317 1.69938157419 0.0375722888936 2.62615742745 -0.0434706091568 1.32736294162
11.4548518169 -1.49443541032 -1.06959071299 -3.62806582554 1.22787083581 -0.0224907327363 1.69935679164 0.0394750130114 2.62607919352 -0.0431741092735 1.32731783135
11.4685875052 -1.49463847946 -1.07155421938 -3.62809004953 1.2279192838 -0.0196701825877 1.69933774164 0.0413693513162 2.62600468975 -0.0428775417484 1.32727493345
11.4825781946 -1.49484089965 -1.07353437631 -3.62811297728 1.2279651393 -0.0168611821128 1.69932436356 0.0432552506187 2.62593393893 -0.042580930662 1.32723428871
11.4969693465 -1.49504266408 -1.07553107877 -3.62813459002 1.22800836478 -0.0140637171115 1.69931659663 0.0451326588872 2.62586696307 -0.0422843002225 1.32719593739
11.5117706371 -1.49524376602 -1.07754422156 -3.62815486943 1.2280489236 -0.0112777716421 1.69931437993 0.0470015252219 2.62580378343 -0.0419876747553 1.32715991909
11.5269919472 -1.49544419884 -1.07957369941 -3.62817379753 1.22808677979 -0.00850332782801 1.6993176522 0.0488617999155 2.6257444203 -0.0416910787605 1.3271262726
11.5426433757 -1.49564395599 -1.08161940686 -3.6281913568 1.22812189834 -0.00574036624212 1.69932635219 0.0507134343635 2.62568889327 -0.0413945367963 1.32709503619
11.5588961598 -1.49584303104 -1.08368123836 -3.62820753015 1.22815424503 -0.00298886571655 1.69934041846 0.0525563811277 2.6256372211 -0.0410980735321 1.32706624738
11.5757715142 -1.49604141764 -1.08575908828 -3.62822230085 1.22818378644 -0.000248803433196 1.69935978942 0.054390593916 2.6255894217 -0.0408017137255 1.32703994298
11.5934665586 -1.49623910955 -1.08785285094 -3.62823565258 1.2282104899 0.00247984503869 1.69938440337 0.0562160275825 2.6255455121 -0.0405054822082 1.32701615905
11.6122046325 -1.49643610061 -1.08996242063 -3.62824756947 1.22823432368 0.00519710568404 1.69941419861 0.058032638143 2.62550550866 -0.0402094038482 1.32699493106
11.6322435211 -1.49663238478 -1.09208769159 -3.62825803602 1.22825525677 0.00790300602695 1.69944911331 0.0598403827539 2.62546942684 -0.0399135035671 1.32697629366
11.6535149028 -1.49682509987 -1.09423418471 -3.62826675563 1.22827269599 0.0105552500829 1.69948831568 0.0616079309059 2.62543924017 -0.0396202285894 1.32695979587
11.6769419797 -1.49701710651 -1.09639570623 -3.62827401271 1.22828721016 0.0131963741954 1.6995323531 0.0633666741347 2.6254129371 -0.0393271866592 1.32694593387
11.7032297684 -1.49720839931 -1.0985721534 -3.62827979381 1.22829877236 0.0158264115856 1.69958116557 0.065116576026 2.62539052938 -0.0390344018531 1.32693473841
11.7279435932 -1.49739897296 -1.1007634236 -3.62828408587 1.22830735647 0.0184453967909 1.69963469317 0.0668576012788 2.62537202807 -0.0387418982225 1.3269262396
11.7554264243 -1.49758882227 -1.1029694143 -3.62828687623 1.22831293719 0.0210533655819 1.69969287608 0.0685897156779 2.62535744353 -0.0384496997844 1.32692046687
11.786911715 -1.49777794212 -1.1051900231 -3.62828815261 1.22831548996 0.023650354935 1.69975565455 0.0703128860853 2.62534678539 -0.0381578305151 1.32691744898
11.8253010365 -1.49796632752 -1.10742514774 -3.62828790314 1.22831499102 0.0262364029925 1.69982296896 0.0720270804359 2.62534006256 -0.0378663143404 1.32691721399
11.857664093 -1.49815397355 -1.10967468613 -3.62828611625 1.22831141724 0.0288115490369 1.69989475967 0.073732267736 2.62533728314 -0.0375751751155 1.32691978916
11.8860519497 -1.49833529677 -1.11194612229 -3.62828216745 1.22830351964 0.0312933612434 1.69996821467 0.0753674794784 2.62534214346 -0.0372892616527 1.32692451634
11.9118204245 -1.49851589459 -1.11423090379 -3.62827670313 1.22829259099 0.0337647255758 1.70004573637 0.07699393674 2.62535081653 -0.0370037744636 1.32693204321
11.9362362695 -1.49869576304 -1.11652893509 -3.62826971433 1.22827861339 0.0362256858266 1.70012726967 0.0786116167452 2.62536330662 -0.0367187353396 1.32694239223
11.9633609362 -1.49887489819 -1.11884012089 -3.62826119229 1.22826156932 0.0386762866653 1.70021275936 0.0802204977006 2.6253796171 -0.0364341659176 1.32695558494
11.9944057708 -1.49905329625 -1.1211643662 -3.62825112867 1.22824144207 0.0411165735575 1.70030215062 0.0818205587341 2.6253997509 -0.0361500877356 1.32697164238
12.0313527877 -1.49923095349 -1.12350157626 -3.62823951543 1.22821821559 0.0435465927418 1.70039538881 0.0834117798979 2.62542371032 -0.0358665222061 1.32699058496
12.0625294759 -1.49940786628 -1.12585165663 -3.62822634485 1.22819187444 0.045966391199 1.70049241948 0.0849941421662 2.62545149707 -0.0355834905979 1.32701243241
12.0902605634 -1.49958403108 -1.12821451316 -3.62821160953 1.22816240381 0.0483760166222 1.70059318842 0.086567627424 2.62548311225 -0.0353010140352 1.32703720384
12.1191362588 -1.49977517791 -1.13093752732 -3.6281919222 1.22812302914 0.0509806208466 1.70070606608 0.0882540603314 2.6255295888 -0.0349870235335 1.32706811863
12.1457337078 -1.49996538915 -1.1336754207 -3.62817027089 1.22807972651 0.0535728016862 1.70082318052 0.0899294980341 2.62558076895 -0.0346738019406 1.32710274805
12.174690129 -1.50015466108 -1.13642806732 -3.62814664842 1.22803248158 0.0561526336937 1.70094446047 0.0915939265618 2.62563664883 -0.0343613761385 1.32714111257
12.207492344 -1.50034299009 -1.13919534187 -3.62812104802 1.22798128078 0.0587201921676 1.70106983504 0.0932473332435 2.62569722367 -0.0340497726726 1.32718323158
12.2464217613 -1.50053037271 -1.14197711964 -3.62809346337 1.22792611148 0.0612755530725 1.70119923386 0.0948897066284 2.62576248801 -0.0337390178101 1.32722912367
12.2800458933 -1.5007168056 -1.14477327659 -3.62806388862 1.22786696198 0.0638187930022 1.70133258715 0.0965210364585 2.62583243572 -0.0334291375503 1.32727880654
12.3099056254 -1.50090228555 -1.14758368934 -3.62803231832 1.22780382137 0.0663499891247 1.70146982554 0.0981413136888 2.62590705984 -0.0331201575505 1.32733229698
12.3400847669 -1.50107491146 -1.15041072633 -3.62799738647 1.22773395769 0.0686935777317 1.70160021055 0.0996213306505 2.62599331215 -0.0328227491693 1.32738878837
12.3676664947 -1.50124664991 -1.15324993968 -3.62796059337 1.22766037148 0.0710262224791 1.70173378271 0.101091154989 2.6260838252 -0.0325262498232 1.32744888259
12.3932460502 -1.50141749918 -1.15610122412 -3.62792193695 1.22758305863 0.073347999489 1.70187048436 0.102550789575 2.62617858781 -0.0322306794953 1.32751258872
12.4172046955 -1.50158745768 -1.15896447511 -3.62788141551 1.22750201575 0.0756589850948 1.70201025848 0.104000238106 2.62627758837 -0.0319360579455 1.32757991532
12.4396439406 -1.50175652391 -1.16183958882 -3.62783902762 1.22741723997 0.0779592557339 1.70215304847 0.105439505163 2.62638081472 -0.0316424045352 1.32765087013
12.4635610776 -1.50192469644 -1.16472646208 -3.62779477218 1.2273287291 0.0802488879632 1.70229879829 0.106868596117 2.62648825424 -0.0313497383745 1.32772546029
12.489095399 -1.50209197397 -1.16762499245 -3.62774864841 1.22723648155 0.0825279584115 1.70244745246 0.108287517153 2.62659989388 -0.0310580782441 1.32780369228
12.5131687894 -1.5022441353 -1.17053072599 -3.62769910329 1.22713739131 0.0845863768622 1.70258373978 0.109542287484 2.62672338542 -0.0307803190252 1.32788473919
12.5370815325 -1.50239549063 -1.17344593237 -3.62764787525 1.22703493524 0.0866355039907 1.70272225274 0.11078798545 2.62685056158 -0.0305035255437 1.32796912186
12.5625471553 -1.50254603994 -1.17637052905 -3.62759496602 1.22692911677 0.0886754109195 1.70286294838 0.112024626079 2.62698140718 -0.0302277108838 1.32805684085
12.5902105441 -1.50269578322 -1.17930443413 -3.62754037744 1.22681993963 0.0907061685416 1.70300578408 0.11325222497 2.62711590671 -0.0299528877261 1.32814789616
12.6205607374 -1.50284472052 -1.18224756639 -3.62748411158 1.2267074079 0.0927278475269 1.7031507177 0.1144707982 2.62725404436 -0.0296790684743 1.32824228734
12.6547365697 -1.50299285201 -1.18519984522 -3.62742617081 1.22659152635 0.0947405184253 1.7032977078 0.115680362124 2.62739580435 -0.0294062655922 1.32834001375
12.6852745813 -1.50314017786 -1.1881611907 -3.62736655753 1.22647229979 0.0967442514122 1.70344671313 0.116880933758 2.62754117034 -0.0291344908991 1.32844107401
12.7220134751 -1.50329214603 -1.19161259779 -3.62729315606 1.22632549685 0.098790672253 1.70359972229 0.118066169719 2.62772435572 -0.0288359605918 1.32856186415
12.7546450349 -1.50344316645 -1.19507341389 -3.62721778772 1.22617476017 0.100826817441 1.70375463991 0.119240924518 2.62791164603 -0.0285387048361 1.32868665562
12.7845616657 -1.50359324088 -1.19854354375 -3.62714045881 1.22602010236 0.102852783934 1.70391141989 0.120405232863 2.6281030157 -0.0282427347367 1.32881544052
12.8164031461 -1.50374237105 -1.20202289318 -3.62706117556 1.22586153585 0.104868667715 1.70407001632 0.121559130261 2.62829843854 -0.0279480602523 1.32894821003
12.8521692146 -1.50389055878 -1.20551136894 -3.62697994456 1.22569907386 0.106874564263 1.70423038434 0.122702652235 2.62849788852 -0.0276546915525 1.32908495519
12.8841768916 -1.50403780594 -1.20900887876 -3.62689677255 1.22553272985 0.108870568287 1.70439247961 0.123835834703 2.62870133936 -0.0273626383129 1.32922566649
12.9189434191 -1.50416330115 -1.21249031533 -3.62680978613 1.22535875701 0.110547343762 1.70452813629 0.124734447528 2.62891795487 -0.0270909992067 1.32936906959
12.9502329867 -1.50428802554 -1.21597807951 -3.6267212111 1.22518160694 0.112216193827 1.70466482534 0.125624656758 2.6291377073 -0.0268204823317 1.329515809
12.9791802781 -1.50441198171 -1.21947210822 -3.62663105476 1.22500129426 0.113877194491 1.70480251892 0.12650650008 2.62936057319 -0.0265510907328 1.32966587255
13.006771522 -1.50453517233 -1.22297233909 -3.6265393246 1.22481783394 0.115530421238 1.70494118984 0.127380014891 2.62958652928 -0.026282827751 1.32981924805
13.0365144468 -1.50465760003 -1.22647871045 -3.6264460281 1.22463124094 0.117175948657 1.70508081119 0.128245238785 2.62981555218 -0.0260156961411 1.32997592298
13.0641680718 -1.50477926743 -1.22999116134 -3.62635117275 1.22444153024 0.118813850544 1.70522135642 0.129102209416 2.63004761844 -0.0257496983118 1.33013588456
13.0898962336 -1.50487786265 -1.23347487596 -3.62625300005 1.22424518484 0.120111025503 1.70533032026 0.129711009111 2.63029154803 -0.0255053171703 1.33029761488
13.1157937759 -1.50497588028 -1.23696235974 -3.62615364362 1.22404647197 0.12140252663 1.70543969871 0.130313577501 2.630537643 -0.0252618153284 1.3304619433
13.14331396 -1.50507332316 -1.24045357594 -3.62605311036 1.22384540546 0.122688408099 1.70554947834 0.130909947386 2.63078588517 -0.025019192355 1.33062885797
13.1731459267 -1.50517019391 -1.24394848839 -3.62595140691 1.22364199855 0.123968722826 1.70565964544 0.13150015232 2.63103625612 -0.024777446122 1.33079834665
13.2060129897 -1.50526649526 -1.24744706128 -3.62584854001 1.22343626477 0.125243523416 1.70577018675 0.132084225277 2.63128873762 -0.0245365751013 1.33097039718
13.2433822713 -1.50536222983 -1.25094925927 -3.62574451637 1.22322821748 0.126512861734 1.70588108916 0.132662199256 2.63154331148 -0.0242965773217 1.33114499732
13.282130464 -1.5054483014 -1.255104561 -3.62561638502 1.22297195478 0.127607649444 1.70597143379 0.133046503329 2.63186132106 -0.0240353990242 1.33135546954
13.3174391111 -1.50553382787 -1.25926249253 -3.62548713639 1.22271345752 0.128697282944 1.70606185822 0.133424941978 2.63218111069 -0.0237750453299 1.33156858477
13.3570604849 -1.50561881288 -1.26342302425 -3.6253567789 1.22245274254 0.129781817801 1.70615235419 0.133797557591 2.63250265931 -0.023515509595 1.33178432701
13.403088095 -1.50570326021 -1.26758612693 -3.62522532107 1.22218982689 0.130861309321 1.70624291391 0.13416439128 2.63282594612 -0.0232567865282 1.33200268047
13.4612883874 -1.50578717357 -1.2717517718 -3.62509277137 1.22192472748 0.131935811917 1.70633352967 0.134525483941 2.63315095047 -0.0229988705064 1.33222362937
13.5552258252 -1.50584178473 -1.27585963668 -3.62495744539 1.22165407551 0.132570729005 1.70637841989 0.134572289737 2.63348683386 -0.0227678583741 1.33244475554
13.6124746264 -1.50589597923 -1.27996875846 -3.62482153917 1.22138226307 0.133201768905 1.70642306137 0.134615010921 2.63382336098 -0.0225371772458 1.33266747867
13.6579144103 -1.50594994396 -1.2840786935 -3.6246851072 1.22110939914 0.133830469912 1.70646763478 0.134654536321 2.63416043331 -0.0223071945408 1.33289176379
13.6982987957 -1.50600361369 -1.28818940778 -3.6245481031 1.22083539093 0.134456700386 1.70651210494 0.134691463211 2.63449804331 -0.0220771543251 1.33311760431
13.7461580308 -1.50605705689 -1.29230092143 -3.62441058124 1.22056034722 0.135080631966 1.70655650363 0.134725232021 2.63483617737 -0.0218478008111 1.33334498952
13.7869383428 -1.50608093114 -1.29634862652 -3.62427099875 1.22028118224 0.135257939388 1.7065534479 0.134442549745 2.63518344884 -0.0216449782257 1.33357139977
13.8261963163 -1.50610479749 -1.30039627484 -3.62413138059 1.22000194592 0.135435227639 1.70655045751 0.134159625553 2.63553018757 -0.0214419604864 1.33379837113
13.8718467605 -1.50612866048 -1.30444390628 -3.62399172502 1.21972263478 0.13561247234 1.70654753044 0.133876444206 2.6358763967 -0.0212387518992 1.33402590664
13.9299762079 -1.50615252019 -1.30849152088 -3.6238520324 1.21944324954 0.13578967344 1.70654466656 0.133593005135 2.63622207478 -0.0210353518131 1.33425400647
14.0300744662 -1.50617636704 -1.31253926293 -3.62371229675 1.21916377824 0.135966529095 1.70654181856 0.133308946255 2.63656722383 -0.0208319092004 1.33448266085
14.098196159 -1.50616957616 -1.31751587555 -3.62353588356 1.21881095186 0.135630099749 1.70647910931 0.132562073848 2.63700802166 -0.0206099859866 1.33476600013
14.1509185042 -1.50616330852 -1.32249273667 -3.62336014059 1.21845946591 0.135298587304 1.70641737532 0.131820085056 2.63744651807 -0.0203866052006 1.33504882614
14.195669862 -1.50615740413 -1.32746976934 -3.62318505863 1.218109302 0.134970257194 1.70635638283 0.131081327501 2.63788273371 -0.0201621488923 1.33533111741
14.2352528863 -1.50615185813 -1.33244698059 -3.62301063074 1.21776044622 0.134645063218 1.70629611956 0.130345753409 2.63831667782 -0.0199366236712 1.33561288836
14.2661291814 -1.50611880973 -1.33636395368 -3.6228703265 1.21747983773 0.133945334305 1.70620232158 0.129450567517 2.63866954276 -0.0197810683297 1.33583541761
14.2999127789 -1.5060863946 -1.34028262588 -3.62273086253 1.21720090979 0.133251516424 1.70610995123 0.128561471978 2.63902022434 -0.0196237611839 1.33605689932
14.3376146878 -1.50605442924 -1.34420240213 -3.62259223099 1.21692364672 0.132561610599 1.70601868179 0.127676426027 2.63936863612 -0.0194653502811 1.33627721306
14.3813979015 -1.5060229017 -1.34812329486 -3.62245442492 1.21664803459 0.131875531661 1.70592849946 0.126795406982 2.63971479653 -0.0193057846277 1.33649638079
14.4357449316 -1.50599180835 -1.35204529193 -3.62231743923 1.21637406319 0.131193256715 1.70583939055 0.125918377303 2.64005871214 -0.019145077889 1.33671441486
14.5170258944 -1.5059333485 -1.35590900336 -3.62218002052 1.21609922578 0.130086482607 1.70570819934 0.124747522045 2.64040767001 -0.0190072277226 1.33692927421
14.5705411437 -1.5058755176 -1.35977564641 -3.62204379783 1.2158267804 0.128985185795 1.705578922 0.123582444779 2.64075367769 -0.018867759579 1.33714223196
14.613750982 -1.50581831019 -1.36364519205 -3.62190876534 1.21555671541 0.127889340903 1.7054515332 0.122423095116 2.641096741 -0.0187266932596 1.33735330359
14.6509973967 -1.50576172086 -1.36751761152 -3.62177491721 1.21528901916 0.126798922841 1.70532600793 0.121269423014 2.64143686578 -0.0185840485835 1.33756250441
14.6844067711 -1.50570574428 -1.37139287641 -3.62164224765 1.21502368004 0.125713906569 1.70520232153 0.120121378869 2.64177405792 -0.0184398451173 1.33776984966
14.7145673259 -1.50562382405 -1.37521905049 -3.62150948903 1.2147581628 0.124223380677 1.70504103831 0.118694214692 2.64211532981 -0.018316601321 1.33797367117
14.7427378968 -1.50554269017 -1.37905056689 -3.62137824774 1.21449568021 0.122739762188 1.70488257698 0.117274202288 2.64245305216 -0.0181913498393 1.33817493491
14.771514383 -1.50546233605 -1.38288737454 -3.62124851872 1.21423622218 0.121263032449 1.70472689932 0.115861283237 2.64278722603 -0.0180641184469 1.33837365584
14.8027177571 -1.50538275504 -1.38672942306 -3.62112029697 1.21397977867 0.119793171938 1.70457396782 0.114455399713 2.64311785297 -0.0179349338868 1.33856984923
14.8370324843 -1.50530394058 -1.39057666251 -3.62099357738 1.2137263395 0.11833016133 1.70442374531 0.113056494073 2.64344493461 -0.0178038230731 1.33876353016
14.868701087 -1.50521812048 -1.393751353 -3.62088814909 1.21351548291 0.116793780238 1.70427176399 0.111673433726 2.6437201327 -0.0177102156294 1.33892176635
14.8975183587 -1.50513294009 -1.39693173327 -3.62078397828 1.21330714129 0.115263109241 1.70412241013 0.110296117281 2.64399248837 -0.0176149805691 1.33907781023
14.9241778684 -1.50504839504 -1.40011775923 -3.62068106332 1.21310131139 0.113738144016 1.70397565391 0.108924508854 2.64426199809 -0.0175181378358 1.33923166894
14.9490873936 -1.50496448101 -1.40330938702 -3.6205794025 1.21289798974 0.112218880254 1.70383146573 0.107558572494 2.64452865838 -0.0174197075623 1.33938334948
14.9725941613 -1.50488119363 -1.40650657324 -3.62047899408 1.2126971729 0.110705313023 1.70368981638 0.106198272455 2.64479246617 -0.0173197093428 1.33953285915
14.9968549859 -1.50479852858 -1.40970927475 -3.62037983625 1.21249885724 0.109197437366 1.70355067686 0.104843572964 2.6450534185 -0.0172181628962 1.33968020519
15.0224427382 -1.50469741881 -1.41289130642 -3.62028084177 1.21230086828 0.107397286767 1.70338942982 0.103289146399 2.64531690182 -0.0171303982118 1.33982472747
15.0466062307 -1.50459702709 -1.41608115903 -3.6201832975 1.21210577974 0.105603707041 1.7032314665 0.101741084651 2.64557718053 -0.0170408186894 1.33996666651
15.0696529034 -1.50449734871 -1.41927877273 -3.62008720356 1.21191359186 0.103816703134 1.70307674921 0.100199351223 2.64583424562 -0.0169494487847 1.34010602646
15.0916338363 -1.50439837891 -1.42248408817 -3.61999256001 1.21172430477 0.102036279306 1.70292524068 0.0986639095953 2.64608808856 -0.0168563126041 1.34024281172
15.1128074485 -1.5043001129 -1.42569704642 -3.61989936685 1.21153791844 0.100262439236 1.70277690402 0.0971347232124 2.64633870127 -0.0167614339917 1.34037702696
15.1332029039 -1.50420254592 -1.42891758893 -3.61980762392 1.21135443257 0.0984951863192 1.7026317026 0.0956117553713 2.64658607587 -0.0166648368615 1.3405086769
15.1539491803 -1.50408852659 -1.43212897878 -3.61971626746 1.21117171966 0.0964651811916 1.70246959744 0.0939097072728 2.64683526335 -0.0165798715687 1.34063741374
15.1741477502 -1.50397529025 -1.43535032678 -3.61962654905 1.21099228283 0.0944425841092 1.70231138205 0.0922145208109 2.64708088335 -0.0164929542509 1.34076319141
15.1938124271 -1.50386283181 -1.43858155722 -3.61953847097 1.21081612668 0.0924274096941 1.7021570114 0.0905261599387 2.6473229215 -0.0164041131988 1.34088601089
15.2129566969 -1.50375114614 -1.44182259477 -3.61945203526 1.21064325526 0.0904196722325 1.7020064406 0.0888445881767 2.64756136365 -0.0163133770111 1.34100587317
15.2315937347 -1.50364022806 -1.44507336472 -3.61936724395 1.21047367264 0.0884193848468 1.70185962539 0.0871697689919 2.64779619652 -0.0162207736379 1.34112277987
15.2497364003 -1.50353007237 -1.44833379262 -3.61928409876 1.21030738226 0.0864265604836 1.7017165216 0.0855016654077 2.64802740696 -0.0161263314732 1.34123673254
15.2657636233 -1.50342338556 -1.45112934495 -3.61921338421 1.21016595316 0.0845211507127 1.70158368321 0.0839376114012 2.64822633151 -0.0160535807943 1.34133169381
15.2815244486 -1.50331731241 -1.45393368764 -3.61914400913 1.21002720299 0.0826217886845 1.70145408622 0.0823788885408 2.64842236482 -0.0159793337354 1.34142421496
15.2970228372 -1.50321184948 -1.45674676316 -3.61907597626 1.20989113726 0.0807284899506 1.70132769778 0.0808254743214 2.64861549448 -0.015903610872 1.34151429442
15.312262701 -1.50310699327 -1.45956851423 -3.61900928818 1.2097577611 0.0788412697451 1.70120448511 0.0792773459126 2.64880570829 -0.0158264329428 1.3416019307
15.3270995414 -1.50300274024 -1.46239888391 -3.61894394746 1.20962707966 0.0769601425067 1.7010844159 0.0777344803827 2.6489929947 -0.015747820296 1.34168712275
15.3418339195 -1.50289908684 -1.46523781546 -3.61887995644 1.20949909763 0.075085122509 1.70096745778 0.0761968544476 2.64917734223 -0.0156677935848 1.34176986951
15.3564661195 -1.50279602948 -1.46808525243 -3.61881731746 1.20937381966 0.073216223305 1.70085357882 0.0746644447125 2.64935874001 -0.0155863731392 1.34185017032
15.3715858627 -1.50268268084 -1.47094103248 -3.61875528797 1.20924976069 0.0711807547389 1.70073317029 0.0730186190061 2.64954057724 -0.0155113964391 1.34192801123
15.3864598481 -1.50256997344 -1.47380686271 -3.61869473183 1.2091286484 0.0691519270858 1.70061629205 0.0713783394811 2.64971924617 -0.0154349096475 1.3420031563
15.4012378695 -1.50245790351 -1.47668267657 -3.61863565274 1.20901049023 0.0671297614346 1.70050290717 0.069743583234 2.64989473169 -0.0153569362862 1.34207560204
15.4159200325 -1.5023464672 -1.47956840786 -3.61857805439 1.20889529351 0.0651142780513 1.70039297915 0.0681143271202 2.65006701941 -0.0152774996111 1.34214534547
15.4305064541 -1.50223566064 -1.48246399067 -3.61852194029 1.20878306532 0.0631054966098 1.70028647172 0.0664905476904 2.65023609535 -0.015196622844 1.34221238389
15.4449972629 -1.50212547992 -1.48536935934 -3.61846731379 1.20867381232 0.0611034363487 1.70018334871 0.0648722211376 2.65040194587 -0.0151143293376 1.3422767147
15.4593926018 -1.50201592109 -1.4882844485 -3.61841417812 1.20856754098 0.059108115845 1.70008357429 0.0632593234041 2.65056455784 -0.0150306423142 1.34233833567
15.4740042414 -1.50189820168 -1.49121404338 -3.61836194119 1.20846306712 0.0569795185988 1.69998078485 0.0615556434307 2.65072667998 -0.0149515967757 1.34239725848
15.4885256151 -1.5017811395 -1.49415465505 -3.61831130461 1.20836179395 0.0548581287143 1.69988170379 0.0598576511705 2.65088536078 -0.0148710778921 1.34245324964
15.5029567152 -1.50166473038 -1.49710620937 -3.61826227277 1.20826373027 0.0527439709076 1.69978629113 0.0581653227278 2.65104058394 -0.0147891116561 1.34250630476
15.5172975472 -1.50154897008 -1.50006863254 -3.61821484994 1.20816888462 0.0506370691335 1.69969450725 0.0564786338535 2.65119233379 -0.0147057239678 1.34255641984
15.531548134 -1.5014338543 -1.50304185105 -3.61816904021 1.20807726516 0.0485374467101 1.6996063127 0.054797559928 2.65134059511 -0.014620940746 1.34260359116
15.5457085072 -1.5013193787 -1.50602579172 -3.61812484755 1.20798887983 0.0464451262072 1.69952166844 0.0531220760234 2.65148535332 -0.0145347877924 1.34264781542
15.5597787158 -1.50120553895 -1.50902038161 -3.61808227559 1.20790373592 0.0443601298187 1.69944053529 0.051452156762 2.65162659397 -0.0144472911962 1.34268908924
15.5721619925 -1.50110067287 -1.51165593864 -3.61804606566 1.20783131605 0.0424491850297 1.69936932755 0.0499319111652 2.65174882313 -0.0143734124138 1.34272255799
15.5844641026 -1.50099631271 -1.51430040384 -3.61801116718 1.2077615191 0.0405441503384 1.69930100477 0.0484160691622 2.65186822562 -0.0142984712422 1.34275362837
15.596930839 -1.50089245537 -1.51695372372 -3.61797758318 1.20769435109 0.0386450434811 1.6992355387 0.0469046136207 2.65198479048 -0.0142224866097 1.34278229725
15.6095640106 -1.50078909772 -1.519615845 -3.61794531663 1.207629818 0.0367518816311 1.69917290145 0.0453975272265 2.65209850729 -0.0141454772998 1.34280856188
15.6223654434 -1.5006862366 -1.52228671462 -3.61791437042 1.20756792558 0.0348646815613 1.69911306523 0.0438947924358 2.65220936592 -0.0140674621166 1.34283241967
15.6353369849 -1.50058386883 -1.52496627967 -3.61788474722 1.20750867917 0.032983459721 1.69905600227 0.0423963914521 2.65231735639 -0.0139884599616 1.34285386804
15.6484804986 -1.5004819912 -1.52765448748 -3.61785644974 1.20745208422 0.0311082319681 1.69900168522 0.0409023063466 2.65242246932 -0.0139084895319 1.34287290489
15.6617978683 -1.50038060048 -1.53035128555 -3.61782948046 1.20739814566 0.0292390138996 1.69895008666 0.0394125189291 2.6525246954 -0.0138275696808 1.34288952805
15.6753249996 -1.50027586086 -1.53306343945 -3.61780362901 1.20734644277 0.0273140588002 1.69889970385 0.0378844950209 2.65262515464 -0.0137480768926 1.34290367901
15.6890331032 -1.50017161891 -1.53578466524 -3.61777915824 1.20729750122 0.0253953403598 1.69885215342 0.0363608551592 2.65272262405 -0.0136676270981 1.34291531414
15.7029241597 -1.50006787123 -1.53851490732 -3.61775607092 1.20725132657 0.0234828756922 1.69880740675 0.0348415807941 2.65281709388 -0.0135862401736 1.34292443095
15.7170001756 -1.49996461439 -1.54125411035 -3.61773436981 1.20720792436 0.0215766813713 1.69876543559 0.0333266531959 2.65290855492 -0.0135039358855 1.34293102731
15.7312631736 -1.49986184498 -1.54400221916 -3.61771405741 1.20716729955 0.0196767736773 1.69872621153 0.0318160533743 2.65299699796 -0.0134207341463 1.34293510099
15.7457151977 -1.49975955953 -1.54675917881 -3.6176951361 1.20712945694 0.0177831684289 1.69868970636 0.0303097621565 2.65308241414 -0.0133366548193 1.34293664994
15.7603583124 -1.49965775456 -1.54952493459 -3.61767760829 1.20709440131 0.0158958809178 1.6986558923 0.0288077602236 2.65316479519 -0.0132517176414 1.34293567254
15.775342966 -1.49955642657 -1.55229943198 -3.61766147617 1.20706213708 0.0140149260709 1.69862474154 0.0273100280527 2.65324413296 -0.013165942397 1.34293216718
15.790702137 -1.4994536753 -1.55508723854 -3.61764666061 1.20703250595 0.0121096099232 1.69859582227 0.0257953605164 2.65332093366 -0.0130804487725 1.34292606702
15.806420194 -1.49935140257 -1.55788397122 -3.61763327067 1.20700572607 0.0102107613383 1.6985695933 0.0242849858078 2.65339462891 -0.0129941357531 1.34291738379
15.8225050384 -1.49924960478 -1.56068957428 -3.61762130843 1.2069818016 0.00831839536998 1.69854602632 0.022778883906 2.65346521073 -0.0129070236847 1.34290611583
15.8389647399 -1.49914827828 -1.56350399219 -3.61761077603 1.20696073679 0.0064325265356 1.69852509354 0.0212770346509 2.65353267177 -0.0128191327839 1.34289226197
15.8558075408 -1.49904741944 -1.56632716969 -3.61760167536 1.20694253546 0.00455316896999 1.69850676713 0.0197794177043 2.65359700478 -0.0127304832898 1.34287582099
15.8730418562 -1.49894702458 -1.56915905173 -3.6175940083 1.20692720133 0.00268033635042 1.69849101957 0.0182860125873 2.65365820298 -0.0126410953748 1.34285679198
15.890852624 -1.49884709003 -1.57199958349 -3.61758777651 1.20691473776 0.000814041949252 1.69847782337 0.0167967986698 2.65371625971 -0.012550989195 1.34283517401
15.9092586024 -1.49874761209 -1.5748487104 -3.61758298169 1.20690514812 -0.00104570142289 1.69846715144 0.0153117551986 2.65377116888 -0.0124601848233 1.34281096656
15.9282791474 -1.49864858705 -1.57770637812 -3.6175796253 1.20689843534 -0.00289888133542 1.69845897669 0.0138308612891 2.65382292449 -0.0123687023199 1.34278416904
15.9481307847 -1.4985500112 -1.58057253258 -3.61757770881 1.20689460235 -0.00474548583012 1.69845327236 0.0123540959215 2.65387152101 -0.0122765616677 1.34275478122
15.9688492571 -1.4984518808 -1.58344711991 -3.61757723349 1.20689365172 -0.0065855033173 1.69845001179 0.0108814379786 2.65391695309 -0.0121837828165 1.34272280284
15.990471829 -1.49835419212 -1.58633008651 -3.61757820061 1.20689558595 -0.00841892263705 1.69844916857 0.00941286623051 2.65395921577 -0.0120903856525 1.34268823393
16.0131914806 -1.49825694141 -1.58922137902 -3.61758061122 1.20690040718 -0.010245733033 1.69845071638 0.00794835934788 2.65399830427 -0.0119963900066 1.34265107453
16.0349385443 -1.49816012491 -1.59212094431 -3.61758446644 1.20690811762 -0.0120659241526 1.69845462931 0.00648789590187 2.65403421433 -0.0119018156554 1.34261132504
16.0558962888 -1.49806373886 -1.59502872953 -3.6175897671 1.20691871893 -0.0138794860495 1.69846088131 0.00503145438757 2.65406694164 -0.0118066823 1.34256898568
16.0760928384 -1.49796777949 -1.59794468206 -3.61759651414 1.20693221302 -0.0156864091538 1.69846944696 0.00357901319927 2.65409648259 -0.0117110096097 1.34252405722
16.0955093521 -1.49787407024 -1.60086184046 -3.6176047161 1.20694861694 -0.0174568852507 1.69848007309 0.00215124726687 2.65412247854 -0.0116138775261 1.34247671784
16.1151723984 -1.49778077199 -1.60378678865 -3.61761433736 1.20696785946 -0.0192208232006 1.69849288962 0.000727375840961 2.65414533477 -0.0115162606458 1.34242684758
16.1356879859 -1.49768788102 -1.60671947664 -3.61762537822 1.20698994118 -0.0209782157323 1.69850787215 -0.000692622660004 2.65416504859 -0.0114181777274 1.34237444747
16.1570925687 -1.49759539365 -1.60965985466 -3.61763783903 1.20701486281 -0.0227290558973 1.69852499681 -0.00210876989863 2.65418161789 -0.0113196475173 1.342319519
16.1796474576 -1.49750330618 -1.61260787322 -3.61765172001 1.20704262476 -0.0244733371225 1.69854423973 -0.00352108756291 2.65419504065 -0.0112206886627 1.3422620636
16.2034139146 -1.4974116149 -1.61556348308 -3.61766702124 1.20707322721 -0.0262110532082 1.69856557719 -0.00492959736247 2.65420531502 -0.0111213197084 1.34220208276
16.2287068676 -1.49732031611 -1.61852663522 -3.61768374282 1.20710667038 -0.0279421982538 1.69858898584 -0.00633432106463 2.65421243959 -0.0110215591856 1.34213957823
16.2558929143 -1.49722940612 -1.62149728092 -3.61770188473 1.2071429542 -0.0296667667277 1.6986144424 -0.0077352804448 2.65421641309 -0.0109214255167 1.34207455178
16.2853496047 -1.49714243983 -1.62445955149 -3.6177213733 1.20718193135 -0.0313265859291 1.6986409105 -0.00909191357753 2.65421672807 -0.0108192084223 1.34200749815
16.3125220392 -1.49705583962 -1.62742870973 -3.61774222405 1.20722363284 -0.0329800622124 1.69866924924 -0.0104449480664 2.65421400068 -0.0107166793459 1.34193804119
16.3379246708 -1.49696960198 -1.6304047112 -3.61776443629 1.20726805732 -0.0346271929953 1.69869943724 -0.0117944051074 2.65420823075 -0.0106138550488 1.34186618307
16.3619097713 -1.49688372339 -1.63338751165 -3.61778800954 1.20731520381 -0.036267975794 1.69873145379 -0.0131403060021 2.65419941887 -0.0105107524605 1.34179192656
16.3845559906 -1.49679820037 -1.6363770671 -3.6178129431 1.20736507094 -0.0379024085105 1.69876527813 -0.014482671979 2.65418756555 -0.0104073883051 1.34171527426
16.406151463 -1.49671302943 -1.63937333383 -3.61783923624 1.20741765721 -0.0395304893556 1.69880088959 -0.0158215242324 2.65417267146 -0.0103037791908 1.34163622876
16.4269504692 -1.49662820709 -1.64237626832 -3.61786688823 1.20747296119 -0.0411522167115 1.69883826795 -0.0171568839926 2.65415473769 -0.0101999417787 1.341554793
16.4469819983 -1.49654372986 -1.64538582733 -3.61789589818 1.20753098109 -0.0427675893686 1.69887739286 -0.0184887723886 2.65413376525 -0.0100958924807 1.34147096966
16.468840663 -1.49645351509 -1.64880324346 -3.61793033623 1.20759985719 -0.0445092424431 1.69892151866 -0.0199388733081 2.65410585177 -0.00997399656301 1.3413735525
16.4898932865 -1.49636371381 -1.65222828606 -3.61796643245 1.20767204963 -0.0462430756989 1.69896764376 -0.0213847287372 2.65407419086 -0.00985190405908 1.34127324665
16.5103719186 -1.49627432126 -1.65566089892 -3.61800418482 1.20774755437 -0.0479690917528 1.69901574188 -0.0228263685471 2.65403878597 -0.00972963638585 1.34117005706
16.5302917898 -1.49618533275 -1.65910102621 -3.61804359135 1.20782636743 -0.0496872934791 1.69906578719 -0.0242638225812 2.65399964104 -0.00960721496109 1.34106398892
16.5496677405 -1.49609674357 -1.66254861241 -3.61808465 1.20790848474 -0.051397684047 1.69911775423 -0.0256971206128 2.65395676028 -0.00948466113938 1.34095504759
16.5685142341 -1.49600854907 -1.66600360246 -3.61812735861 1.20799390197 -0.0531002670795 1.69917161762 -0.0271262922506 2.65391014801 -0.00936199600456 1.34084323833
16.5870286752 -1.49592074458 -1.66946594161 -3.61817171497 1.20808261468 -0.0547950465181 1.6992273523 -0.0285513670055 2.65385980885 -0.0092392405319 1.34072856651
16.6049890868 -1.49584092322 -1.67289218337 -3.61821712184 1.20817342842 -0.0563576695986 1.69928055762 -0.0298846233385 2.65380560216 -0.00911306867702 1.34061280449
16.6231617743 -1.49576144916 -1.67632459632 -3.61826402505 1.20826723483 -0.057913131507 1.69933532425 -0.0312141330115 2.65374796433 -0.00898687804102 1.3404944771
16.6417328188 -1.49568231836 -1.67976313523 -3.61831242193 1.2083640286 -0.0594614400074 1.69939163171 -0.0325399230308 2.65368690147 -0.0088606861284 1.34037359028
16.6607106455 -1.49560352673 -1.68320775533 -3.61836230959 1.20846380391 -0.0610026035248 1.69944945933 -0.0338620200367 2.65362241946 -0.00873450978446 1.34025014956
16.6802977848 -1.49552507032 -1.68665841197 -3.61841368544 1.20856655562 -0.0625366299476 1.6995087874 -0.0351804509367 2.65355452508 -0.00860836668869 1.34012416131
16.7005134791 -1.4954469451 -1.69011506102 -3.61846654651 1.20867227775 -0.0640635281605 1.6995695957 -0.0364952420718 2.65348322452 -0.0084822734232 1.3399956311
16.7213775718 -1.49536914714 -1.69357765849 -3.61852089006 1.20878096485 -0.0655833066447 1.69963186479 -0.0378064199685 2.6534085247 -0.00835624722615 1.33986456513
16.7425552688 -1.49530078769 -1.69698893639 -3.61857572552 1.20889063578 -0.0669469199655 1.69968917513 -0.0390081556942 2.65333087023 -0.0082264316125 1.3397335329
16.7646233189 -1.49523271045 -1.70040492847 -3.618631863 1.20900291073 -0.0683041972741 1.69974763602 -0.040206671814 2.65325017349 -0.0080967350882 1.33960031526
16.7876188844 -1.49516491211 -1.7038256007 -3.61868929935 1.20911778344 -0.0696551502812 1.6998072321 -0.041401991358 2.65316644168 -0.00796717059038 1.33946491805
16.811820282 -1.49509738941 -1.70725091926 -3.61874803151 1.20923524776 -0.0709997906354 1.69986794834 -0.0425941373014 2.65307968229 -0.00783775118653 1.33932734719
16.8375451499 -1.49503013907 -1.71068085065 -3.6188080563 1.20935529734 -0.0723381303679 1.69992976971 -0.0437831323175 2.65298990264 -0.00770848950339 1.33918760845
16.8648850445 -1.4949631579 -1.71411536151 -3.61886937066 1.20947792605 -0.0736701812265 1.69999268159 -0.0449689991318 2.65289711048 -0.0075793985668 1.33904570786
16.8906783565 -1.49489644274 -1.71755441869 -3.61893197152 1.20960312778 -0.0749959549852 1.70005666959 -0.0461517603524 2.65280131366 -0.00745049140741 1.33890165148
16.9185963397 -1.49483113118 -1.72148947332 -3.61900483945 1.20974886364 -0.076335905934 1.70012264425 -0.0473855325569 2.65268747202 -0.0072952777749 1.33873508406
16.9450804048 -1.49476611952 -1.72542907236 -3.61907918404 1.20989755281 -0.0776685340389 1.70018968728 -0.0486156575022 2.65257008873 -0.00714035362552 1.33856611019
16.9703079088 -1.49470140383 -1.72937317811 -3.61915500051 1.21004918575 -0.0789938602817 1.70025778225 -0.0498421650661 2.65244917601 -0.00698573374559 1.33839473864
16.9945785188 -1.49463698011 -1.73332175349 -3.61923228386 1.21020375247 -0.0803119065902 1.70032691252 -0.0510650843885 2.6523247456 -0.00683143166419 1.33822097759
17.0179282798 -1.49457284455 -1.73727476142 -3.6193110294 1.21036124355 -0.081622693775 1.70039706226 -0.052284444955 2.65219681002 -0.00667746225856 1.33804483587
17.0413040074 -1.49450899326 -1.74123216539 -3.6193912322 1.21052164913 -0.0829262436644 1.70046821536 -0.0535002754673 2.65206538127 -0.00652383904984 1.3378663217
17.0650537854 -1.49445890698 -1.74509600691 -3.6194706131 1.21068041094 -0.0840028019989 1.70052799207 -0.0545541016786 2.65193280979 -0.00636480042135 1.33769033812
17.089785664 -1.49440910628 -1.7489626258 -3.61955123797 1.21084166069 -0.0850730016607 1.70058860446 -0.0556052351914 2.65179754677 -0.00620667729401 1.3375127572
17.1157992932 -1.49435946392 -1.75283224594 -3.61963294851 1.21100508176 -0.0861377570622 1.70064968552 -0.0566532360808 2.65165917725 -0.00604834795027 1.33733314953
17.1434327498 -1.4943101031 -1.75670459379 -3.61971589233 1.2111709694 -0.0871961856868 1.70071157867 -0.05769859317 2.65151813707 -0.0058909638671 1.3371519574
17.1727886267 -1.49426089368 -1.76057989935 -3.61979991541 1.21133901557 -0.0882492224076 1.70077392358 -0.0587408584841 2.65137401346 -0.00573337951328 1.33696875362
17.2043262723 -1.49421196185 -1.76445788387 -3.61988516118 1.2115095071 -0.0892959643693 1.70083705754 -0.0597805277953 2.65122724013 -0.00557676943077 1.3367839781
17.2328365994 -1.49417771631 -1.76822647617 -3.61996871269 1.21167661013 -0.0901022542479 1.70088638085 -0.0606465919885 2.65108101739 -0.0054143376898 1.33660320913
17.2616883063 -1.4941437033 -1.77199751524 -3.62005313553 1.2118454558 -0.090902079976 1.70093593125 -0.061509199076 2.65093249264 -0.00525206757799 1.33642117552
17.2929285982 -1.49410989733 -1.77576999831 -3.62013845068 1.21201608609 -0.0916970969474 1.70098591789 -0.0623697852797 2.65078184822 -0.00509062630305 1.3362380539
17.3271140319 -1.4940761912 -1.77954412441 -3.6202245755 1.21218833573 -0.0924880631596 1.70103613545 -0.0632279993975 2.65062882945 -0.00492908853159 1.33605357806
17.3653894991 -1.49404268969 -1.78331967275 -3.6203115847 1.21236235414 -0.0932742476235 1.70108677619 -0.0640842231258 2.65047370786 -0.00476839426685 1.33586802328
17.4104255539 -1.4940092838 -1.78709684143 -3.62039939826 1.21253798126 -0.0940564235796 1.70113763937 -0.0649381045399 2.65031623037 -0.00460760675591 1.33568112513
17.4547034806 -1.4939878952 -1.79148389082 -3.62050190436 1.21274299346 -0.0946909648962 1.70117977546 -0.0657421928333 2.65013014852 -0.00440783718996 1.33546349371
17.4932966721 -1.49396676727 -1.79587223819 -3.62060524586 1.21294967647 -0.0953188624425 1.70122204853 -0.0665429859691 2.64994178538 -0.00420878316667 1.33524498232
17.5282415394 -1.49394576787 -1.8002614589 -3.62070937848 1.2131579417 -0.095942518318 1.7012644848 -0.0673415298393 2.64975105241 -0.00401009839172 1.33502548619
17.5605187649 -1.4939249066 -1.80465152667 -3.62081430589 1.21336779651 -0.0965618743589 1.70130709961 -0.0681378763601 2.64955798678 -0.00381188145307 1.33480503808
17.590450859 -1.4939041818 -1.80904243348 -3.62092002415 1.21357923305 -0.0971769545106 1.70134988911 -0.0689320419523 2.64936259913 -0.00361413446382 1.33458364309
17.6213859594 -1.49390280419 -1.81327696937 -3.62102218723 1.21378355919 -0.0974785898695 1.70137196386 -0.0694968424677 2.64917147565 -0.00340889757724 1.33436996538
17.6547669277 -1.49390153369 -1.81751168589 -3.62112475755 1.21398869984 -0.0977767882856 1.70139400484 -0.0700596321121 2.6489788302 -0.00320392339076 1.3341560637
17.6912749134 -1.49390038719 -1.8217463689 -3.62122773693 1.21419465861 -0.0980722402963 1.70141610305 -0.070621237703 2.64878473649 -0.0029997292142 1.3339420063
17.7323184461 -1.49389925677 -1.82598124392 -3.62133111634 1.21440141742 -0.098365725307 1.70143820927 -0.0711814032491 2.648589078 -0.00279545706584 1.33372766689
17.7808648279 -1.49389824353 -1.83021609491 -3.62143489855 1.21460898183 -0.0986565279461 1.70146036471 -0.0717403816143 2.64839197391 -0.00259191552063 1.3335131664
17.8211421971 -1.49391695642 -1.83428786563 -3.62153446094 1.21480810661 -0.0986294687393 1.70146072819 -0.0720650455671 2.64820084079 -0.0023804007442 1.33330744867
17.8567763518 -1.49393569252 -1.83835955194 -3.62163407935 1.21500734345 -0.09860158438 1.70146110293 -0.0723890592253 2.64800894859 -0.0021690736933 1.33310216694
17.8891925995 -1.49395444137 -1.84243116757 -3.62173375413 1.215206693 -0.0985731321469 1.70146150585 -0.0727125955869 2.64781629903 -0.00195795105233 1.33289732031
17.918831553 -1.493973203 -1.8465027129 -3.62183348467 1.21540615407 -0.0985441144149 1.7014619371 -0.0730356566665 2.64762289425 -0.0017470317516 1.33269290905
17.9508086162 -1.49399202267 -1.85057406079 -3.62193325654 1.21560569782 -0.0985141559077 1.70146237563 -0.0733582466559 2.64742875227 -0.00153660555677 1.33248895026
17.9815472799 -1.49403067082 -1.85448009606 -3.62202835959 1.21579590392 -0.0981664058393 1.70144076337 -0.0734452139119 2.64724194562 -0.00131790920114 1.33229442996
18.0152131599 -1.4940692746 -1.85838672967 -3.62212322497 1.21598563469 -0.0978201520901 1.70141934099 -0.0735328025538 2.64705503257 -0.00109928389891 1.33210089872
18.0459552665 -1.49410784363 -1.86229376252 -3.62221784645 1.21617487764 -0.0974749271368 1.70139807808 -0.0736206966699 2.64686802237 -0.000880697467417 1.3319083671
18.0746839803 -1.49414637815 -1.86620119252 -3.62231222436 1.21636363347 -0.0971307249118 1.70137697406 -0.073708895325 2.64668091414 -0.000662149485977 1.33171683448
18.1017504608 -1.49418487841 -1.87010901707 -3.62240635903 1.2165519028 -0.0967875384407 1.70135602829 -0.0737973969365 2.64649370705 -0.000443639470291 1.33152630027
18.1264275768 -1.49424306128 -1.87385360927 -3.62249557196 1.21673032866 -0.0961307532314 1.70131352769 -0.073652486853 2.64631478658 -0.00021686271375 1.33134541324
18.1523785511 -1.49430114543 -1.8776003784 -3.62258431036 1.21690780546 -0.0954774736003 1.70127151212 -0.073509383104 2.64613630077 9.98925837737e-06 1.33116596474
18.1799365302 -1.49435911836 -1.88134857528 -3.62267258822 1.21708436118 -0.0948266693396 1.70122994918 -0.0733669592033 2.64595831465 0.000237415398899 1.33098802301
18.2094940478 -1.4944170547 -1.88509824796 -3.62276033639 1.21725985751 -0.0941781981871 1.70118875476 -0.0732259295661 2.6457807642 0.000464531725495 1.33081152847
18.2415127498 -1.49447488359 -1.88884934363 -3.62284762292 1.21743443057 -0.0935321839051 1.70114800821 -0.0730856341768 2.64560370857 0.000692163089656 1.3306365408
18.275412907 -1.49455195283 -1.89244374272 -3.62292993169 1.21759904812 -0.0925814383623 1.70108695172 -0.0727179983946 2.64543544817 0.000927847606162 1.33047096476
18.306132942 -1.4946288789 -1.8960426952 -3.62301157961 1.21776234396 -0.0916358993748 1.70102677157 -0.0723532741476 2.64526806106 0.00116377288031 1.33030718687
18.334526498 -1.49470564413 -1.89964470751 -3.62309260083 1.21792438639 -0.0906941470575 1.70096748477 -0.0719899672254 2.6451017234 0.0014005085351 1.33014538538
18.3610316894 -1.49478235639 -1.90324971336 -3.6231728441 1.21808487295 -0.0897557479754 1.70090883429 -0.0716286979676 2.64493622827 0.00163703214068 1.32998535972
18.3872964816 -1.49485891137 -1.90685774517 -3.62325245655 1.21824409783 -0.0888210810398 1.70085106055 -0.0712688665895 2.6447717739 0.00187432083084 1.32982731138
18.4140661618 -1.49495388905 -1.9103220121 -3.62332734553 1.21839387579 -0.0875968679411 1.70077510111 -0.0706922782526 2.64461619072 0.00211987571413 1.32967805341
18.4428089776 -1.49504873274 -1.91379135999 -3.62340136279 1.21854191031 -0.0863772306737 1.70070035411 -0.0701180798566 2.64446195832 0.00236589092142 1.32953099941
18.4739786404 -1.49514344161 -1.91726575868 -3.6234745069 1.21868819854 -0.0851621446351 1.70062681083 -0.0695462698331 2.64430907648 0.00261236122666 1.32938615629
18.508459095 -1.49523801499 -1.92074517812 -3.62354677623 1.21883273719 -0.0839515846908 1.70055446207 -0.0689768473834 2.64415754443 0.00285928009754 1.32924353038
18.547819883 -1.49533245228 -1.92422958837 -3.62361816904 1.21897552282 -0.082745525515 1.70048329849 -0.0684098120257 2.64400736113 0.00310664048392 1.32910312772
18.5851854968 -1.49542571571 -1.92702253464 -3.62367387955 1.21908694384 -0.0815113914236 1.70041073621 -0.0677655828532 2.64388952523 0.00331952596969 1.32899282989
18.6174072985 -1.49551880576 -1.92982321164 -3.62372900474 1.21919719422 -0.0802827610234 1.70033956879 -0.0671246560551 2.64377284187 0.00353303208493 1.32888425564
18.646341364 -1.49561178465 -1.93262901856 -3.6237834236 1.21930603193 -0.0790578502334 1.7002695809 -0.0664858256676 2.64365733608 0.0037469537912 1.32877741885
18.6728451328 -1.49570465161 -1.93543993747 -3.62383713397 1.21941345267 -0.0778366443075 1.70020076509 -0.0658490950647 2.64354300902 0.00396128516441 1.32867232623
18.6976104193 -1.4957974058 -1.93825594387 -3.62389013375 1.21951945223 -0.0766191282039 1.70013311412 -0.0652144657502 2.64342986225 0.00417602118032 1.32856898482
18.7209823849 -1.49589004637 -1.94107701337 -3.62394242085 1.21962402644 -0.0754052868098 1.70006662074 -0.0645819392633 2.64331789721 0.00439115672541 1.32846740151
18.7431352763 -1.49599611531 -1.94380468264 -3.62399158704 1.21972235881 -0.0739819298819 1.69998937614 -0.0637923237279 2.64321262284 0.00461306710679 1.32837138494
18.764266411 -1.49610205717 -1.94653926479 -3.62403996146 1.21981910765 -0.0725627613769 1.69991368014 -0.0630052247944 2.6431087337 0.00483548401573 1.32827728469
18.7846241124 -1.49620787061 -1.94928072773 -3.62408754015 1.21991426503 -0.0711477666564 1.69983952305 -0.0622206472928 2.64300623387 0.00505840022774 1.32818511181
18.8044324575 -1.49631355443 -1.95202903935 -3.62413431886 1.22000782245 -0.0697369305597 1.6997668945 -0.0614385965728 2.64290512668 0.00528180752764 1.32809487655
18.8250962287 -1.49641910721 -1.95478416775 -3.62418029408 1.22009977289 -0.0683302386248 1.6996957854 -0.0606590768711 2.64280541654 0.0055056996061 1.32800659023
18.8468675421 -1.49652452767 -1.95754608105 -3.62422546196 1.22019010865 -0.0669276758207 1.69962618595 -0.0598820930201 2.64270710704 0.0057300690267 1.32792026329
18.8691017491 -1.49664214096 -1.96022981952 -3.62426787954 1.22027494383 -0.0653355035271 1.69954833247 -0.058963120189 2.64261496357 0.00596085001526 1.32783867265
18.8927802606 -1.49675960968 -1.9629222512 -3.6243094208 1.22035802634 -0.0637478911813 1.69947238628 -0.0580470746156 2.64252439856 0.00619220550405 1.32775918379
18.918248424 -1.49687693198 -1.96562333647 -3.62435007971 1.22043934415 -0.0621648251923 1.69939833508 -0.0571339650094 2.64243541871 0.00642412600979 1.32768181183
18.9459147443 -1.49699410594 -1.9683330358 -3.62438985062 1.22051888598 -0.0605862920174 1.6993261671 -0.0562237996788 2.64234803112 0.00665660263959 1.32760657219
18.9768788577 -1.49711112975 -1.97105130972 -3.62442872776 1.22059664025 -0.05901227773 1.6992558701 -0.0553165871501 2.64226224224 0.00688962599447 1.32753347966
19.0127504676 -1.49722800155 -1.97377811879 -3.62446670548 1.22067259569 -0.0574427682823 1.69918743199 -0.0544123358052 2.64217805849 0.00712318681546 1.32746254895
19.0487029692 -1.49733739849 -1.97606249469 -3.62449722426 1.22073363325 -0.0559547097244 1.69912389694 -0.0535305524813 2.64211067888 0.0073284999353 1.32740516878
19.0793172798 -1.49744667517 -1.9783545077 -3.62452703626 1.22079325725 -0.0544702266178 1.69906200878 -0.0526512131686 2.64204459523 0.0075342706506 1.3273494757
19.1065761032 -1.49755583007 -1.98065412826 -3.62455613632 1.22085145737 -0.0529893112014 1.69900175797 -0.0517743259922 2.64197981337 0.007740491515 1.32729548169
19.1313344791 -1.49766486164 -1.98296132687 -3.62458451963 1.220908224 -0.0515119557568 1.69894313558 -0.0508998987422 2.64191633956 0.00794715558525 1.32724319916
19.1542732287 -1.49777376835 -1.98527607401 -3.62461218142 1.22096354757 -0.0500381523827 1.69888613255 -0.0500279392121 2.64185417985 0.00815425581894 1.32719264029
19.1757381145 -1.49788254864 -1.98759834022 -3.624639117 1.22101741874 -0.0485678930605 1.69883073992 -0.0491584551066 2.64179334027 0.00836178524032 1.32714381724
19.1960242232 -1.49799120103 -1.98992809601 -3.62466532157 1.22106982788 -0.0471011695049 1.69877694832 -0.0482914542626 2.64173382634 0.00856973654724 1.3270967416
19.2150004784 -1.49810771675 -1.99221858951 -3.62468992363 1.221119032 -0.04551311743 1.6987201516 -0.0473340838617 2.64167836569 0.00878228610379 1.32705230371
19.2333059262 -1.49822409615 -1.99451782992 -3.62471375116 1.22116668705 -0.0439288232913 1.69866521137 -0.0463794416393 2.64162433613 0.0089953091177 1.3270097086
19.250963763 -1.49834033731 -1.99682578337 -3.6247367981 1.22121278094 -0.0423482801162 1.69861211707 -0.0454275379878 2.64157174551 0.00920879723834 1.32696897112
