liuchen18/hilsys_old/sim_sys/data/fwx_planned_trajectory_he.txt
this is the FWX joint values,the following info is time,x,y,theta,joint1,joint2,joint3,joint4,joint5,joint6,joint7
0.0 -2.17724744172 -0.00530283396309 -4.57112075803 -2.34629678449 -0.776347550202 -1.38748676278 0.80775288121 1.62580971461 -0.549691262233 1.18029392794
0.08918574654 -2.17515381297 -0.00526431965605 -4.57091540104 -2.34670749847 -0.776736245684 -1.38734775624 0.806792343496 1.62577983937 -0.549804477214 1.1806097026
0.155168918834 -2.17306009209 -0.00522583109791 -4.57071031462 -2.34711767131 -0.777124347351 -1.38720942454 0.805832364132 1.6257500676 -0.549916841337 1.18092508895
0.210347814464 -2.17096626209 -0.00518725332275 -4.57050546346 -2.34752737362 -0.777511671469 -1.38707171014 0.804873299616 1.62571995653 -0.550029620989 1.18124037997
0.258833576665 -2.16887234 -0.00514870198869 -4.57030088285 -2.34793653484 -0.77789840224 -1.38693466748 0.803914798067 1.6256899471 -0.550141553481 1.18155528424
0.302729388649 -2.166778309 -0.00511006331023 -4.57009653791 -2.34834522472 -0.778284357938 -1.38679823926 0.802957213078 1.62565960045 -0.550253897417 1.18187009212
0.343268217053 -2.16468418598 -0.00507145185351 -4.5698924635 -2.34875337354 -0.778669720874 -1.38666247965 0.80200019549 1.62562935376 -0.550365397616 1.18218451466
0.381081023062 -2.16258997934 -0.00503283109312 -4.56968863461 -2.34916103132 -0.779054511827 -1.38652722973 0.801044121569 1.62559890665 -0.550477074591 1.18249879365
0.416704599168 -2.16049564318 -0.00499409309072 -4.56948504805 -2.34956820445 -0.779438386945 -1.38639273647 0.800088763373 1.6255681848 -0.550588802822 1.18281288555
0.45060066861 -2.15840121688 -0.00495539572701 -4.5692817357 -2.34997482915 -0.779821689628 -1.38625891311 0.799133941499 1.62553760716 -0.550699557513 1.18312656317
0.483175839362 -2.15630668043 -0.00491660331004 -4.5690786562 -2.35038098815 -0.780204203905 -1.38612569103 0.798180078288 1.62550665059 -0.550810849005 1.18344017303
0.514481291575 -2.15421205332 -0.00487784834257 -4.56887584969 -2.35078660117 -0.780586140146 -1.38599313386 0.797226767728 1.62547582165 -0.550921213238 1.18375337996
0.544566788048 -2.15211731685 -0.00483900401474 -4.56867327758 -2.35119174539 -0.780967296624 -1.38586117701 0.796274405496 1.62544463066 -0.551032067667 1.18406650829
0.573768735665 -2.15002248979 -0.00480019777841 -4.56847097838 -2.35159634379 -0.78134787549 -1.38572988191 0.795322600492 1.62541356518 -0.551141999417 1.18437923536
0.602112942955 -2.14792758264 -0.00476139083567 -4.56826892472 -2.3520004511 -0.781727907697 -1.38559906817 0.794371773607 1.62538229339 -0.551252151827 1.18469182989
0.629625242141 -2.14583254674 -0.00472247348787 -4.56806711419 -2.35240407216 -0.782107033528 -1.38546899769 0.793421673988 1.62535075179 -0.551362349756 1.18500423688
0.656065155981 -2.14373742092 -0.00468359920541 -4.56786557764 -2.35280714525 -0.782485588767 -1.38533958621 0.792472125951 1.62531934806 -0.551471586883 1.18531623486
0.681985449936 -2.14164218575 -0.00464463618954 -4.56766427517 -2.3532097502 -0.782863364412 -1.38521076607 0.79152354195 1.62528757292 -0.551581347118 1.18562816148
0.70739610915 -2.13954686019 -0.00460571309196 -4.56746324545 -2.35361180965 -0.78324056404 -1.38508259997 0.79057552554 1.62525591933 -0.551690192598 1.18593969029
0.73230736906 -2.13745142608 -0.00456670683512 -4.56726245127 -2.35401339799 -0.783616992586 -1.38495502427 0.789628462833 1.62522391099 -0.551799514927 1.18625113707
0.756728831221 -2.13535590165 -0.00452774115525 -4.56706192976 -2.35441444101 -0.783992845653 -1.38482809949 0.788681971984 1.6251920223 -0.551907926618 1.18656218756
0.780670002399 -2.1332602977 -0.00448877849248 -4.56686165463 -2.35481499129 -0.784368156594 -1.38470164904 0.787736463563 1.62515993014 -0.552016551307 1.18687310348
0.8041408707 -2.1311645658 -0.00444971207275 -4.56666162329 -2.35521505396 -0.784742570617 -1.38457592859 0.786791693354 1.62512757305 -0.552125216079 1.18718383143
0.827380347913 -2.12906874426 -0.00441069109706 -4.56646186562 -2.3556145693 -0.785116416124 -1.38445085632 0.785847489232 1.62509534783 -0.552232932366 1.18749415547
0.850390922176 -2.12697281423 -0.00437158748488 -4.5662623431 -2.35601361435 -0.785489490765 -1.38432636551 0.784904254175 1.62506275849 -0.552341158871 1.18780440475
0.873174649167 -2.1248767941 -0.00433252618799 -4.566063093 -2.35641211454 -0.7858619916 -1.38420251792 0.783961600968 1.62503028489 -0.552448482955 1.18811426119
0.895733953342 -2.12278066627 -0.00429338773453 -4.56586407947 -2.3568101416 -0.786233729985 -1.38407925089 0.783019906431 1.62499746365 -0.552556271084 1.18842403231
0.918070856315 -2.12068444844 -0.00425429227274 -4.56566533827 -2.35720762401 -0.786604895218 -1.38395662399 0.782078797699 1.6249647565 -0.552663160423 1.18873341199
0.940187435978 -2.11858815168 -0.00421520340625 -4.56546684413 -2.35760461227 -0.786975522883 -1.38383446441 0.781138675343 1.62493184864 -0.552770255549 1.18904265517
0.962086367082 -2.11649172783 -0.00417601724362 -4.56526859436 -2.35800111182 -0.787345263082 -1.3837130217 0.780199301563 1.62489868068 -0.552877385616 1.18935170999
0.983769400211 -2.11439521465 -0.00413687870238 -4.56507061781 -2.35839706492 -0.787714436829 -1.38359221635 0.779260508112 1.62486563837 -0.552983580814 1.18966036619
1.00523885171 -2.11229859387 -0.00409766355478 -4.56487287739 -2.35879254577 -0.788082848587 -1.38347198272 0.778322687944 1.62483223954 -0.5530902724 1.18996894403
1.02649664395 -2.11020188336 -0.00405849313012 -4.56467540901 -2.35918748252 -0.788450689069 -1.38335238161 0.777385462959 1.62479895125 -0.553196072758 1.19027713367
1.04754503552 -2.10810506602 -0.00401925127275 -4.56447817805 -2.35958194444 -0.78881777555 -1.38323335122 0.776449201469 1.62476532194 -0.553302325856 1.19058523504
1.06838591918 -2.10600815903 -0.00398005469679 -4.56428121899 -2.35997586257 -0.789184291308 -1.38311495024 0.775513539235 1.62473180122 -0.553407692418 1.19089294983
1.08902122769 -2.10391117374 -0.00394086820451 -4.56408450758 -2.36036928538 -0.789550274159 -1.38299700959 0.774578866804 1.6246980827 -0.553513257397 1.19120052615
1.10945345511 -2.10181406226 -0.00390159069132 -4.56388804098 -2.36076221858 -0.789915378989 -1.38287977283 0.773644952744 1.62466410883 -0.553618852452 1.19150791377
1.12968424094 -2.09971686183 -0.00386236300667 -4.56369184711 -2.36115460632 -0.79027991977 -1.38276316273 0.772711632282 1.62463025507 -0.553723524911 1.19181490764
1.14971574157 -2.09761955471 -0.00382306444965 -4.56349589018 -2.36154652018 -0.790643707227 -1.38264711461 0.771779289245 1.62459605182 -0.553828681618 1.19212181997
1.16954975498 -2.09552215824 -0.00378381279014 -4.56330020479 -2.36193789097 -0.791006925862 -1.38253168831 0.770847554577 1.62456195355 -0.553932959941 1.19242834901
1.18918838424 -2.09342465585 -0.00374449539011 -4.56310475759 -2.36232878537 -0.791369399146 -1.38241682307 0.769916787334 1.62452752133 -0.554037678386 1.19273478657
1.20844087344 -2.09132706423 -0.00370522546476 -4.56290958176 -2.36271913702 -0.791731304272 -1.38230257656 0.768986632227 1.62449319238 -0.554141522637 1.19304084232
1.2276940765 -2.08922939495 -0.00366596899514 -4.56271465407 -2.3631089924 -0.79209268121 -1.38218878341 0.768057469923 1.62445866858 -0.554245558077 1.19334675769
1.24694842884 -2.08713160042 -0.00362662759618 -4.56251997152 -2.36349835751 -0.792453189558 -1.38207568131 0.767129075233 1.62442389411 -0.554349618997 1.19365248403
1.26620359279 -2.08503371736 -0.00358733808477 -4.5623255611 -2.36388717834 -0.792813136317 -1.3819631952 0.76620128701 1.62438923418 -0.554452770295 1.19395782159
1.2854597283 -2.08293572854 -0.00354798332009 -4.56213138833 -2.36427552388 -0.793172338479 -1.38185126147 0.765274479729 1.62435423191 -0.554556393324 1.19426307434
1.30471667837 -2.08083765081 -0.00350867758659 -4.56193748652 -2.36466332749 -0.793530974492 -1.38173993894 0.764348293267 1.62431932946 -0.554659150267 1.19456794851
1.32397459409 -2.07873946811 -0.00346931158308 -4.56174382355 -2.36505065344 -0.793888873698 -1.38162916786 0.763423077878 1.62428409983 -0.554762335583 1.19487272819
1.34323332289 -2.07664119663 -0.00342999523542 -4.56155043137 -2.3654374378 -0.794246207574 -1.38151900495 0.762498486678 1.62424896863 -0.554864658143 1.19517713055
1.36249275963 -2.07454284815 -0.00339069551698 -4.56135728768 -2.36582372519 -0.794603017904 -1.38140928843 0.761574891138 1.62421364525 -0.554967165786 1.19548139088
1.38175333676 -2.0724443754 -0.00335131677909 -4.56116438934 -2.36620952187 -0.794958969056 -1.38130025024 0.760652071913 1.62417807582 -0.555069694571 1.19578546188
1.40101472106 -2.07034581458 -0.00331199194443 -4.56097176247 -2.3665947756 -0.79531436129 -1.38119181747 0.759729871304 1.62414261573 -0.555171326185 1.19608914887
1.42027706803 -2.06824714897 -0.00327260725857 -4.56077937384 -2.36697955286 -0.79566901755 -1.38108392755 0.758808654875 1.62410682017 -0.555273417848 1.19639274798
1.43954022661 -2.06614839493 -0.00323327372669 -4.56058725553 -2.36736378947 -0.796023110594 -1.38097663831 0.757888070892 1.62407111975 -0.555374654789 1.19669597294
1.45880434046 -2.06404953688 -0.00319388514658 -4.56039537656 -2.36774754741 -0.796376475221 -1.38086989097 0.756968461461 1.62403509853 -0.555476309594 1.19699910068
1.47806926443 -2.06195059053 -0.00315454819894 -4.56020376769 -2.36813076516 -0.796729277302 -1.38076374126 0.756049488071 1.62399917065 -0.555577114444 1.19730185582
1.49733488894 -2.05985156787 -0.003115231051 -4.56001240758 -2.36851348539 -0.797081560695 -1.38065803102 0.755131512445 1.62396305369 -0.555678097107 1.19760446704
1.51660164347 -2.05775242197 -0.00307584061403 -4.55982129294 -2.36889571467 -0.797432994304 -1.38055298656 0.754214321312 1.62392669525 -0.555779096825 1.19790688864
1.53586920369 -2.05565318848 -0.00303650600258 -4.55963044904 -2.36927740246 -0.79778387179 -1.38044853703 0.753297760399 1.62389044111 -0.555879211887 1.19820893094
1.55513771473 -2.05355385121 -0.00299711677836 -4.55943984384 -2.36965861286 -0.7981340219 -1.3803446209 0.752382186472 1.6238538583 -0.555979775545 1.19851088235
1.57440703294 -2.05145442601 -0.00295778062751 -4.55924950822 -2.3700392841 -0.798483611676 -1.38024129497 0.751467256428 1.62381736569 -0.556079497212 1.19881246428
1.59367729753 -2.0493548978 -0.00291839459788 -4.55905941236 -2.37041947582 -0.798832481573 -1.38013850151 0.750553303635 1.62378055899 -0.556179625156 1.19911394602
1.6129483678 -2.04725528182 -0.00287906225359 -4.55886958588 -2.37079912878 -0.799180792087 -1.38003629531 0.749639997654 1.62374384137 -0.556278913968 1.19941505939
1.63222013119 -2.04515559023 -0.00283975259745 -4.55868000828 -2.37117828398 -0.799528588553 -1.37993452162 0.748727691698 1.62370693715 -0.556378375492 1.1997160274
1.65149301722 -2.04305577646 -0.00280037520553 -4.55849067617 -2.3715569482 -0.799875544605 -1.3798334013 0.747816177898 1.62366979595 -0.556477850219 1.20001680557
1.67076670152 -2.04095587564 -0.00276105549597 -4.558301614 -2.37193507255 -0.800221947489 -1.37973286551 0.746905305305 1.62363275428 -0.556576452539 1.20031720899
1.69004132924 -2.03885587204 -0.00272168622381 -4.55811279088 -2.37231271878 -0.800567631525 -1.37963285374 0.745995422171 1.62359539054 -0.556675492549 1.20061751867
1.7093167582 -2.03675578106 -0.00268237185281 -4.55792423652 -2.3726898275 -0.800912758226 -1.37953342176 0.745086193825 1.62355811223 -0.55677370335 1.20091746343
1.72859312465 -2.03465558808 -0.00264301261142 -4.55773592224 -2.37306645606 -0.801257173554 -1.37943451294 0.744177945019 1.62352052647 -0.556872309065 1.20121730514
1.74787029087 -2.0325553079 -0.00260370890637 -4.55754787651 -2.37344254752 -0.801601032608 -1.37933618102 0.743270353619 1.62348302525 -0.556970087829 1.2015167829
1.76714814428 -2.03045495283 -0.00256443077777 -4.55736007972 -2.37381814111 -0.801944382464 -1.37923827475 0.742363763776 1.62344534037 -0.55706803302 1.20181611365
1.78642710847 -2.02835447668 -0.00252509029184 -4.55717252834 -2.37419324386 -0.802286901246 -1.37914100958 0.741457973252 1.62340742294 -0.557165987792 1.20211525433
1.80570686798 -2.02625391402 -0.00248580920207 -4.55698524601 -2.37456780853 -0.802628869851 -1.37904431857 0.74055283457 1.62336960022 -0.557263083091 1.20241402489
1.82498756054 -2.02415324963 -0.00244648349302 -4.55679820299 -2.37494189456 -0.802970128181 -1.37894814236 0.739648687247 1.62333146217 -0.557360604753 1.20271269878
1.84426904842 -2.02205249846 -0.00240721453755 -4.55661142788 -2.37531544479 -0.803310832465 -1.37885253567 0.738745204724 1.62329340538 -0.557457308616 1.20301101197
1.86355146491 -2.01995164632 -0.00236790544602 -4.55642489303 -2.37568851449 -0.803650833672 -1.37875744286 0.737842704002 1.62325504726 -0.557554397661 1.2033092196
1.88283467523 -2.01785070757 -0.00232865368204 -4.55623862584 -2.37606104887 -0.803990281869 -1.37866291668 0.736940870666 1.62321676941 -0.557650671595 1.20360706756
1.90211856682 -2.01574969467 -0.00228943024313 -4.55605260754 -2.37643308547 -0.804329225705 -1.37856880931 0.736040040151 1.62317831072 -0.557747106174 1.20390476697
1.92140355883 -2.0136485618 -0.00225014965311 -4.55586683448 -2.37680463158 -0.80466734778 -1.37847533093 0.735140015636 1.62313962388 -0.557843546933 1.20420227613
1.94068934023 -2.01154734303 -0.00221093011116 -4.55568132952 -2.3771756415 -0.805004922815 -1.37838241646 0.734240652998 1.62310102717 -0.557939140858 1.20449941964
1.9599760458 -2.00944602359 -0.00217167070869 -4.55549606403 -2.37754617248 -0.805341796073 -1.37829000761 0.733342283314 1.6230621217 -0.558035150361 1.20479646371
1.97926354075 -2.00734461798 -0.00213246976878 -4.55531106551 -2.37791616953 -0.805678118594 -1.37819815809 0.73244458811 1.62302329326 -0.558130354164 1.20509315136
1.99855195395 -2.00524311245 -0.00209323332549 -4.55512630734 -2.37828568587 -0.806013746383 -1.37810681328 0.731547876404 1.62298416972 -0.558225932976 1.20538973086
2.01784115507 -2.00314152095 -0.00205405602961 -4.55494181591 -2.37865466873 -0.80634882471 -1.37801602501 0.730651841175 1.62294512282 -0.558320707058 1.2056859546
2.03713103153 -2.00103985605 -0.00201490958213 -4.5547575732 -2.37902315414 -0.806683403362 -1.37792564866 0.729756810065 1.62290589746 -0.558415637613 1.2059820286
2.05642199803 -1.99893807233 -0.00197571102013 -4.55457357548 -2.37939114959 -0.807017169531 -1.37783588935 0.728862591162 1.62286644826 -0.558510571155 1.20627791218
2.07571374653 -1.99683620333 -0.00193657509855 -4.55438984484 -2.37975861087 -0.807350391947 -1.37774668379 0.727969043578 1.62282708491 -0.558604670178 1.20657343447
2.09500640882 -1.99473423474 -0.00189740389221 -4.55420635372 -2.38012559309 -0.807682920999 -1.37765797478 0.727076490258 1.62278741915 -0.558699174555 1.20686885466
2.11429985754 -1.99263218063 -0.0018582928588 -4.55402312859 -2.38049204337 -0.808014902861 -1.37756981503 0.726184620308 1.62274782669 -0.558792884217 1.20716392241
2.13359421265 -1.99053002766 -0.00181915071162 -4.55384014379 -2.38085801296 -0.808346198162 -1.37748215088 0.725293735473 1.62270794497 -0.558886960059 1.20745887974
2.15288935123 -1.98842778937 -0.00178006918923 -4.55365742467 -2.3812234512 -0.808676947254 -1.37739503311 0.724403536545 1.62266813535 -0.558980244767 1.20775348582
2.17218515628 -1.98632547845 -0.00174102118887 -4.55347495409 -2.38158839237 -0.809007201777 -1.37730832058 0.723514341855 1.62262815069 -0.559073678701 1.20804794034
2.19148204101 -1.9842230499 -0.00170192594362 -4.55329272815 -2.38195284425 -0.809336653061 -1.37722221326 0.722625965121 1.62258794646 -0.559167112631 1.20834220429
2.21077970179 -1.98212053672 -0.00166289490174 -4.55311076823 -2.38231676408 -0.809665564058 -1.37713664968 0.721738268475 1.62254782415 -0.559259723648 1.20863611109
2.23007826749 -1.98001792505 -0.00162383294161 -4.55292904778 -2.38268020497 -0.809993789981 -1.37705157363 0.720851567222 1.62250740549 -0.559352730727 1.20892991336
2.24937761222 -1.97791522853 -0.00158483275421 -4.55274759226 -2.38304311602 -0.810321472315 -1.37696703686 0.719965557822 1.62246705645 -0.559444954371 1.20922336717
2.26867785297 -1.97581243425 -0.00154580571602 -4.55256637697 -2.3834055466 -0.810648476256 -1.37688298669 0.719080534713 1.62242642398 -0.559537535289 1.20951670827
2.28797887274 -1.97370955531 -0.00150684087069 -4.55238542629 -2.38376744796 -0.810974937605 -1.37679947294 0.71819620588 1.62238585995 -0.559629336446 1.20980970211
2.3072805501 -1.97160660454 -0.00146791194008 -4.55220472383 -2.38412885289 -0.811300909243 -1.37671635767 0.717312881654 1.6223451236 -0.559721281931 1.21010254307
2.32658329676 -1.96950353732 -0.00142894047007 -4.55202426558 -2.38448976938 -0.811626086847 -1.37663383597 0.716430380687 1.62230417188 -0.559813224615 1.21039519334
2.34588681356 -1.96740038617 -0.00139003462992 -4.55184407222 -2.3848501561 -0.811950727645 -1.37655184804 0.715548568268 1.6222632981 -0.559904356651 1.21068749067
2.36519122491 -1.96529713762 -0.00135110214032 -4.5516641182 -2.38521006413 -0.812274691692 -1.37647033876 0.714667751849 1.62222213416 -0.559995875006 1.21097968096
2.38449640788 -1.96319380492 -0.00131223276774 -4.55148442795 -2.38556944464 -0.812598115582 -1.37638935876 0.713787635856 1.62218103562 -0.560086623408 1.21127152716
2.40380247798 -1.96109037556 -0.00127334083021 -4.55130497779 -2.38592834497 -0.812920869465 -1.37630885658 0.712908506413 1.62213966008 -0.560177718181 1.21156325799
2.42310931971 -1.95898686228 -0.00123451263292 -4.55112579112 -2.38628671831 -0.813243084558 -1.37622888098 0.712030078933 1.62209834971 -0.560268043725 1.21185464529
2.44241681161 -1.95688327794 -0.00119572257731 -4.55094685224 -2.38664459605 -0.813564814719 -1.37614929712 0.711152656321 1.62205686951 -0.560358509659 1.21214587862
2.46172536245 -1.95477957838 -0.00115689452646 -4.55076815709 -2.38700198637 -0.81388576001 -1.37607029533 0.710276061837 1.62201517808 -0.560448970177 1.21243692116
2.48103467751 -1.95267579559 -0.00111813350727 -4.55058972564 -2.38735884926 -0.814206172152 -1.37599181747 0.709400163704 1.62197356097 -0.560538631552 1.21272761474
2.50034487526 -1.95057191653 -0.00107934990182 -4.5504115333 -2.38771523393 -0.814525915733 -1.37591380946 0.708525262028 1.62193165959 -0.560628670461 1.213018199
2.51965583871 -1.94846795404 -0.00104063085437 -4.55023360357 -2.38807109341 -0.814845122945 -1.37583632094 0.707651068293 1.62188982023 -0.560717950568 1.21330844299
2.53896767893 -1.94636389601 -0.00100189320166 -4.55005591364 -2.38842647327 -0.815163668218 -1.37575930143 0.706777861626 1.62184770953 -0.560807568668 1.21359856948
2.55828028337 -1.94425975476 -0.000963220583096 -4.54987848598 -2.38878132858 -0.815481678325 -1.37568279867 0.705905364718 1.62180566018 -0.56089643028 1.21388835658
2.57759353354 -1.94215554328 -0.000924588404544 -4.54970130568 -2.38913568918 -0.815799208557 -1.37560668107 0.705033872059 1.62176344415 -0.560985426238 1.2141779882
2.59690782784 -1.94005121782 -0.000885922616504 -4.54952436851 -2.38948956352 -0.816115963039 -1.37553113418 0.704163211978 1.621721021 -0.561074414345 1.21446742895
2.61622288042 -1.93794680985 -0.000847325018118 -4.54934769378 -2.38984291297 -0.816432187866 -1.37545610139 0.703293256139 1.62167866805 -0.561162616944 1.21475652508
2.63553880682 -1.93584230676 -0.000808708915222 -4.54917125789 -2.39019578475 -0.816747752519 -1.37538152984 0.70242429634 1.62163603726 -0.561251186344 1.21504550925
2.65485549151 -1.933737721 -0.000770158854975 -4.54899508342 -2.39054813371 -0.817062784858 -1.37530746817 0.701556051126 1.62159346577 -0.561339006407 1.21533415657
2.67417304261 -1.9316330408 -0.000731593880463 -4.54881914835 -2.39090000385 -0.817377163092 -1.37523386673 0.700688793593 1.621550628 -0.561427157953 1.21562268466
2.69349135051 -1.92952827815 -0.000693095246626 -4.54864347431 -2.39125135192 -0.817691010003 -1.37516077238 0.699822252852 1.62150784827 -0.56151456451 1.21591087719
2.71281029526 -1.92742344607 -0.000654639159186 -4.54846804708 -2.39160220638 -0.818004381967 -1.37508805657 0.698956715758 1.62146490467 -0.56160210071 1.216198913
2.73213027526 -1.92531850128 -0.000616153692569 -4.54829286233 -2.39195257588 -0.818316987256 -1.37501590029 0.698092015282 1.62142175799 -0.56168962679 1.21648675789
2.75145100465 -1.92321347473 -0.000577737664513 -4.54811793875 -2.39230242305 -0.818629066716 -1.37494424848 0.697228025926 1.62137867818 -0.561776378732 1.216774262
2.7707725975 -1.92110835419 -0.000539306900837 -4.5479432536 -2.39265179334 -0.818940494084 -1.37487304929 0.696365032446 1.62133532624 -0.561863489181 1.217061652
2.7900949427 -1.91900315175 -0.000500943323926 -4.54776882856 -2.39300064343 -0.819251392873 -1.37480235033 0.695502760629 1.62129202994 -0.561949863187 1.21734870923
2.80941814247 -1.91689785602 -0.00046256864505 -4.54759464252 -2.39334901551 -0.819561645738 -1.37473210308 0.694641475913 1.62124847341 -0.562036558906 1.21763564485
2.82874209312 -1.91479247863 -0.000424261690017 -4.54742071626 -2.39369686802 -0.819871371427 -1.37466235343 0.693780914064 1.62120497236 -0.562122519004 1.21792224824
2.84806667321 -1.91268703261 -0.000385999135216 -4.54724703615 -2.39404422825 -0.820180626875 -1.37459297569 0.692921355493 1.62116130961 -0.562208606259 1.21820869416
2.8673922767 -1.91058147515 -0.00034771127911 -4.54707359779 -2.39439110496 -0.820489124673 -1.37452414644 0.692062637189 1.62111744778 -0.562294681287 1.21849494912
2.88671862218 -1.90847583671 -0.000309493981389 -4.54690041926 -2.39473746202 -0.820797100466 -1.37445581212 0.691204636621 1.62107364942 -0.562379994202 1.2187808672
2.90604582075 -1.90637010544 -0.000271265629289 -4.54672747871 -2.39508334313 -0.821104432273 -1.37438792192 0.690347631285 1.62102958475 -0.562465656838 1.21906666897
2.92537381462 -1.90426428748 -0.00023306759072 -4.5465547869 -2.39542872675 -0.821411182532 -1.37432049939 0.689491482927 1.62098541888 -0.562551113479 1.21935224447
2.9447025268 -1.9021583913 -0.000194957233516 -4.54638235872 -2.3957735831 -0.821717437301 -1.37425357784 0.688635998418 1.62094138239 -0.562635585611 1.21963743969
2.96403210835 -1.90005240034 -0.000156820609557 -4.54621016387 -2.3961179728 -0.822023026499 -1.37418708669 0.68778156545 1.62089701475 -0.562720631473 1.2199225626
2.98336226158 -1.89794634714 -0.000118768332326 -4.54603822451 -2.39646185152 -0.822328207352 -1.37412098408 0.686928005693 1.62085264141 -0.562805281072 1.22020742468
3.00269342636 -1.89584018381 -8.06946821156e-05 -4.54586652613 -2.39680524828 -0.822632639533 -1.37405541906 0.686075289466 1.6208080729 -0.562889916493 1.22049209578
3.02202531536 -1.89373394144 -4.27006779623e-05 -4.54569508829 -2.39714812396 -0.822936565592 -1.37399034442 0.685223269822 1.6207635971 -0.562973691414 1.22077641207
3.04135805744 -1.89162760623 -4.69109373925e-06 -4.54552388578 -2.39749052899 -0.823239843671 -1.37392570062 0.684372271862 1.62071882826 -0.563057917876 1.2210606316
3.06069152818 -1.8895211915 3.32435588032e-05 -4.54535294209 -2.39783241636 -0.823542609342 -1.37386154151 0.683521989088 1.62067413112 -0.563141355378 1.22134451087
3.08002584164 -1.88741468498 7.11878052032e-05 -4.54518223489 -2.39817383077 -0.823844736776 -1.37379781389 0.682672710746 1.62062916265 -0.563225173838 1.22162827936
3.09936088377 -1.88530809917 0.000109056824801 -4.54501178611 -2.39851472832 -0.824146352922 -1.37373456829 0.681824149215 1.62058426494 -0.563308206735 1.22191170863
3.11869654645 -1.88320144563 0.000146882999838 -4.54484158064 -2.39885513926 -0.824447500838 -1.37367167841 0.680976606366 1.6205391899 -0.563391430741 1.22219499246
3.13803320883 -1.88109468325 0.000184726765558 -4.5446716153 -2.39919506995 -0.824747909007 -1.3736093154 0.680129909937 1.62049392358 -0.563474638765 1.22247808531
3.15737059988 -1.87898784146 0.000222498002908 -4.54450190694 -2.39953448666 -0.825047802955 -1.37354742851 0.679283943372 1.62044871416 -0.563557109211 1.22276084903
3.17670882179 -1.87688090919 0.000260273294865 -4.54433243545 -2.39987342965 -0.82534706903 -1.37348596913 0.678438969731 1.62040325001 -0.563639911757 1.22304349207
3.19604782124 -1.8747738922 0.00029801383664 -4.54416321068 -2.40021187918 -0.825645765495 -1.37342495973 0.677594857832 1.62035768717 -0.563722511808 1.22332591053
3.21538752419 -1.87266679845 0.000335665648847 -4.54399424638 -2.40054980778 -0.825943972877 -1.37336443226 0.676751423911 1.62031224422 -0.563804158126 1.2236079584
3.23472807577 -1.87055961241 0.000373335978542 -4.54382551453 -2.40088727149 -0.826241532198 -1.37330431899 0.675909036627 1.62026648465 -0.563886354421 1.22388992766
3.2540691857 -1.86845236546 0.000410920715201 -4.5436570358 -2.40122422893 -0.826538689269 -1.37324458044 0.675067525968 1.62022071673 -0.56396816505 1.22417163942
3.273411282 -1.86634501099 0.000448519403762 -4.5434887963 -2.40156070794 -0.826835115464 -1.37318535818 0.674226864262 1.62017476135 -0.564049958031 1.22445316023
3.29275408919 -1.86423757905 0.000486036971517 -4.54332081429 -2.40189667196 -0.827131042851 -1.37312660757 0.673386911372 1.62012889114 -0.564130917109 1.22473433464
3.31209772725 -1.86213005668 0.000523563034112 -4.54315306648 -2.40223216759 -0.827426338857 -1.37306827152 0.672547976383 1.62008274052 -0.564212308317 1.22501540726
3.33144208065 -1.86002245638 0.000561012529058 -4.5429855745 -2.40256715155 -0.827721130146 -1.37301040156 0.671709768075 1.6200366548 -0.564292936058 1.22529614755
3.35078725306 -1.85791476669 0.000598464808988 -4.54281831775 -2.40290166505 -0.828015299418 -1.37295294679 0.670872560769 1.61999030965 -0.564373926523 1.2255767725
3.37013313933 -1.85580699932 0.000635840172877 -4.54265131643 -2.40323566768 -0.828308965267 -1.37289595557 0.67003608122 1.61994402893 -0.564454155552 1.22585706587
3.38947963282 -1.85369916594 0.000673169072918 -4.54248455682 -2.40356918691 -0.828602173193 -1.37283930746 0.669200616078 1.61989757732 -0.564534565792 1.22613721116
3.40882709936 -1.85159122638 0.000710508425914 -4.54231803545 -2.40390222964 -0.82889465906 -1.37278316521 0.668366002072 1.61985094203 -0.564614956854 1.22641716554
3.42817532715 -1.8494832038 0.000747809531229 -4.54215175893 -2.40423478268 -0.829186585559 -1.37272745813 0.667532252823 1.61980421028 -0.564695148622 1.22669689678
3.44752424658 -1.84737510608 0.000785019162412 -4.54198574055 -2.40456681944 -0.829478031723 -1.37267221827 0.666699185291 1.6197575991 -0.564774383729 1.22697625989
3.46687399539 -1.8452669179 0.000822243163909 -4.54181995312 -2.4048983943 -0.829768841566 -1.37261737777 0.665867166452 1.61971067508 -0.564854178176 1.2272555448
3.48622450101 -1.84315864715 0.00085942810676 -4.54165441004 -2.40522948046 -0.830059094624 -1.37256296879 0.665036012981 1.61966365516 -0.564933774129 1.22753460693
3.50557569827 -1.84105030129 0.000896523503969 -4.54148912384 -2.40556005286 -0.830348865773 -1.37250902181 0.664205550882 1.61961674552 -0.565012449354 1.22781330855
3.5249275072 -1.83894188855 0.000933582692143 -4.54132407542 -2.40589014971 -0.830638166529 -1.37245540416 0.663376142029 1.61956961938 -0.565091472377 1.22809189338
3.54428028029 -1.83683337096 0.000970648971445 -4.54115926423 -2.40621977208 -0.830926753985 -1.37240228211 0.662547586158 1.61952231328 -0.565170474819 1.22837028737
3.56363380426 -1.83472477137 0.00100767510586 -4.54099469671 -2.40654890712 -0.831214788041 -1.37234958674 0.661719896372 1.61947491204 -0.565249279914 1.22864845906
3.58298801247 -1.83261609741 0.00104460952197 -4.54083038561 -2.40687752933 -0.831502345081 -1.37229734937 0.660892894299 1.6194276268 -0.565327144252 1.2289262674
3.60234303821 -1.83050733425 0.00108155479189 -4.54066630482 -2.4072056909 -0.831789274431 -1.37224550365 0.660066937436 1.61938003594 -0.565405555926 1.22920399444
3.62169881336 -1.82839848953 0.00111845914632 -4.54050246719 -2.40753336616 -0.83207565296 -1.37219408098 0.659241847135 1.61933235051 -0.565483771076 1.22948149954
3.64105526978 -1.82628957048 0.00115527371919 -4.54033888471 -2.40786053112 -0.832361552958 -1.37214311116 0.658417454024 1.61928477088 -0.565561081545 1.22975864886
3.66041233194 -1.82418058549 0.00119205005162 -4.5401755392 -2.40818722215 -0.832646988395 -1.37209246471 0.657594110131 1.61923697955 -0.565638730981 1.23003567911
3.67977034493 -1.82207149699 0.0012288302472 -4.54001242985 -2.40851344084 -0.832931719232 -1.37204230375 0.656771620742 1.61918901193 -0.565716358554 1.23031251859
3.69912909992 -1.81996232751 0.00126556849536 -4.53984956296 -2.40883917463 -0.833215902631 -1.37199256107 0.655949998457 1.61914095052 -0.565793790777 1.23058913661
3.71848853026 -1.81785308446 0.00130221473855 -4.53968695074 -2.40916439907 -0.833499612536 -1.37194326736 0.655129069168 1.61909300106 -0.56587029673 1.23086539573
3.73784876925 -1.81574375345 0.00133886855041 -4.53952456812 -2.4094891643 -0.833782703164 -1.37189435761 0.654309181714 1.61904475271 -0.565947339536 1.23114157079
3.75720974579 -1.81363434191 0.00137547968364 -4.53936242742 -2.4098134457 -0.834065248928 -1.37184586259 0.653490161713 1.61899641113 -0.566024187837 1.23141752474
3.77657139769 -1.81152485683 0.00141200077459 -4.53920054013 -2.41013722029 -0.834347319717 -1.3717978114 0.652671844069 1.61894817133 -0.56610014632 1.23169312736
3.79593364644 -1.80941530675 0.0014484817676 -4.53903888892 -2.4104605227 -0.83462893163 -1.37175007764 0.651854571685 1.61889972427 -0.566176436157 1.23196860889
3.81529683417 -1.8073056545 0.0014849635265 -4.53887747275 -2.41078335503 -0.834909847585 -1.3717028194 0.651038155012 1.61885110455 -0.566252702964 1.23224389974
3.83466075353 -1.8051959223 0.00152140162779 -4.53871629778 -2.41110570499 -0.835190222053 -1.37165597118 0.650222606166 1.61880239238 -0.566328776468 1.23251896997
3.85402534232 -1.80308611731 0.0015577476195 -4.53855537568 -2.41142754918 -0.835470126428 -1.37160956291 0.649407755669 1.61875378775 -0.566403939963 1.23279368602
3.87339072642 -1.80097622563 0.00159409789614 -4.53839468244 -2.41174893566 -0.835749420043 -1.37156353111 0.648593942972 1.61870489136 -0.566479628144 1.23306831497
3.89275684068 -1.79886625445 0.00163040382236 -4.53823422984 -2.41206984087 -0.836028174741 -1.37151790581 0.647780998329 1.61865590311 -0.566555123886 1.23334272365
3.9121236214 -1.79675621055 0.00166661946439 -4.53807402888 -2.41239024279 -0.836306458132 -1.37147271546 0.646968760712 1.6186070129 -0.566629744041 1.23361678526
3.93149099157 -1.79464610257 0.00170279327696 -4.53791406305 -2.41271017443 -0.83658428825 -1.37142783666 0.646157564332 1.61855791967 -0.566704688591 1.23389072392
3.95085928591 -1.79253589376 0.00173896488575 -4.53775433111 -2.41302963833 -0.836861430989 -1.37138342355 0.645347224564 1.61850865736 -0.566779609056 1.23416447203
3.97022830448 -1.79042560604 0.00177509121673 -4.53759483904 -2.41334862246 -0.837138038184 -1.3713394123 0.644537753061 1.61845930397 -0.566854338306 1.23443800033
3.98959798507 -1.78831524633 0.00181112531352 -4.53743559805 -2.41366710443 -0.837414178851 -1.37129583214 0.643728984638 1.61841005414 -0.566928172642 1.23471117891
4.00896844912 -1.78620480119 0.00184716061095 -4.5372765851 -2.41398513035 -0.837689717085 -1.37125262103 0.642921250035 1.61836051927 -0.56700252075 1.23498426762
4.02833963296 -1.78409427759 0.00188314997517 -4.53711781146 -2.41430267763 -0.837964722338 -1.37120980829 0.642114383803 1.61831089393 -0.567076678526 1.2352571369
4.04771147735 -1.78198368208 0.0019190489138 -4.53695928766 -2.41461972523 -0.838239259938 -1.37116742173 0.641308229074 1.61826136282 -0.567149975549 1.23552966343
4.06708390081 -1.77987302341 0.00195490433157 -4.53680099801 -2.41493630453 -0.838513349905 -1.37112534089 0.640503111207 1.61821163309 -0.567223589422 1.23580206508
4.08645723808 -1.77776226528 0.00199075470033 -4.53664294102 -2.4152524185 -0.83878676101 -1.3710837161 0.63969885056 1.61816173782 -0.567297178259 1.23607427629
4.1058312892 -1.77565142926 0.00202655825877 -4.53648512257 -2.4155680554 -0.8390596425 -1.37104248509 0.63889545834 1.61811175285 -0.567370578009 1.23634626855
4.12520599347 -1.77354052208 0.00206226947535 -4.53632755338 -2.41588319378 -0.839332061132 -1.37100167648 0.638092773454 1.61806186772 -0.567443097316 1.23661791534
4.14458147083 -1.77142953072 0.00209797896597 -4.53617021133 -2.41619787788 -0.839603885526 -1.37096122954 0.637291118334 1.61801170404 -0.567516120182 1.23688946968
4.16395765909 -1.76931846192 0.00213364102727 -4.53601310724 -2.41651208607 -0.839875182858 -1.37092117298 0.636490331632 1.61796145127 -0.56758895486 1.23716080542
4.18333450048 -1.76720732205 0.00216921257813 -4.53585625116 -2.41682579822 -0.840146016238 -1.37088153392 0.635690260577 1.61791128904 -0.5676609436 1.23743180267
4.20271191208 -1.76509611994 0.00220473899705 -4.53569962819 -2.41713904416 -0.840416407598 -1.37084219484 0.634891221817 1.61786093258 -0.567733241677 1.23770267315
4.22209022414 -1.76298481972 0.00224025764311 -4.53554323664 -2.41745182727 -0.840686128551 -1.37080330229 0.6340930406 1.61781041405 -0.567805513865 1.23797335333
4.24146924118 -1.76087344266 0.00227572803166 -4.53538708223 -2.41776413608 -0.840955325799 -1.37076479558 0.633295727704 1.61775980722 -0.567877599129 1.2382438154
4.26084890543 -1.75876199525 0.00231110612794 -4.53523117522 -2.4180759501 -0.841224063758 -1.37072670259 0.632499126434 1.61770929619 -0.567948819969 1.23851393649
4.28022932945 -1.75665046492 0.00234647958393 -4.53507549444 -2.41838731167 -0.841492215744 -1.37068896411 0.63170355031 1.61765851345 -0.568020532677 1.23878396231
4.29961045401 -1.75453885818 0.00238180419887 -4.53492005021 -2.41869820013 -0.841759846573 -1.3706516081 0.630908842384 1.61760764301 -0.568092059376 1.23905377037
4.31899222429 -1.75242718122 0.00241703818692 -4.53476485217 -2.4190085962 -0.842027017315 -1.37061466108 0.630114853624 1.61755685988 -0.568162753595 1.2393232439
4.33837455737 -1.75031544293 0.00245222559687 -4.53460988613 -2.41931852828 -0.842293751498 -1.37057800832 0.629321892712 1.61750588653 -0.568233750999 1.23959258904
4.35775777906 -1.74820360789 0.00248740262834 -4.53445515022 -2.41962800011 -0.842559823662 -1.37054179271 0.628529789392 1.61745475454 -0.568304721757 1.23986174406
4.37714169537 -1.74609169704 0.00252253003815 -4.53430065003 -2.41993700048 -0.842825378017 -1.37050595511 0.62773855403 1.61740353566 -0.568375507786 1.24013068178
4.39652625 -1.74397971668 0.00255756515642 -4.53414639537 -2.4202455098 -0.843090476838 -1.37047052275 0.626948033906 1.61735240907 -0.568445443815 1.24039928268
4.41591155551 -1.74186765464 0.0025925929345 -4.53399236596 -2.42055356863 -0.843354997726 -1.37043543775 0.626158534476 1.61730101709 -0.568515861679 1.24066778584
4.43529755119 -1.73975551723 0.00262757054185 -4.53383857166 -2.42086115723 -0.843619003345 -1.37040072743 0.625369902773 1.61724953883 -0.568586095743 1.24093607206
4.45468418372 -1.73764331045 0.0026624574787 -4.5336850217 -2.42116825715 -0.843882552749 -1.3703664177 0.624581993508 1.61719814467 -0.568655511036 1.24120402771
4.47407137163 -1.73553104325 0.00269729644756 -4.53353170259 -2.42147489536 -0.844145671054 -1.37033239657 0.623795107399 1.61714656434 -0.568725223111 1.24147185336
4.49345943483 -1.73341868065 0.00273212254751 -4.53337861228 -2.42178107598 -0.844408135665 -1.37029880338 0.623009078669 1.61709482876 -0.56879490787 1.24173948905
4.51284818375 -1.73130624329 0.00276689774238 -4.53322575624 -2.42208678806 -0.844670088341 -1.37026558047 0.622223917284 1.6170430077 -0.568864410126 1.24200690829
4.5322375636 -1.72919373725 0.00280158071785 -4.53307314384 -2.42239201286 -0.844931589247 -1.3702327544 0.621439474514 1.61699127545 -0.568933077084 1.24227399484
4.55162768248 -1.72708115076 0.00283625374241 -4.53292075566 -2.42269678923 -0.845192520212 -1.37020026868 0.620656047727 1.61693928414 -0.569002215621 1.24254098118
4.57101848264 -1.72496848995 0.00287087534633 -4.53276860112 -2.42300109831 -0.845452941773 -1.37016814996 0.619873487952 1.61688720796 -0.569071172595 1.24280775141
4.59040991224 -1.72285576061 0.0029054063284 -4.53261668904 -2.42330492247 -0.845712910969 -1.3701364235 0.619091653732 1.61683521259 -0.569139325109 1.24307419509
4.60980188685 -1.72074297178 0.00293988798557 -4.53246500663 -2.42360828728 -0.845972454555 -1.3701049801 0.618310837659 1.61678303527 -0.569207767395 1.24334050707
4.62919472492 -1.7186300889 0.00297435439553 -4.53231355165 -2.42391119724 -0.846231352702 -1.37007395556 0.617530878496 1.61673070604 -0.56927618178 1.24360662928
4.64858824129 -1.71651713228 0.00300876869545 -4.53216232946 -2.42421364162 -0.84648974477 -1.37004329367 0.616751785826 1.61667829275 -0.569344415911 1.24387253586
4.66798237823 -1.71440410784 0.00304309087588 -4.53201134901 -2.42451560253 -0.846747688894 -1.37001302038 0.615973414772 1.61662596498 -0.569411829066 1.24413811379
4.68737724383 -1.71229100418 0.00307740062307 -4.53186059169 -2.42481711717 -0.847005070962 -1.3699830805 0.615196054891 1.61657338429 -0.569479703975 1.24440358915
4.70677278034 -1.71017782724 0.00311165777721 -4.53171006652 -2.42511816751 -0.847261949469 -1.36995350004 0.614419561071 1.61652072017 -0.569547399581 1.24466884924
4.72616893888 -1.70806458263 0.00314582431852 -4.53155978192 -2.4254187367 -0.847518379619 -1.36992430371 0.613643795306 1.61646813405 -0.569614303566 1.24493378647
4.74556563652 -1.70595127943 0.00317994033953 -4.53140972576 -2.42571884902 -0.847774389487 -1.36989538488 0.612869042841 1.61641536978 -0.569681491774 1.2451985906
4.7649631828 -1.70383788352 0.00321403884414 -4.53125989563 -2.42601850928 -0.848029762105 -1.36986687598 0.612095146573 1.61636245689 -0.569748651577 1.24546320517
4.78436139702 -1.70172441492 0.00324808410994 -4.53111029677 -2.42631770699 -0.848284634474 -1.36983872223 0.611322115715 1.61630946139 -0.569815633399 1.24572760494
4.80376022587 -1.69961087936 0.00328203733977 -4.53096093774 -2.42661642506 -0.848539062852 -1.36981094898 0.610549808948 1.61625654847 -0.569881807472 1.24599167984
4.82315977155 -1.69749726579 0.00331597582221 -4.53081180071 -2.42691469912 -0.848792936885 -1.36978350226 0.609778508613 1.61620338843 -0.569948434612 1.24625565006
4.84255997924 -1.69538357997 0.00334986061444 -4.53066289431 -2.42721251193 -0.849046313177 -1.3697564075 0.609008073159 1.61615014639 -0.57001488473 1.24651940584
4.86196080157 -1.69326982733 0.00338365500045 -4.53051422654 -2.42750984747 -0.849299244932 -1.36972968873 0.60823836852 1.616096979 -0.570080558437 1.24678284282
4.88136215262 -1.69115601701 0.00341739759054 -4.53036578597 -2.42780672861 -0.849551761916 -1.36970324209 0.607469671637 1.61604363788 -0.570146508431 1.24704614492
4.90076434195 -1.68904211534 0.00345112050115 -4.53021756999 -2.42810316055 -0.84980364977 -1.3696771966 0.606701829999 1.61599015139 -0.570212429592 1.24730925768
4.92016718885 -1.68692814201 0.00348478911814 -4.53006958375 -2.42839913304 -0.850055043182 -1.36965149886 0.605934852468 1.61593658372 -0.570278175063 1.24757215648
4.93957064297 -1.68481410257 0.00351836591018 -4.52992183539 -2.42869462976 -0.850305996464 -1.36962617356 0.605168601518 1.61588309546 -0.57034312729 1.24783473435
4.95897480059 -1.68269998634 0.00355192566004 -4.52977430788 -2.42898968478 -0.850556403152 -1.36960116809 0.604403351801 1.61582936614 -0.570408522656 1.24809720526
4.97837961283 -1.68058579889 0.00358543069554 -4.52962700944 -2.42928428167 -0.850806317893 -1.36957650722 0.603638965566 1.61577555626 -0.570473743299 1.24835946256
4.99778503081 -1.6784715455 0.00361884537671 -4.52947994772 -2.42957840509 -0.851055792231 -1.36955221447 0.602875311898 1.61572181862 -0.570538199408 1.24862140451
5.01699883239 -1.67635723532 0.00365220725587 -4.52933311189 -2.42987207676 -0.851304856984 -1.36952818839 0.602112661029 1.61566791079 -0.570602927183 1.2488832104
5.03621345003 -1.67424283512 0.00368554739562 -4.52918649919 -2.43016530216 -0.851553300659 -1.36950455483 0.601350864228 1.61561386079 -0.570667625769 1.24914482717
5.05542871043 -1.6721283643 0.00371883225868 -4.52904011466 -2.43045807123 -0.851801255671 -1.36948126171 0.600589930014 1.61555973106 -0.570732150971 1.24940623081
5.07464456473 -1.67001382822 0.00375202550795 -4.52889396605 -2.43075036844 -0.852048774504 -1.36945833315 0.599829724438 1.61550567783 -0.570795896651 1.24966731731
5.09386110475 -1.66789921656 0.00378519956295 -4.5287480371 -2.43104222634 -0.85229575435 -1.36943571777 0.599070514906 1.61545138935 -0.570860076359 1.24992829474
5.1130782831 -1.66578453472 0.00381831795027 -4.52860233563 -2.43133362928 -0.852542248017 -1.36941343974 0.598312167247 1.61539702176 -0.570924083657 1.25018905938
5.13229605386 -1.66366978779 0.00385134618549 -4.52845686895 -2.43162456264 -0.852788305283 -1.369391522 0.597554554026 1.61534272362 -0.570987339974 1.25044951237
5.15151433113 -1.66155498497 0.0038843205724 -4.52831162682 -2.43191504691 -0.853033958268 -1.36936986561 0.596797938121 1.61528825927 -0.571050861636 1.25070982785
5.17073341409 -1.65944009347 0.0039172712602 -4.52816660633 -2.43220508787 -0.853278998158 -1.36934859324 0.596042174888 1.61523365589 -0.571114353821 1.25096995447
5.18995313093 -1.65732513237 0.00395016575783 -4.52802181242 -2.4324946757 -0.853523555135 -1.36932765414 0.595287272517 1.61517897424 -0.571177674942 1.25122986879
5.2091734313 -1.65521010688 0.003982968871 -4.52787725248 -2.43278379558 -0.853767679939 -1.36930707183 0.594533100487 1.61512436638 -0.571240229789 1.25148946961
5.2283944085 -1.653095007 0.00401575075804 -4.52773291095 -2.43307247865 -0.854011273252 -1.36928679613 0.593779919257 1.61506952888 -0.571303210052 1.25174895937
5.24761601367 -1.65097983797 0.00404847609272 -4.5275887953 -2.43336070995 -0.854254386123 -1.36926685065 0.59302759809 1.61501461373 -0.571366020233 1.25200823718
5.26683820384 -1.64886460472 0.00408111151588 -4.52744491248 -2.43364847558 -0.854497066622 -1.36924725774 0.592276012957 1.61495976536 -0.571428092858 1.25226720696
5.28606089312 -1.64674931646 0.004113692113 -4.52730125284 -2.43393579485 -0.8547393481 -1.36922792094 0.59152541954 1.61490475468 -0.571490424605 1.25252603785
5.30528437623 -1.64463394085 0.00414624714862 -4.52715781335 -2.43422267385 -0.854981024395 -1.3692089598 0.59077567719 1.6148496081 -0.57155272665 1.25278468013
5.32450848138 -1.64251849667 0.00417874514798 -4.5270145988 -2.43450910294 -0.855222223498 -1.36919032484 0.590026793778 1.6147943847 -0.571614859964 1.25304311094
5.34373316562 -1.64040298895 0.00421115202954 -4.52687161626 -2.43479506802 -0.85546299446 -1.36917203903 0.589278642141 1.61473923249 -0.571676240116 1.25330123184
5.36295851335 -1.63828740804 0.00424353574985 -4.52672885086 -2.43508059883 -0.855703241339 -1.36915405337 0.588531475937 1.61468385614 -0.57173803723 1.25355923976
5.38218448165 -1.636171759 0.00427586209962 -4.5265863097 -2.43536568114 -0.855943013485 -1.3691363909 0.587785167791 1.61462840361 -0.571799666598 1.25381703656
5.40141102458 -1.63405604661 0.00430809877002 -4.52644399943 -2.43565030169 -0.856182357374 -1.36911907341 0.587039596841 1.61457301548 -0.571860570923 1.25407452875
5.42063805922 -1.63194028009 0.00434027974852 -4.52630191093 -2.43593447868 -0.856421307395 -1.36910200683 0.586295012068 1.61451746872 -0.57192172903 1.25433188085
5.43986587733 -1.62982442753 0.00437243339765 -4.52616004103 -2.43621821848 -0.856659660072 -1.3690853077 0.585551276553 1.61446178913 -0.571982857269 1.25458904461
5.45909430858 -1.62770850743 0.00440452922973 -4.52601839445 -2.43650151165 -0.85689754125 -1.36906892778 0.584808397863 1.61440603418 -0.572043819118 1.25484599773
5.47832330855 -1.62559252465 0.00443653428907 -4.52587697789 -2.43678434477 -0.857134998276 -1.36905288943 0.58406625228 1.61435034772 -0.572104041521 1.25510264458
5.49755296315 -1.62347646986 0.00446851430327 -4.52573577716 -2.43706674623 -0.857371938607 -1.36903714491 0.583325086487 1.61429444274 -0.572164671845 1.25535917647
5.51678322792 -1.62136034796 0.00450043619315 -4.52559479903 -2.43734870248 -0.85760840988 -1.36902171665 0.582584776561 1.61423846303 -0.572225136767 1.25561549808
5.53601406142 -1.61924416358 0.00453226864705 -4.52545404983 -2.43763020089 -0.857844457065 -1.36900662594 0.581845204643 1.61418254556 -0.572284888584 1.25587151837
5.55524537773 -1.61712792593 0.00456404463186 -4.52531352096 -2.43791125862 -0.858080115456 -1.36899178097 0.581106613352 1.61412647297 -0.572344889381 1.25612739747
5.57447746418 -1.61501160357 0.0045957916111 -4.52517320914 -2.43819188227 -0.858315184273 -1.36897729536 0.580368869317 1.61407027058 -0.572404860203 1.25638308853
5.59371015489 -1.61289521468 0.00462748005566 -4.52503311896 -2.43847206262 -0.858549787248 -1.3689631221 0.579631979812 1.61401399429 -0.572464666981 1.25663856978
5.6129434084 -1.61077876396 0.00465907810625 -4.52489325682 -2.4387517869 -0.858783970083 -1.36894928297 0.578895824491 1.61395778389 -0.5725237479 1.25689374833
5.63217730468 -1.60866224241 0.00469064931974 -4.52475360918 -2.43903108218 -0.859017643524 -1.36893573143 0.578160643211 1.6139013605 -0.57258322784 1.25714881001
5.65141180226 -1.60654565476 0.00472216171743 -4.52461418248 -2.43930993559 -0.859250853551 -1.36892248933 0.577426315425 1.61384486384 -0.572642544728 1.25740366223
5.67064685966 -1.60442900549 0.00475358502164 -4.52447498272 -2.43958833511 -0.859483643582 -1.3689095774 0.576692726455 1.61378842705 -0.572701161442 1.25765821655
5.68988239249 -1.60231230383 0.00478495107662 -4.52433600184 -2.43986629687 -0.859716049941 -1.36889690617 0.575960112221 1.6137318389 -0.572760021302 1.25791262847
5.7091186836 -1.60019551875 0.00481628653872 -4.52419723642 -2.4401438277 -0.859947874423 -1.36888458636 0.575228343055 1.61367512394 -0.572818851132 1.25816685264
5.72835557008 -1.59807866816 0.00484756280966 -4.52405869098 -2.44042091859 -0.860179238688 -1.36887257214 0.574497425948 1.61361833654 -0.57287751927 1.25842086782
5.74759301196 -1.59596175661 0.0048787489878 -4.52392037159 -2.44069755735 -0.860410186995 -1.36886088479 0.573767243441 1.61356161301 -0.572935473037 1.2586745835
5.76683108624 -1.59384477538 0.00490990673634 -4.52378226532 -2.44097376989 -0.860640632969 -1.3688494788 0.57303802954 1.61350468144 -0.572993819031 1.25892818078
5.78606975145 -1.59172772905 0.00494100503785 -4.52364437831 -2.44124954393 -0.860870621139 -1.36883837554 0.572309666589 1.61344767805 -0.573052004326 1.25918156943
5.80530896909 -1.58961062197 0.00497201459591 -4.52350671625 -2.44152486805 -0.861100193455 -1.36882759523 0.571582042927 1.61339073238 -0.573109501791 1.25943466346
5.82454865473 -1.58749346335 0.00500296621009 -4.52336927159 -2.44179975736 -0.86132938714 -1.36881705061 0.570855388114 1.61333363895 -0.573167237115 1.25968761398
5.84378908682 -1.58537622262 0.00503388573031 -4.5232320408 -2.44207421895 -0.861558006574 -1.36880684959 0.570129576002 1.61327642165 -0.573224942403 1.25994037707
5.8630301054 -1.58325891737 0.00506474546196 -4.52309502828 -2.44234824398 -0.861786171379 -1.36879694751 0.56940461331 1.61321913337 -0.573282488352 1.260192932
5.88227167048 -1.58114155203 0.00509551551819 -4.52295823983 -2.44262182089 -0.862013924304 -1.3687873651 0.568680385718 1.61316190667 -0.573339332782 1.2604451908
5.90151385759 -1.57902411815 0.0051262555533 -4.52282166309 -2.44289497436 -0.862241181992 -1.36877805799 0.56795712088 1.61310447714 -0.573396561286 1.26069732949
5.92075662675 -1.57690662018 0.0051569355684 -4.52268530391 -2.44316769272 -0.86246798745 -1.368769047 0.567234704283 1.61304697727 -0.573453631444 1.26094926037
5.93999994093 -1.57478906232 0.00518752721782 -4.5225491677 -2.44343996515 -0.862694381213 -1.36876035183 0.566513027202 1.61298953306 -0.573510025907 1.26120089985
5.95924371572 -1.57267145377 0.0052180602906 -4.52241324738 -2.44371180579 -0.862920401336 -1.36875188742 0.565792313011 1.61293194463 -0.573566653105 1.26145239477
5.9784882251 -1.57055376439 0.00524855985184 -4.52227753931 -2.44398322193 -0.863145854758 -1.36874375893 0.565072438983 1.61287423522 -0.573623250309 1.26170370259
5.99773331208 -1.5684360115 0.00527899908421 -4.5221420478 -2.44425420493 -0.863370859107 -1.36873592283 0.564353411576 1.61281645631 -0.573679690528 1.26195480307
6.01697893668 -1.56631819936 0.00530934906386 -4.52200677836 -2.44452474382 -0.863595455697 -1.36872839933 0.563635119446 1.61275873687 -0.57373544149 1.26220561066
6.03622517442 -1.56420031983 0.00533966753909 -4.52187171922 -2.44479486211 -0.86381956403 -1.36872114515 0.562917784221 1.61270081963 -0.573791568961 1.26245629657
6.05547198385 -1.5620823772 0.00536992547763 -4.52173687591 -2.44506454873 -0.86404322567 -1.36871418057 0.562201294371 1.6126428335 -0.573847540439 1.26270677549
6.07471936792 -1.55996437161 0.00540012281349 -4.52160224819 -2.44533380417 -0.864266441364 -1.3687075047 0.561485649471 1.61258477869 -0.573903356307 1.26295704756
6.09396716668 -1.5578463201 0.00543023355187 -4.52146784026 -2.44560262002 -0.864489326912 -1.36870107492 0.560770855812 1.61252670541 -0.573958891684 1.26320709295
6.11321568966 -1.55572818906 0.00546030944225 -4.52133364295 -2.44587101464 -0.86471165324 -1.36869497352 0.560056899615 1.61246851403 -0.574014397156 1.26345695156
6.13246474138 -1.5536099999 0.00549029374865 -4.52119966652 -2.4461389675 -0.864933579149 -1.36868918072 0.559343668282 1.61241039238 -0.574069173839 1.26370651198
6.15171440032 -1.55149174391 0.00552024805966 -4.52106589861 -2.44640650333 -0.86515501893 -1.36868365019 0.558631399181 1.6123520652 -0.574124370568 1.2639559574
6.17096462353 -1.54937342568 0.00555014143421 -4.52093234505 -2.44667361045 -0.865376016738 -1.36867840378 0.557919972878 1.61229367039 -0.574179413316 1.26420519656
6.19021536215 -1.54725505081 0.00557993557305 -4.52079901305 -2.44694027445 -0.865596626859 -1.36867346883 0.557209240968 1.61223537958 -0.574233585233 1.26445411541
6.20946671391 -1.54513660848 0.00560970702289 -4.52066588739 -2.44720652577 -0.86581674275 -1.36866878781 0.556499499177 1.61217685024 -0.574288321321 1.26470294202
6.2287184774 -1.54301812093 0.00563939224336 -4.52053297971 -2.44747234113 -0.866036532117 -1.36866434757 0.555790605346 1.61211830257 -0.574342781429 1.26495154325
6.24797095031 -1.54089955511 0.00566904135735 -4.52040028099 -2.44773773856 -0.86625576967 -1.36866022829 0.555082546119 1.61205963961 -0.57439721176 1.26519995805
6.26722398453 -1.53878092774 0.00569862922547 -4.52026779539 -2.44800270976 -0.866474569144 -1.3686563886 0.554375327456 1.61200091005 -0.574451489803 1.26544816718
6.28647753118 -1.53666224387 0.00572812152246 -4.52013552924 -2.44826724206 -0.866692979241 -1.36865285308 0.553668815664 1.61194226849 -0.574504965959 1.26569606804
6.30573167914 -1.5345434938 0.0057575868617 -4.52000346906 -2.44853136243 -0.866910904631 -1.3686495698 0.552963276987 1.61188340648 -0.574558940671 1.26594386584
6.32498638249 -1.53242468261 0.00578699079112 -4.51987162124 -2.44879505806 -0.867128394302 -1.36864656341 0.552258577505 1.61182447851 -0.574612764075 1.26619145831
6.34424159976 -1.53030581485 0.00581630230453 -4.51973999144 -2.44905831766 -0.867345492263 -1.36864385615 0.55155459609 1.61176562453 -0.574665845869 1.2664387526
6.36349726281 -1.52818689813 0.00584555904979 -4.51960857184 -2.44932115687 -0.867562223778 -1.36864136122 0.550851580077 1.61170661269 -0.574719247076 1.26668591548
6.38314067878 -1.5260679044 0.00587477850589 -4.51947735954 -2.44958358146 -0.867778410811 -1.36863917996 0.55014939566 1.61164748835 -0.57477261867 1.2669328923
6.40298109471 -1.52394885009 0.00590393633541 -4.51934635861 -2.44984558333 -0.867994165207 -1.36863727205 0.549448048566 1.61158829887 -0.57482584032 1.26717966427
6.42302048778 -1.52182973534 0.00593303249712 -4.51921556879 -2.45010716297 -0.868209487711 -1.36863563662 0.548747538319 1.61152904446 -0.574878912388 1.2674262315
6.4432608026 -1.51971056523 0.00596203252023 -4.51908499631 -2.45036830793 -0.868424427166 -1.3686342986 0.548047729671 1.61146988147 -0.574931171186 1.26767249039
6.46370414963 -1.51759133001 0.00599100531558 -4.51895462791 -2.45062904473 -0.868638887997 -1.36863320536 0.547348891913 1.61141049794 -0.57498394527 1.26791864819
6.48435251346 -1.51547203477 0.0060199162942 -4.51882446987 -2.45088936081 -0.868852919305 -1.36863238195 0.546650889565 1.61135105012 -0.575036570718 1.2681646016
6.50520779428 -1.5133526957 0.00604874187336 -4.51869452614 -2.45114924826 -0.869066631166 -1.36863178891 0.545953728206 1.61129158424 -0.575088929234 1.26841033222
6.52627237949 -1.51123328087 0.0060775290542 -4.51856478805 -2.45140872445 -0.869279805804 -1.36863150239 0.545257395292 1.6112320086 -0.57514125834 1.26865587714
6.54754820927 -1.50911380643 0.00610625427748 -4.51843525956 -2.45166778142 -0.869492553204 -1.36863148307 0.544561896324 1.61117236928 -0.575193439837 1.26890121804
6.56903734965 -1.50699427748 0.00613488282559 -4.51830594685 -2.45192640684 -0.869704922461 -1.36863175628 0.543867094334 1.61111282447 -0.575244797027 1.26914625007
6.59074203996 -1.50487468421 0.00616348413917 -4.51817683677 -2.45218462701 -0.869916817427 -1.36863226868 0.543173262004 1.61105305853 -0.575296684539 1.26939118294
6.6126643892 -1.50275503176 0.00619202337263 -4.51804793553 -2.45244242948 -0.870128287483 -1.36863304568 0.542480262135 1.61099322954 -0.575348425412 1.26963591214
6.63480653302 -1.50063532468 0.00622046946535 -4.51791924859 -2.45269980336 -0.870339376574 -1.36863410995 0.541787971813 1.61093347933 -0.575399410647 1.26988034366
6.65717060115 -1.49851557001 0.00624886173679 -4.51779076837 -2.45295676379 -0.870550106384 -1.36863537587 0.541096641428 1.61087356976 -0.575450742882 1.27012464747
6.67975910247 -1.49639574081 0.00627721457134 -4.5176624921 -2.45321331634 -0.870760306158 -1.36863694127 0.540406136199 1.61081355311 -0.575502045942 1.27036876597
6.70257412078 -1.49427585295 0.00630550516478 -4.51753442367 -2.4534694532 -0.870970084053 -1.36863876784 0.53971646141 1.61075347425 -0.575553203719 1.27061268127
6.72561792652 -1.49215590659 0.0063337334887 -4.51740656283 -2.45372517489 -0.871179440809 -1.36864085473 0.539027616549 1.61069333335 -0.575604216574 1.2708563935
6.74889275902 -1.49003590645 0.0063618673329 -4.51727891514 -2.45398047027 -0.871388421973 -1.3686432256 0.538339473566 1.61063327827 -0.575654445783 1.2710998048
6.77287355382 -1.48791584345 0.00638997112043 -4.51715146865 -2.45423536324 -0.871596938537 -1.36864583046 0.537652287235 1.61057301406 -0.575705169948 1.27134311091
6.79733703296 -1.48579572234 0.00641801253025 -4.517024229 -2.45448984255 -0.87180503629 -1.36864869307 0.536965929288 1.61051268847 -0.575755750132 1.27158621429
6.82229272839 -1.48367555877 0.00644596946787 -4.51689719996 -2.45474390062 -0.872012821693 -1.36865177595 0.53628040487 1.61045234526 -0.575806072177 1.27182909741
6.84775091256 -1.4815553219 0.00647388599879 -4.51677037317 -2.45499755419 -0.872220084171 -1.3686551514 0.535595702191 1.61039189763 -0.575856365314 1.27207179561
6.87372151285 -1.47943502732 0.00650174005121 -4.51664375245 -2.45525079564 -0.872426930089 -1.36865878207 0.534911826323 1.61033138924 -0.575906515486 1.27231429144
6.90021478396 -1.47731467983 0.00652949910551 -4.51651734333 -2.45550361389 -0.872633405346 -1.36866269206 0.534228647267 1.61027097002 -0.575955869801 1.27255648565
6.92724136121 -1.47519427024 0.00655722823718 -4.51639113392 -2.4557560327 -0.87283942017 -1.36866683056 0.533546423655 1.61021034079 -0.57600573525 1.27279857677
6.95481191841 -1.47307380336 0.00658489480648 -4.51626512982 -2.45600804091 -0.873045020725 -1.36867122176 0.532865025266 1.61014965141 -0.576055458699 1.27304046587
6.98321860023 -1.47095328346 0.0066124698336 -4.51613933587 -2.45625962881 -0.873250247945 -1.36867588714 0.53218433588 1.61008903581 -0.576104454813 1.27328206431
7.01248666721 -1.46883271762 0.00663998993919 -4.51601374553 -2.45651080948 -0.873455125977 -1.36868074544 0.531504592005 1.61002826924 -0.576153782939 1.27352353222
7.0426426121 -1.46671207968 0.00666746873418 -4.51588835574 -2.45676158907 -0.873659488121 -1.36868588952 0.530825666325 1.60996740088 -0.576203082451 1.2737648156
7.07371314244 -1.46459138498 0.00669488485722 -4.51576317023 -2.45701196008 -0.873863438984 -1.36869128298 0.53014756371 1.60990647318 -0.576252241304 1.27400589744
7.10604612535 -1.46247063365 0.00672223829178 -4.51563818875 -2.45726192304 -0.874066979291 -1.368696925 0.529470283618 1.60984548635 -0.576301259853 1.27424677786
7.13969278394 -1.46034983014 0.00674949891138 -4.51551341627 -2.457511468 -0.874270151576 -1.36870283805 0.528793704665 1.60978458036 -0.576349522599 1.27448736436
7.175056773 -1.45822896595 0.00677672700264 -4.51538884203 -2.45776061648 -0.874472872839 -1.36870897461 0.528118068182 1.60972347598 -0.576398261673 1.27472784198
7.21222566617 -1.45610804553 0.00680389233493 -4.51526447106 -2.45800935843 -0.874675185836 -1.36871535724 0.527443252576 1.6096623131 -0.576446861378 1.27496811853
7.25168195969 -1.453987084 0.00683097421421 -4.51514030699 -2.45825768657 -0.874877193541 -1.36872195032 0.526769262595 1.60960113317 -0.576495211536 1.27520817731
7.29440889982 -1.45186605156 0.00685801394309 -4.51501634175 -2.45850561704 -0.875078692322 -1.36872882252 0.526096087147 1.60953985402 -0.576543533402 1.27544805199
7.34113995613 -1.4497449633 0.0068849908493 -4.51489257901 -2.45875314252 -0.875279785054 -1.36873593836 0.525423730909 1.60947851699 -0.576591716904 1.27568772595
7.39379895399 -1.44762382367 0.00691187455479 -4.51476902369 -2.45900025316 -0.87548051455 -1.36874332067 0.524752070794 1.60941726388 -0.576639133572 1.27592710547
7.45554751503 -1.44550262413 0.00693872588011 -4.51464566513 -2.45924697029 -0.875680797189 -1.36875092123 0.524081351505 1.60935581176 -0.576687041524 1.27616637805
7.53644503643 -1.44338136916 0.00696551433468 -4.51452250829 -2.45949328396 -0.875880676032 -1.36875876299 0.523411449743 1.60929430237 -0.576734812067 1.27640545026
7.73424898083 -1.44126006277 0.00699221278253 -4.51439955751 -2.45973918552 -0.876080189358 -1.36876686636 0.52274225519 1.60923286269 -0.576781880347 1.27664423819
7.87206830286 -1.44088943991 0.0121518530047 -4.5144296701 -2.45967896034 -0.873677153683 -1.37117958596 0.524515292682 1.60753461143 -0.57571032563 1.279147004
7.96102650752 -1.44052507577 0.0173026465928 -4.51446343565 -2.45961142924 -0.871349668184 -1.37358924851 0.526265656724 1.6058473986 -0.574566605205 1.28160700486
8.02975718167 -1.44016733958 0.0224445914742 -4.51450093648 -2.45953642759 -0.869099656921 -1.37599385468 0.527995101277 1.60417356199 -0.573347728302 1.28402572891
8.08801633529 -1.43981656631 0.0275777325276 -4.5145422316 -2.45945383735 -0.866928751723 -1.37839145149 0.529705476602 1.60251536892 -0.572051046217 1.28640481318
8.1396306091 -1.43947305469 0.0327021597695 -4.51458735698 -2.45936358659 -0.86483828586 -1.38078014505 0.531398712935 1.60087500191 -0.570674264599 1.28874602763
8.18674457386 -1.4391370657 0.0378180065027 -4.51463632591 -2.45926564873 -0.862829290643 -1.38315811224 0.533076804259 1.59925454567 -0.569215452159 1.29105125875
8.23018203196 -1.43880882143 0.0429254464976 -4.51468912986 -2.45916004081 -0.860902495816 -1.38552361126 0.534741790634 1.59765597566 -0.567673044374 1.29332249087
8.27100300507 -1.43841941664 0.048020519989 -4.51474153417 -2.45905523221 -0.859070477522 -1.38787485454 0.536370734221 1.59607955458 -0.566042376722 1.29556513036
8.3097808006 -1.43803816791 0.0531074655766 -4.51479776047 -2.45894277961 -0.857321924698 -1.39021048893 0.537990459332 1.59452852004 -0.564325340069 1.29777749749
8.34661960202 -1.4376651844 0.058186560594 -4.51485774204 -2.45882281647 -0.855656730641 -1.39252904342 0.539603061603 1.5930044946 -0.562521407025 1.29996176904
8.38196837788 -1.43730053634 0.0632581108306 -4.51492139502 -2.45869551049 -0.854074515839 -1.39482915682 0.541210619541 1.59150896256 -0.560630396827 1.30212014684
8.41588953459 -1.43694425632 0.0683224465365 -4.51498862014 -2.45856106027 -0.852574643081 -1.39710958081 0.542815180006 1.59004326775 -0.558652459485 1.30425483925
8.44876845983 -1.43659634086 0.0733799194155 -4.51505930402 -2.4584196925 -0.851156233813 -1.39936918219 0.544418746491 1.58860861198 -0.556588059445 1.30636804458
8.48063944552 -1.43625675228 0.0784308984865 -4.51513332125 -2.45827165804 -0.849818186204 -1.40160694317 0.546023266531 1.58720605623 -0.554437954825 1.30846193442
8.51147910164 -1.43585715928 0.0834665275318 -4.51520620144 -2.45812589765 -0.848577069496 -1.40382061342 0.5476031342 1.58583624808 -0.552194135519 1.31053831296
8.5413768102 -1.43546582251 0.0884962754695 -4.51528219851 -2.45797390353 -0.847414265272 -1.40601068926 0.549187513317 1.58450029991 -0.549866055501 1.31259925288
8.57065349532 -1.43508261742 0.0935205456035 -4.51536115997 -2.45781598059 -0.846328134357 -1.40817647469 0.550778147213 1.5831988843 -0.547455200751 1.31464678076
8.59932435391 -1.43470739412 0.0985397456391 -4.515442928 -2.45765244455 -0.845316891092 -1.4103173803 0.552376691377 1.58193254796 -0.544963261738 1.31668284715
8.62740418449 -1.43433998013 0.10355428496 -4.51552734068 -2.45748361919 -0.844378623989 -1.41243291854 0.553984709986 1.58070171814 -0.542392109006 1.3187093184
8.65490739159 -1.43398018305 0.108564572607 -4.51561423315 -2.45730983424 -0.843511315767 -1.41452269976 0.555603673541 1.57950670764 -0.539743771534 1.32072796892
8.68184797991 -1.4336277931 0.113571014033 -4.51570343943 -2.45713142168 -0.84271286194 -1.41658642478 0.557234956118 1.57834772504 -0.537020409979 1.32274047656
8.70816504184 -1.43321519264 0.11855988418 -4.51579026943 -2.45695776168 -0.84200423773 -1.41862082619 0.558850591463 1.57722644886 -0.534209902847 1.32474556215
8.73394704261 -1.43280963298 0.123545561629 -4.515879138 -2.45678002455 -0.841360763295 -1.42062869301 0.560480980967 1.57614145136 -0.5313281567 1.32674736326
8.75945941047 -1.43241086753 0.128528433296 -4.51596988061 -2.45659853933 -0.840780181513 -1.42260995411 0.56212722314 1.57509268009 -0.528377597235 1.32874726311
8.78470686844 -1.43201864143 0.133508876105 -4.5160623356 -2.45641362935 -0.840260212156 -1.42456460531 0.563790322843 1.57408000778 -0.525360702676 1.33074653943
8.80969399588 -1.43163269372 0.138487255727 -4.51615634472 -2.45622561109 -0.839798565789 -1.42649270327 0.565471194219 1.57310323977 -0.522279986367 1.33274636493
8.8346725422 -1.43125275919 0.143463925577 -4.51625175383 -2.45603479288 -0.839392955965 -1.42839435938 0.567170663736 1.57216212144 -0.519137980805 1.33474780871
8.85989393246 -1.43087857014 0.148439226024 -4.51634841338 -2.45584147379 -0.839041110129 -1.43026973378 0.568889473733 1.57125634539 -0.515937223124 1.33675183865
8.88526595442 -1.43044330343 0.153394686473 -4.51644138818 -2.45565552418 -0.838768297834 -1.43211405632 0.570597828431 1.57038916379 -0.512661312897 1.33875500819
8.91114353827 -1.43001332832 0.15834930125 -4.51653537736 -2.45546754582 -0.838545374481 -1.4339323818 0.57232681581 1.56955672019 -0.509330931368 1.34076232991
8.93753835605 -1.42958837807 0.163303371048 -4.51663024648 -2.45527780759 -0.838370161364 -1.435724977 0.574076958136 1.5687585944 -0.505948558712 1.34277450057
8.96446230493 -1.42916818853 0.168257182143 -4.51672586704 -2.45508656647 -0.838240524028 -1.43749213684 0.575848709447 1.56799433778 -0.502516637713 1.34479212976
8.9919274983 -1.42875249921 0.173211006288 -4.5168221165 -2.45489406754 -0.838154377744 -1.43923417981 0.577642460381 1.56726347866 -0.499037566016 1.34681574458
9.01994627021 -1.42834105409 0.178165100728 -4.51691887837 -2.4547005438 -0.838109691811 -1.44095144388 0.579458542351 1.56656552691 -0.49551368971 1.34884579412
9.04853117838 -1.4279336023 0.183119708271 -4.51701604222 -2.4545062161 -0.838104492985 -1.44264428288 0.581297231546 1.56589997823 -0.491947297959 1.35088265378
9.07755808536 -1.42746412409 0.188051791972 -4.51710837357 -2.4543215534 -0.83816772366 -1.44430616966 0.583127406312 1.56527191356 -0.48831821557 1.35292170101
9.10717360626 -1.42699822311 0.192984737526 -4.517200944 -2.45413641253 -0.83826715776 -1.44594421096 0.584980669239 1.56467535004 -0.484650367011 1.35496810611
9.13769309506 -1.42653566661 0.197918748213 -4.51729366013 -2.45395098029 -0.838401005667 -1.44755878358 0.586857160856 1.5641097673 -0.480945851527 1.35702206155
9.16914535493 -1.42607622855 0.20285401411 -4.51738643439 -2.45376543177 -0.838567541082 -1.44915026853 0.588756981468 1.56357464382 -0.477206699974 1.35908370402
9.20156005547 -1.42561968999 0.207790712566 -4.5174791848 -2.45357993095 -0.838765101599 -1.4507190484 0.590680195476 1.56306945976 -0.473434873563 1.3611531195
9.23530183802 -1.42516583918 0.212729008435 -4.51757183484 -2.45339463087 -0.838992088517 -1.45226550575 0.592626833943 1.56259369876 -0.469632262989 1.36323034668
9.27042611553 -1.42471447166 0.217669054621 -4.51766431323 -2.45320967408 -0.839246966476 -1.45379002106 0.594596898081 1.5621468501 -0.46580068829 1.36531538138
9.30690948024 -1.42420033735 0.222583434323 -4.517751027 -2.45303624654 -0.839561481376 -1.45528428172 0.596558274787 1.56173581458 -0.461917079671 1.3674032457
9.34186509 -1.42368835301 0.22749975808 -4.51783747606 -2.45286334843 -0.839901384494 -1.45675719827 0.598543087734 1.56135280508 -0.458007404171 1.36949884063
9.37547085572 -1.42317833556 0.232418147246 -4.51792360321 -2.45269109413 -0.840265322899 -1.45820913315 0.600551267721 1.56099733965 -0.454073275797 1.37160206129
9.40777962962 -1.42267010906 0.237338713092 -4.51800935579 -2.45251958896 -0.840652001893 -1.45964044193 0.602582725642 1.56066894689 -0.45011624137 1.37371277355
9.43915272518 -1.42216350456 0.242261557123 -4.51809468547 -2.45234892961 -0.841060183512 -1.46105147268 0.604637354535 1.56036716661 -0.446137781753 1.37583081688
9.46961780369 -1.42165836002 0.24718677152 -4.51817954799 -2.45217920456 -0.841488684898 -1.46244256525 0.606715031552 1.56009155051 -0.44213931337 1.37795600718
9.4992016408 -1.42115452012 0.252114439577 -4.51826390304 -2.45201049447 -0.841936376595 -1.46381405067 0.608815619765 1.5598416627 -0.438122189866 1.38008813944
9.52803085024 -1.42058746149 0.257012931903 -4.51834174931 -2.45185480193 -0.84243692983 -1.46515594744 0.610906175984 1.55962605327 -0.434061407054 1.38222246008
9.55630660999 -1.42002145788 0.261913954817 -4.51841904908 -2.45170020239 -0.842954867003 -1.46647873497 0.613019417747 1.55943542585 -0.429984058224 1.38436333181
9.58403988118 -1.41945637273 0.266817568915 -4.5184957722 -2.45154675615 -0.843489206547 -1.46778271208 0.615155177564 1.5592693868 -0.425891322596 1.38651050512
9.61124135985 -1.4188920754 0.271723827556 -4.51857189174 -2.45139451705 -0.844039012462 -1.46906816777 0.61731327939 1.55912755562 -0.421784324638 1.38866371801
9.63792148583 -1.41832844105 0.276632777172 -4.51864738382 -2.45124353291 -0.844603392544 -1.470335381 0.619493539857 1.55900956496 -0.417664135994 1.39082269775
9.664090459 -1.4177653504 0.281544457541 -4.51872222738 -2.45109384577 -0.845181496499 -1.47158462093 0.621695768944 1.55891506038 -0.413531777285 1.39298716225
9.68975823638 -1.41720268954 0.286458902223 -4.51879640411 -2.45094549232 -0.845772514303 -1.47281614657 0.623919771353 1.55884370051 -0.409388220244 1.39515682194
9.71500155485 -1.41657662863 0.291340410285 -4.51886346822 -2.4508113641 -0.846411275875 -1.4740184938 0.626131812768 1.55880544249 -0.405207401708 1.39732751957
9.74000906875 -1.41595081658 0.296224677867 -4.51892986459 -2.45067857135 -0.847061679449 -1.47520349558 0.628365297881 1.55878974567 -0.401016830263 1.39950290156
9.76478306479 -1.41532515404 0.301111722897 -4.51899558182 -2.45054713689 -0.847723024316 -1.47637137804 0.630620021504 1.55879630957 -0.396817344564 1.40168266614
9.78932577638 -1.41469954625 0.30600155826 -4.51906061069 -2.45041707916 -0.848394642853 -1.47752235784 0.632895775624 1.5588248457 -0.392609742222 1.4038665084
9.81363939841 -1.41407390279 0.310894191996 -4.51912494402 -2.4502884125 -0.849075898969 -1.47865664248 0.635192349853 1.55887507717 -0.38839478146 1.40605412113
9.83845592684 -1.41344813745 0.315789627568 -4.51918857656 -2.45016114743 -0.849766186671 -1.47977443035 0.637509532026 1.55894673848 -0.384173182871 1.40824519581
9.86353496291 -1.412822168 0.320687864073 -4.51925150485 -2.45003529084 -0.850464928591 -1.48087591106 0.639847108474 1.55903957512 -0.379945630992 1.41043942323
9.88867421197 -1.4121328415 0.325549247278 -4.51930681473 -2.44992467108 -0.851207490159 -1.4819483463 0.64217052346 1.55916469168 -0.375685739207 1.41263346783
9.91433321865 -1.41144318156 0.330413371343 -4.51936144525 -2.44981541003 -0.851957615497 -1.48300472442 0.644513964908 1.55931054337 -0.371420866685 1.41483013993
9.94052265826 -1.41075311675 0.3352802248 -4.51941539755 -2.44970750544 -0.852714804481 -1.48404520646 0.646877218856 1.55947691017 -0.367151601374 1.41702913467
9.96725340603 -1.41006257901 0.34014979268 -4.5194686742 -2.44960095213 -0.853478580137 -1.48506994566 0.649260071032 1.55966358164 -0.362878501598 1.41923014879
9.99453654013 -1.40937150346 0.345022056652 -4.51952127916 -2.44949574222 -0.85424848749 -1.48607908774 0.651662307048 1.55987035662 -0.35860209736 1.42143288102
10.0223833416 -1.40867982828 0.349896995193 -4.51957321764 -2.44939186526 -0.855024092482 -1.48707277115 0.654083712602 1.56009704286 -0.35432289163 1.42363703248
10.0508053062 -1.40798749459 0.354774583741 -4.51962449606 -2.44928930842 -0.855804980905 -1.48805112733 0.656524073566 1.56034345667 -0.350041361552 1.425842307
10.0795556964 -1.40723202591 0.359611316291 -4.51966771719 -2.44920286616 -0.856626563555 -1.48900035099 0.658947949993 1.56062159863 -0.345731393493 1.42804632153
10.1088994502 -1.40647580669 0.364450601769 -4.51971032025 -2.44911766004 -0.857452801109 -1.48993440209 0.661390404346 1.56091913966 -0.341419739915 1.4302509702
10.1391481006 -1.40571878588 0.36929240847 -4.51975231465 -2.44903367125 -0.858283332741 -1.49085338917 0.663851225822 1.56123592319 -0.337106809383 1.43245596858
10.1703293235 -1.40496091488 0.374136702236 -4.51979371072 -2.4489508791 -0.859117813555 -1.49175741471 0.666330204236 1.56157179989 -0.332792989426 1.43466103594
10.2024716201 -1.4042021474 0.378983446536 -4.51983451974 -2.44886926105 -0.859955913724 -1.49264657562 0.668827129937 1.56192662731 -0.32847864739 1.43686589531
10.2359356655 -1.40344243938 0.383832602607 -4.5198747538 -2.44878879293 -0.860797317806 -1.49352096319 0.67134179407 1.56230026966 -0.324164131486 1.43907027379
10.2707755116 -1.40268174891 0.38868412953 -4.5199144258 -2.44870944894 -0.861641723933 -1.49438066364 0.673873988378 1.56269259738 -0.319849771524 1.44127390252
10.306783689 -1.40185828934 0.393490760237 -4.51994564716 -2.44864700623 -0.862524207598 -1.49521100101 0.676387315855 1.56311627368 -0.315510205489 1.44347542358
10.3413172776 -1.40103378203 0.398299640019 -4.5199763597 -2.44858558114 -0.863409241106 -1.49602673529 0.678917796557 1.56355838765 -0.311171203434 1.4456757632
10.3745185814 -1.40020819076 0.403110723119 -4.52000657823 -2.44852514409 -0.864296559161 -1.49682793493 0.68146522645 1.56401883037 -0.306833046908 1.4478746669
10.4067578799 -1.39938148112 0.40792396202 -4.52003631818 -2.44846566419 -0.865185907297 -1.49761466414 0.684029402131 1.56449749809 -0.302496002465 1.45007188455
10.4380627205 -1.39855362039 0.412739307525 -4.52006559557 -2.44840710939 -0.866077041374 -1.49838698299 0.686610120945 1.56499429198 -0.298160322386 1.45226717044
10.4684598624 -1.39772457749 0.417556708841 -4.52009442701 -2.44834944652 -0.866969727049 -1.49914494765 0.689207180964 1.5655091179 -0.293826245311 1.45446028339
10.4979752979 -1.39689432294 0.422376113645 -4.52012282959 -2.44829264137 -0.867863739271 -1.49988861059 0.691820380944 1.56604188619 -0.289493996831 1.45665098671
10.5266153465 -1.39600178398 0.427146578349 -4.5201424192 -2.44825346213 -0.868793523116 -1.50060260818 0.694412296212 1.56660570925 -0.285139351918 1.45883898519
10.5547020505 -1.39510798741 0.431918908383 -4.52016164052 -2.4482150195 -0.869724298837 -1.50130233929 0.697019977047 1.56718728176 -0.28078678562 1.46102420551
10.5822457758 -1.39421290795 0.436693048132 -4.52018051184 -2.44817727687 -0.870655866345 -1.50198784313 0.699643226033 1.56778652936 -0.276436489523 1.46320642563
10.6092566956 -1.39331652167 0.441468940717 -4.52019905186 -2.44814019682 -0.871588032922 -1.50265915608 0.702281846208 1.56840338116 -0.272088644474 1.46538542788
10.6357439137 -1.39241873084 0.446246370279 -4.52021737569 -2.44810354917 -0.872516446072 -1.5033221307 0.704930373796 1.56903286932 -0.267744501449 1.46755554377
10.6617191348 -1.39151967888 0.451025622416 -4.52023530028 -2.44806769998 -0.873449349545 -1.50396511916 0.707599250024 1.56968479181 -0.263401944893 1.46972756408
10.6871908912 -1.390619252 0.455806441754 -4.52025295396 -2.44803239263 -0.874382297686 -1.50459402313 0.710282886047 1.57035410515 -0.259062355752 1.47189571747
10.7126318361 -1.38965708938 0.460534200409 -4.52026151782 -2.44801526491 -0.875345484678 -1.50519788464 0.712938423899 1.57105007189 -0.254703665576 1.4740562303
10.7375797057 -1.38869356975 0.465263515627 -4.52026979337 -2.44799871381 -0.876312451019 -1.505781885 0.715613503839 1.57176811779 -0.250347177247 1.47621796568
10.7622876402 -1.38772862592 0.4699941851 -4.52027788411 -2.44798253232 -0.877279045741 -1.50635182439 0.718302773692 1.57250334344 -0.245993932722 1.47837533221
10.7867576581 -1.38676224496 0.47472615363 -4.52028580859 -2.44796668336 -0.87824513169 -1.50690770875 0.721006063778 1.57325571813 -0.241644024419 1.48052816344
10.8112340607 -1.38579441189 0.479459356875 -4.52029358782 -2.4479511249 -0.879210563361 -1.50744955322 0.723723182375 1.57402519626 -0.237297564538 1.48267627754
10.8359613375 -1.38482511269 0.484193729702 -4.52030124304 -2.44793581445 -0.880175199911 -1.50797737122 0.72645393819 1.57481173446 -0.232954658058 1.48481949706
10.860941707 -1.38385433428 0.488929206211 -4.52030879571 -2.44792070913 -0.881138904843 -1.50849117465 0.729198140219 1.57561529127 -0.228615403212 1.48695764874
10.885868497 -1.38282256463 0.493607740025 -4.52030689112 -2.4479245183 -0.882130765838 -1.5089803177 0.731911501153 1.57644474829 -0.224259013344 1.48908758121
10.9113014444 -1.38178926093 0.49828721773 -4.52030493102 -2.44792843851 -0.88312491881 -1.50944984466 0.734642558174 1.57729565139 -0.219906071745 1.49121722539
10.9372504363 -1.38075444448 0.502967568681 -4.52030296029 -2.44793237996 -0.884117801507 -1.50990535796 0.737386480149 1.57816338679 -0.215556953383 1.49334137803
10.9637256018 -1.37971810785 0.50764873304 -4.52030099847 -2.4479363036 -0.885109302624 -1.51034685341 0.740143098642 1.57904793593 -0.211211712022 1.49545989881
10.9907372176 -1.37868024203 0.512330642282 -4.52029906762 -2.44794016529 -0.886099304004 -1.51077433433 0.742912225096 1.57994926788 -0.206870418043 1.4975726351
11.0182957429 -1.37764083879 0.517013227347 -4.52029718995 -2.44794392064 -0.887087690686 -1.5111878031 0.745693671151 1.58086735304 -0.202533136545 1.49967943828
11.0464118351 -1.37659989062 0.521696418652 -4.52029538775 -2.44794752504 -0.888074350706 -1.51158726134 0.748487248547 1.58180216294 -0.198199927698 1.50178016367
11.0747211596 -1.3754987756 0.52631888441 -4.52028374441 -2.44797081172 -0.889087665898 -1.5119617117 0.751247984898 1.5827626979 -0.193851444156 1.50387303433
11.1038901645 -1.37439600513 0.530941648079 -4.52027228901 -2.44799372252 -0.890102038144 -1.5123166836 0.754024612792 1.58374418977 -0.189507269561 1.50596436188
11.1339454242 -1.37329167037 0.535564781663 -4.52026100282 -2.4480162949 -0.891114402605 -1.51265763097 0.75681279345 1.58474224002 -0.18516725402 1.50804927181
11.1649134446 -1.37218576831 0.540188222323 -4.52024990577 -2.44803848901 -0.892124665802 -1.51298454398 0.759612358907 1.58575683755 -0.180831423426 1.51012764833
11.1968214562 -1.37107829474 0.544811898932 -4.52023902033 -2.44806025987 -0.893132728413 -1.51329741919 0.762423122493 1.58678796074 -0.176499817875 1.51219936566
11.2300262419 -1.36996924607 0.549435740035 -4.52022836907 -2.4480815624 -0.894138493326 -1.51359625284 0.76524489757 1.58783558863 -0.17217247357 1.51426430173
11.2645799682 -1.36885861936 0.554059673863 -4.52021797456 -2.44810235142 -0.895141865498 -1.513881041 0.768077497464 1.58889970079 -0.167849423075 1.51632233806
11.3001075643 -1.36768871356 0.558619174637 -4.52019735583 -2.44814358889 -0.896170352958 -1.51414060114 0.770875222119 1.58998922002 -0.163513041253 1.5183730124
11.3341770497 -1.36651707594 0.563178308193 -4.52017717305 -2.44818395443 -0.897198837858 -1.51438076307 0.773687062071 1.59109929734 -0.159181550349 1.5204211203
11.3669161133 -1.36534385251 0.567737296385 -4.52015734079 -2.44822361896 -0.898224688448 -1.51460686423 0.776509149513 1.59222569895 -0.154854381214 1.52246206525
11.3983762612 -1.36416904386 0.572296074724 -4.52013787888 -2.44826254278 -0.899247823632 -1.51481889267 0.779341316457 1.59336841778 -0.150531539602 1.52449575433
11.4289092807 -1.36299264974 0.576854570799 -4.52011880975 -2.44830068105 -0.900268157158 -1.51501684217 0.782183377281 1.59452743751 -0.146213043608 1.52652208636
11.4585420216 -1.36181467046 0.58141271205 -4.52010015579 -2.44833798896 -0.901285604307 -1.51520070666 0.785035146297 1.59570274201 -0.141898908435 1.52854096361
11.4873005709 -1.36063510682 0.585970425781 -4.5200819394 -2.44837442174 -0.902300081803 -1.51537048036 0.787896437707 1.59689431524 -0.13758914659 1.53055229164
11.5156296983 -1.35939721372 0.590460084099 -4.52005311387 -2.4484320728 -0.903338096449 -1.51551494145 0.79072080061 1.59811083166 -0.133268089606 1.53255686558
11.5433942015 -1.35815754987 0.594948702879 -4.52002497201 -2.44848835652 -0.904375172393 -1.51564006601 0.793557522945 1.59934755784 -0.128952303306 1.53455805869
11.5706076085 -1.3569163036 0.599436657876 -4.51999736003 -2.44854358047 -0.90540906507 -1.51575109381 0.79640319168 1.60060038928 -0.124640878974 1.53655150931
11.5972804714 -1.35567347857 0.603923884109 -4.51997029732 -2.44859770591 -0.906439702088 -1.51584801358 0.799257638637 1.60186932032 -0.120333807895 1.53853714575
11.6234231059 -1.35442907786 0.608410309031 -4.51994380579 -2.44865068896 -0.907467006366 -1.51593081939 0.802120678839 1.60315433703 -0.116031092213 1.54051488943
11.6490456347 -1.35318310503 0.612895860106 -4.51991790733 -2.44870248588 -0.908490901898 -1.51599950588 0.804992127206 1.60445542532 -0.111732731933 1.54248466492
11.6741544647 -1.35193535283 0.617379833654 -4.51989287096 -2.44875255863 -0.909513133794 -1.51604891441 0.807874543454 1.60577654676 -0.10743991574 1.54445048782
11.6993594881 -1.35063030798 0.621792294984 -4.51985681339 -2.44882467377 -0.910557001464 -1.5160738164 0.810717504103 1.60712141297 -0.103137790347 1.54640965671
11.7250647416 -1.34932370083 0.626203659739 -4.51982143585 -2.44889542885 -0.911597271463 -1.51608460599 0.813568320214 1.60848218493 -0.0988399727345 1.54836073163
11.7512797261 -1.34801553654 0.630613856078 -4.51978675963 -2.44896478129 -0.912633871607 -1.51608127841 0.81642680774 1.60985884972 -0.094546456919 1.55030364878
11.7780141113 -1.34670582066 0.635022812246 -4.51975280594 -2.44903268867 -0.913666730532 -1.51606382962 0.819292782484 1.61125139406 -0.0902572352787 1.55223834734
11.8052777446 -1.34539455913 0.639430456601 -4.51971959588 -2.44909910878 -0.914695777668 -1.51603225644 0.822166060123 1.61265980427 -0.0859722985999 1.55416476941
11.8330806466 -1.34408175828 0.643836717636 -4.51968715045 -2.44916399965 -0.915720943208 -1.51598655653 0.825046456214 1.61408406624 -0.0816916361429 1.55608285996
11.8617165484 -1.34276742482 0.648241524014 -4.51965549051 -2.44922731953 -0.91674215808 -1.5159267285 0.827933786191 1.61552416535 -0.077415235655 1.55799256681
11.8907126601 -1.3413966094 0.652570563999 -4.51961274589 -2.44931280877 -0.917785184618 -1.51583677756 0.830782443024 1.61699172556 -0.0731333174911 1.559900974
11.9205763375 -1.3400242713 0.656898003395 -4.51957084974 -2.44939660106 -0.918824155424 -1.51573272996 0.833637664616 1.6184749536 -0.0688556147971 1.56180097803
11.9513330334 -1.33865041822 0.661223771895 -4.51952982231 -2.44947865592 -0.919859003608 -1.51561458497 0.836499267766 1.61997383568 -0.0645821127487 1.56369253461
11.9833256936 -1.33727505822 0.66554779942 -4.5194896837 -2.44955893314 -0.920889662879 -1.51548234292 0.83936706916 1.62148835741 -0.0603127953059 1.56557560217
12.0166034424 -1.3358981997 0.669870016146 -4.51945045387 -2.44963739281 -0.92191606753 -1.51533600522 0.842240885391 1.62301850379 -0.0560476452355 1.56745014181
12.0512173358 -1.33451985136 0.674190352494 -4.51941215263 -2.44971399529 -0.922938152421 -1.51517557429 0.845120533019 1.62456425929 -0.0517866442756 1.56931611738
12.0875804686 -1.33314002224 0.6785087392 -4.51937479963 -2.44978870129 -0.923955852964 -1.51500105375 0.848005828524 1.62612560767 -0.04752977301 1.57117349528
12.1252025246 -1.33170482585 0.682747898099 -4.51932602339 -2.44988625377 -0.924993400986 -1.51479685353 0.850850020401 1.6277134403 -0.0432699102679 1.57303032872
12.1608809375 -1.33026816233 0.686984969319 -4.51927825503 -2.44998179048 -0.926026469683 -1.5145786173 0.853699498241 1.62931667949 -0.0390141303237 1.57487857936
12.1948104517 -1.32883004159 0.691219884967 -4.51923151346 -2.45007527362 -0.927054996227 -1.51434634999 0.856554080167 1.63093530929 -0.0347624123289 1.57671822074
12.227398934 -1.32739047381 0.69545257749 -4.51918581741 -2.45016666573 -0.928078918246 -1.51410005771 0.859413584274 1.6325693131 -0.0305147345862 1.57854922892
12.2586988782 -1.32594946947 0.699682979685 -4.51914118543 -2.45025592968 -0.929098173818 -1.51383974772 0.862277828671 1.63421867364 -0.0262710746358 1.58037158252
12.2887607492 -1.32450703933 0.703911024754 -4.5190976359 -2.45034302875 -0.930112701472 -1.51356542861 0.865146631477 1.63588337286 -0.0220314091828 1.58218526254
12.3179217803 -1.32306319441 0.70813664628 -4.51905518699 -2.45042792656 -0.931122440169 -1.51327711015 0.868019810869 1.63756339206 -0.0177957142633 1.58399025251
12.3467989501 -1.32156515971 0.712279703791 -4.51900096379 -2.45053637296 -0.93215006643 -1.51295970862 0.870849517503 1.639268788 -0.0135596284591 1.58579553807
12.374532248 -1.32006572706 0.716420209185 -4.51894789697 -2.4506425066 -0.933172818996 -1.51262838528 0.873683249529 1.64098929947 -0.00932746909555 1.58759217917
12.4014329016 -1.31856490824 0.720558097726 -4.51889600386 -2.45074629282 -0.934190638356 -1.51228315166 0.876520827113 1.64272490768 -0.00509921161441 1.58938016567
12.4277864193 -1.31706271523 0.724693305132 -4.51884530159 -2.45084769735 -0.935203465375 -1.51192402063 0.879362070495 1.64447559308 -0.000874830884107 1.59115948977
12.4533479057 -1.31555916027 0.728825767595 -4.51879580709 -2.45094668635 -0.9362112413 -1.51155100641 0.882206800023 1.64624133533 0.0033456987764 1.59293014592
12.4794054561 -1.31405425585 0.732955421788 -4.51874753707 -2.45104322641 -0.937213907752 -1.51116412452 0.885054836176 1.64802211333 0.00756240353037 1.5946921309
12.5059682855 -1.31254801467 0.737082204886 -4.51870050801 -2.45113728453 -0.938211406727 -1.51076339185 0.887905999588 1.64981790518 0.0117753100081 1.5964454437
12.5325018778 -1.31098882148 0.7411232217 -4.51864133914 -2.45125562227 -0.939224845077 -1.51033432486 0.890711402101 1.65163783954 0.0159859289977 1.59819996017
12.5595487778 -1.30942831103 0.745161249567 -4.51858346268 -2.45137137518 -0.940233042204 -1.50989150911 0.893519595221 1.65347256507 0.0201927885541 1.59994587736
12.5873941768 -1.30786649666 0.74919622761 -4.51852689419 -2.45148451215 -0.941235941541 -1.50943496354 0.896330401994 1.65532205957 0.0243959152307 1.60168319986
12.6160612069 -1.30630339185 0.753228095477 -4.51847164901 -2.45159500252 -0.942233486849 -1.50896470844 0.899143645667 1.65718630009 0.0285953358793 1.60341193444
12.6455736551 -1.30473901033 0.757256793363 -4.51841774225 -2.45170281605 -0.943225622225 -1.5084807654 0.901959149708 1.65906526292 0.0327910776272 1.60513209001
12.6762598093 -1.30317336599 0.76128226206 -4.51836518876 -2.45180792303 -0.944212292128 -1.50798315756 0.904776737839 1.66095892346 0.0369831679419 1.60684367751
12.7081658659 -1.30160647291 0.765304442948 -4.51831400315 -2.45191029423 -0.945193441358 -1.5074719094 0.907596234056 1.66286725629 0.0411716345414 1.60854670993
12.7406714531 -1.29998792325 0.769237796898 -4.51825029626 -2.45203770803 -0.946188601993 -1.50693322354 0.910367782003 1.66479837672 0.0453550566724 1.61025190503
12.7718459655 -1.29836814657 0.773167756971 -4.51818800407 -2.45216229239 -0.947178180377 -1.50638102377 0.913140919825 1.66674392883 0.0495348871818 1.61194864156
12.8017777557 -1.29674715746 0.77709426668 -4.51812714024 -2.45228402006 -0.948162122735 -1.50581533668 0.915915474386 1.66870388687 0.0537111531211 1.61363693743
12.8308033149 -1.29512497063 0.78101727015 -4.51806771815 -2.45240286424 -0.949140375611 -1.50523619025 0.918691272869 1.67067822432 0.0578838816744 1.61531681252
12.8589496603 -1.29350160099 0.78493671215 -4.51800975093 -2.45251879868 -0.950112885895 -1.5046436139 0.921468142811 1.67266691379 0.0620531001754 1.61698828857
12.8862430224 -1.29187706357 0.788852538082 -4.51795325147 -2.45263179761 -0.951079600805 -1.50403763843 0.92424591212 1.67466992713 0.0662188360313 1.61865138928
12.9127088632 -1.29025137356 0.792764694028 -4.51789823236 -2.45274183581 -0.952040467921 -1.50341829613 0.927024409113 1.67668723531 0.070381116783 1.62030614016
12.939073573 -1.28857537743 0.796585110498 -4.5178302935 -2.45287771355 -0.953013447715 -1.50277255349 0.929752890658 1.67872586329 0.0745355188781 1.62196404626
12.9646376927 -1.28689825217 0.800401763471 -4.517763877 -2.45301054654 -0.953980531708 -1.5021135939 0.932481803985 1.6807785284 0.078686490353 1.62361371895
12.9894251736 -1.28522001336 0.80421460131 -4.51769899446 -2.45314031162 -0.954941668946 -1.50144145167 0.935210980732 1.6828452013 0.0828340576526 1.62525518794
13.013699603 -1.28354067666 0.808023573062 -4.51763565721 -2.45326698613 -0.955896808814 -1.50075616251 0.93794025298 1.68492585184 0.0869782472338 1.62688848467
13.0374712652 -1.2818602579 0.811828628471 -4.5175738763 -2.45339054794 -0.956845901044 -1.50005776356 0.94066945329 1.68702044906 0.0911190855348 1.62851364233
13.0607502416 -1.28017877298 0.815629717982 -4.51751366253 -2.45351097548 -0.957788895724 -1.49934629337 0.943398414724 1.6891289612 0.0952565989566 1.6301306958
13.0835464286 -1.27849623794 0.819426792757 -4.51745502642 -2.45362824771 -0.9587257433 -1.49862179186 0.946126970868 1.69125135569 0.0993908138534 1.63173968164
13.1064488369 -1.2767647996 0.823129368826 -4.51738305463 -2.45377219128 -0.959672843187 -1.4978720583 0.948803583115 1.69339349866 0.103514242028 1.63335283131
13.128875147 -1.2750323359 0.826827849666 -4.51731269761 -2.45391290532 -0.960613763028 -1.49710946513 0.951479520183 1.69554925051 0.107634388231 1.63495804595
13.1506175252 -1.27329886314 0.83052218884 -4.51724396484 -2.45405037087 -0.961548454832 -1.49633405421 0.954154619418 1.69771857839 0.111751277459 1.63655536557
13.1725524381 -1.27156439771 0.834212340649 -4.51717686549 -2.45418456956 -0.96247687098 -1.49554586879 0.956828718744 1.69990144865 0.115864934618 1.63814483172
13.19490258 -1.26982895607 0.837898260118 -4.5171114085 -2.45431548354 -0.96339896421 -1.49474495344 0.959501656677 1.70209782689 0.119975384455 1.6397264875
13.2176755058 -1.26809255477 0.841579903015 -4.51704760251 -2.45444309552 -0.96431468764 -1.49393135412 0.962173272351 1.70430767793 0.124082651568 1.64130037754
13.2408789095 -1.26635521042 0.845257225881 -4.51698545588 -2.45456738878 -0.965223994788 -1.49310511815 0.964843405557 1.70653096582 0.128186760428 1.64286654794
13.2639236927 -1.26457041528 0.848837447922 -4.51690954035 -2.45471921984 -0.966141741053 -1.49225493714 0.967459822303 1.70877233813 0.132277105693 1.64443788934
13.2874028681 -1.26278470275 0.85241328263 -4.51683531646 -2.45486766762 -0.967053054639 -1.49139231081 0.970074516109 1.71102685967 0.136364301524 1.64600165613
13.3113365038 -1.26099808963 0.855984688968 -4.51676279154 -2.45501271746 -0.967957890699 -1.49051728807 0.972687330904 1.71329449438 0.140448370779 1.64755789718
13.3357632829 -1.25921059276 0.859551626693 -4.51669197262 -2.4551543553 -0.968856204803 -1.48962991925 0.975298111326 1.71557520537 0.144529336185 1.64910666268
13.3606931239 -1.25742222905 0.863114056302 -4.51662286647 -2.4552925676 -0.969747952903 -1.48873025588 0.977906702703 1.71786895509 0.148607220202 1.65064800424
13.3861361407 -1.25563301543 0.866671939089 -4.51655547956 -2.45542734142 -0.970633091381 -1.48781835088 0.980512951117 1.72017570517 0.152682045102 1.65218197472
13.412102643 -1.25384296889 0.87022523712 -4.51648981808 -2.45555866438 -0.971511577034 -1.48689425841 0.983116703398 1.72249541657 0.15675383291 1.65370862832
13.4379524441 -1.25200697107 0.873678991826 -4.51640993777 -2.45571842499 -0.97239674411 -1.48594761271 0.985665137976 1.72483146719 0.160808818313 1.65524144121
13.4645972222 -1.25017016649 0.877128107507 -4.51633181054 -2.45587467945 -0.973275259866 -1.48498898773 0.988210868365 1.72718017937 0.164860768266 1.65676709102
13.4920611656 -1.2483325722 0.880572548666 -4.51625544157 -2.4560274174 -0.974147082834 -1.48401843891 0.990753745885 1.72954151408 0.168909703096 1.65828563402
13.5203691912 -1.24649420531 0.8840122806 -4.51618083574 -2.45617662906 -0.975012171986 -1.48303602298 0.993293622656 1.7319154316 0.17295564289 1.65979712765
13.5498387427 -1.24465508293 0.887447269377 -4.51610799768 -2.45632230519 -0.975870486721 -1.48204179784 0.995830351604 1.7343018915 0.176998607442 1.66130163054
13.5805171866 -1.24281522218 0.890877481869 -4.5160369317 -2.45646443715 -0.976721986902 -1.48103582267 0.998363786503 1.73670085266 0.181038616289 1.66279920243
13.6127731808 -1.24097464019 0.8943028857 -4.51596764187 -2.45660301679 -0.977566632806 -1.48001815774 1.00089378195 1.73911227332 0.185075688607 1.66428990424
13.6459490508 -1.23908965088 0.897626464453 -4.51588366778 -2.45677096498 -0.978416265413 -1.47897942062 1.00336704308 1.74153821937 0.189092866012 1.66578771779
13.6773915713 -1.23720396663 0.900945192892 -4.51580149315 -2.45693531425 -0.979259064352 -1.47792921571 1.00583669165 1.74397631516 0.193107102336 1.66727882023
13.7097984757 -1.2353176046 0.904259041077 -4.51572112103 -2.45709605848 -0.980094991754 -1.47686760427 1.00830258707 1.74642651911 0.197118415088 1.66876327384
13.7442111067 -1.23343058193 0.907567979837 -4.51564255423 -2.45725319207 -0.980924010198 -1.47579464866 1.01076458959 1.74888878901 0.201126821455 1.67024114192
13.7811186859 -1.23154291575 0.910871980777 -4.51556579529 -2.45740670996 -0.981746082724 -1.47471041237 1.01322256038 1.75136308204 0.205132338281 1.67171248879
13.8214973551 -1.22965462319 0.914171016293 -4.51549084644 -2.45755660766 -0.982561172864 -1.47361496 1.01567636152 1.75384935472 0.209134982103 1.67317737973
13.8665610956 -1.22776572134 0.917465059561 -4.51541770967 -2.4577028812 -0.983369244622 -1.47250835723 1.01812585602 1.75634756298 0.21313476911 1.674635881
13.9169515422 -1.22583399798 0.920655156552 -4.51532940937 -2.45787948179 -0.984180677762 -1.47138223573 1.02051739514 1.75885842737 0.217111524429 1.67610239443
13.9616950205 -1.22390169146 0.923840231566 -4.51524294051 -2.45805241952 -0.984985133187 -1.4702451962 1.02290449146 1.76138090988 0.221085413428 1.67756267891
14.0026177497 -1.22196881883 0.927020260101 -4.51515830413 -2.45822169228 -0.985782576782 -1.4690973048 1.025287013 1.76391496684 0.225056450602 1.67901680143
14.0473870498 -1.22003539712 0.930195218388 -4.51507550104 -2.45838729846 -0.986572974875 -1.46793862866 1.02766482865 1.7664605541 0.229024650041 1.68046482994
14.0974658954 -1.2181014433 0.933365083482 -4.51499453175 -2.45854923705 -0.987356294354 -1.46676923601 1.03003780835 1.76901762681 0.232990025577 1.68190683311
14.1422594461 -1.21616697433 0.936529833161 -4.51491539653 -2.45870750748 -0.988132502564 -1.465589196 1.03240582298 1.77158613965 0.236952590612 1.68334288051
14.1844678653 -1.2142320071 0.939689445998 -4.51483809538 -2.45886210979 -0.988901567391 -1.46439857878 1.03476874443 1.77416604668 0.240912358232 1.68477304246
14.2309436799 -1.2122558436 0.942743150622 -4.51474513973 -2.45904802109 -0.989672442991 -1.46319005137 1.03707269337 1.77675669859 0.244845923684 1.68621204961
14.2732114604 -1.21027920753 0.945791699673 -4.51465403405 -2.45923023245 -0.99043623662 -1.461971186 1.03937145135 1.77935842195 0.248776678733 1.6876453306
14.3122540459 -1.20830211569 0.948835073893 -4.51456477749 -2.45940874556 -0.99119291802 -1.4607420528 1.04166489534 1.78197117155 0.252704634777 1.689072956
14.3490420967 -1.20632458481 0.951873254782 -4.51447736895 -2.45958356265 -0.991942457454 -1.45950272284 1.04395290333 1.78459490163 0.256629802876 1.69049499708
14.3884922898 -1.20434663159 0.954906224574 -4.51439180707 -2.45975468641 -0.992684825699 -1.45825326805 1.04623535432 1.78722956594 0.260552193706 1.69191152578
14.4312199571 -1.20236827265 0.957933966247 -4.51430809025 -2.45992212005 -0.993419994058 -1.45699376124 1.04851212835 1.78987511772 0.264471817575 1.69332261475
14.4786979353 -1.20038952457 0.960956463537 -4.51422621663 -2.46008586729 -0.994147934382 -1.45572427608 1.05078310652 1.7925315097 0.268388684445 1.69472833725
14.5223574717 -1.19837124252 0.963871247575 -4.51412818834 -2.46028192386 -0.994876213591 -1.45443852666 1.05299430474 1.79519670698 0.272276156252 1.69614365636
14.5626192842 -1.19635259632 0.96678077839 -4.51403201627 -2.46047426801 -0.995597347332 -1.45314304146 1.05519964852 1.79787241888 0.276160856235 1.69755376394
14.6028880325 -1.19433360238 0.96968504171 -4.51393769779 -2.46066290497 -0.996311309266 -1.45183789364 1.05739902405 1.80055859911 0.280042792725 1.698958733
14.6465004734 -1.19231427704 0.972584024015 -4.51384523004 -2.46084784046 -0.997018073623 -1.4505231572 1.0595923186 1.80325520086 0.283921973749 1.70035863708
14.6946832587 -1.19029463658 0.975477712466 -4.51375460994 -2.46102908066 -0.997717615138 -1.44919890687 1.06177942047 1.80596217693 0.287798406913 1.70175355031
14.7493823343 -1.18827469718 0.97836609496 -4.51366583415 -2.46120663224 -0.998409909119 -1.44786521816 1.06396021905 1.80867947962 0.291672099498 1.70314354732
14.7975789984 -1.18625447495 0.981249160092 -4.51357889912 -2.4613805023 -0.99909493141 -1.44652216729 1.06613460482 1.81140706083 0.295543058392 1.70452870327
14.8495494849 -1.18419641586 0.984022860617 -4.51347530285 -2.46158769484 -0.999778902114 -1.44516451797 1.06824861594 1.81414149298 0.29938141878 1.70592411281
14.8958091009 -1.18213809805 0.986791243555 -4.51337355807 -2.46179118441 -1.00045570493 -1.44379774883 1.0703561951 1.81688587769 0.303217030525 1.7073148293
14.9389613693 -1.18007953746 0.98955429933 -4.51327366054 -2.46199097946 -1.00112531746 -1.44242193517 1.07245723781 1.81964016804 0.307049899022 1.70870092718
14.9864344986 -1.17802074991 0.992312019062 -4.5131756058 -2.46218708894 -1.00178771787 -1.44103715296 1.07455164071 1.82240431669 0.31088002934 1.71008248133
15.0322512523 -1.17596175116 0.995064394522 -4.5130793892 -2.46237952215 -1.00244288485 -1.43964347877 1.07663930144 1.82517827596 0.31470742614 1.71145956707
15.0833724079 -1.17390255686 0.997811418176 -4.51298500582 -2.46256828889 -1.00309079768 -1.43824098985 1.07872011881 1.82796199773 0.318532093766 1.71283226012
15.142660163 -1.17184318257 1.00055308314 -4.51289245059 -2.46275339937 -1.00373143616 -1.43682976404 1.08079399267 1.83075543354 0.322354036172 1.7142006366
15.1944912856 -1.16974770115 1.00318388192 -4.51278272417 -2.46297285221 -1.00436971535 -1.43540560849 1.08280711039 1.83355376443 0.326140178246 1.7155798177
15.2406616381 -1.1676520628 1.00580932901 -4.51267483499 -2.46318863057 -1.00500084503 -1.43397295481 1.08481330456 1.83636148539 0.329923581776 1.71695482105
15.2829005385 -1.16555628289 1.00842941921 -4.51256877735 -2.46340074584 -1.00562480669 -1.43253187951 1.08681248 1.83917854935 0.333704249377 1.71832572163
15.3222806298 -1.16346037666 1.01104414787 -4.51246454539 -2.46360920975 -1.0062415823 -1.43108245956 1.08880454259 1.84200490893 0.337482183256 1.71969259483
15.3593804252 -1.16136435926 1.01365351105 -4.51236213303 -2.46381403449 -1.00685115448 -1.42962477255 1.09078939932 1.8448405164 0.341257385326 1.7210555163
15.3943317133 -1.15926824573 1.01625750538 -4.51226153397 -2.46401523261 -1.00745350634 -1.42815889652 1.09276695826 1.8476853237 0.34502985712 1.72241456204
15.4272586834 -1.15717205101 1.01885612815 -4.51216274176 -2.46421281703 -1.00804862158 -1.42668491003 1.09473712859 1.85053928249 0.348799599818 1.72376980831
15.4616239568 -1.15504150941 1.02134252844 -4.51204626821 -2.46444576412 -1.00864015267 -1.42519964926 1.09664637238 1.85339619185 0.352530354224 1.72513629443
15.4944319374 -1.15291090853 1.02382356999 -4.51193160964 -2.46467508126 -1.0092245925 -1.42370651009 1.09854828572 1.85626193298 0.356258369606 1.72649910879
15.5259604203 -1.15078026308 1.02629925148 -4.51181875908 -2.46490078237 -1.00980192629 -1.42220556931 1.10044278257 1.85913645911 0.359983645907 1.72785832621
15.5562591 -1.14864958765 1.02876957221 -4.51170770942 -2.46512288171 -1.01037213975 -1.42069690413 1.10232977788 1.86201972325 0.363706182713 1.72921402181
15.5862580107 -1.14651889674 1.03123453204 -4.51159845333 -2.46534139389 -1.01093521919 -1.41918059219 1.10420918775 1.8649116781 0.367425979283 1.7305662709
15.6171659337 -1.14438820471 1.03369413143 -4.51149098331 -2.46555633392 -1.01149115147 -1.41765671156 1.10608092935 1.86781227607 0.371143034567 1.73191514899
15.6493286449 -1.14225752584 1.0361483714 -4.51138529173 -2.46576771709 -1.01203992397 -1.41612534063 1.10794492091 1.87072146938 0.374857347123 1.73326073187
15.6833087127 -1.14009428888 1.03848917319 -4.51126141167 -2.4660154772 -1.01258396916 -1.41458432272 1.10974802224 1.87363169225 0.378529509469 1.73461786567
15.7190215464 -1.13793108572 1.04082463273 -4.51113931785 -2.46625966485 -1.01312101976 -1.413036037 1.11154346859 1.87655019709 0.382198924261 1.73597181922
15.756930602 -1.13576793038 1.04315475224 -4.51101900222 -2.46650029611 -1.01365106447 -1.41148055979 1.1133311827 1.87947693788 0.385865588935 1.73732266661
15.7971706788 -1.13360483678 1.04547953451 -4.51090045656 -2.46673738741 -1.01417409256 -1.40991796773 1.11511108836 1.8824118684 0.38952950063 1.73867048204
15.8403860867 -1.1314418187 1.04779898283 -4.51078367254 -2.46697095546 -1.01469009383 -1.40834833776 1.11688311041 1.88535494221 0.393190656127 1.74001533993
15.8806230993 -1.12927888981 1.05011310109 -4.5106686416 -2.46720101734 -1.01519905866 -1.40677174716 1.11864717481 1.88830611259 0.396849051964 1.74135731473
15.9185263848 -1.12711606367 1.05242189363 -4.51055535508 -2.46742759037 -1.01570097791 -1.40518827344 1.12040320854 1.89126533269 0.400504684272 1.74269648113
15.9548356863 -1.12492249478 1.0546161679 -4.51042337915 -2.46769154225 -1.01619710619 -1.40359673828 1.12209858859 1.89422369619 0.404115042468 1.74404737844
15.9892902898 -1.12272904797 1.0568051365 -4.51029315577 -2.46795198901 -1.01668637287 -1.40199853038 1.12378606807 1.89718980437 0.407722638967 1.74539556842
16.0223984424 -1.12053573654 1.05898880482 -4.51016467596 -2.46820894862 -1.01716876999 -1.40039372488 1.12546557821 1.90016361228 0.411327468957 1.7467411238
