liuchen18/hilsys_old/sim_sys/data/fwx_planned_trajectory_he.txt
this is the FWX joint values,the following info is time,x,y,theta,joint1,joint2,joint3,joint4,joint5,joint6,joint7
0.0 0.588957111494 -2.49607760271 0.0206379603948 0.0409040874455 0.777593619374 -0.444390625133 -1.21757791654 -1.31609645268 -1.93091650707 1.21216393484
0.216888366188 0.588885538727 -2.49215632787 0.021464953348 0.042558073352 0.777465110135 -0.444156305806 -1.21799576951 -1.31498903673 -1.92775211926 1.21208371533
0.385677454635 0.588815408048 -2.48823593576 0.0222920214869 0.0442122096297 0.777339819917 -0.443920776917 -1.21840771261 -1.31387923499 -1.9245857588 1.21200167729
0.530220003028 0.588746132239 -2.48431626826 0.0231191739038 0.0458665144634 0.777217919131 -0.443684104327 -1.2188145567 -1.31276735207 -1.92141749291 1.21191836029
0.658459592298 0.588679193214 -2.48039765753 0.0239463543431 0.047520875342 0.777098953955 -0.443446129439 -1.21921423703 -1.3116526468 -1.91824727971 1.21183243477
0.775689326621 0.588613707921 -2.47647987665 0.0247735818737 0.0491753304033 0.776983184616 -0.443206958005 -1.21960797099 -1.31053558627 -1.91507519961 1.21174470563
0.883932104059 0.588548791028 -2.47256270783 0.0256008766908 0.0508299200374 0.776870873772 -0.442966683759 -1.21999698708 -1.30941661998 -1.91190132946 1.21165598017
0.985875919113 0.588486225555 -2.46864652935 0.0264281698963 0.0524845064484 0.776761468939 -0.442725121477 -1.2203787971 -1.3082948596 -1.90872562224 1.21156466021
1.08189255832 0.588425124851 -2.4647311274 0.0272554822178 0.0541391310915 0.77665523511 -0.442482375328 -1.22075462585 -1.30717077332 -1.90554815362 1.21147155232
1.17323575574 0.58836460014 -2.46081629741 0.02808283548 0.0557938376158 0.77655244024 -0.442238536846 -1.22112570992 -1.30604481107 -1.90236899588 1.21137746625
1.26099407438 0.588306440682 -2.45690239043 0.0289101574271 0.05744848151 0.776452519752 -0.441993426007 -1.22148954598 -1.30491608482 -1.89918811167 1.21128080023
1.34531252397 0.588249756422 -2.45298920596 0.0297374704401 0.0591031075362 0.776355744248 -0.441747144996 -1.22184736702 -1.30378506365 -1.89600557205 1.21118236322
1.42714007072 0.588193655339 -2.44907655285 0.0305647979944 0.0607577626448 0.776262386642 -0.441499783224 -1.22220041707 -1.3026521979 -1.89282144466 1.21108296678
1.50654372915 0.588139932518 -2.44516475454 0.0313920644709 0.0624122955976 0.776171871104 -0.441251165936 -1.22254617893 -1.30151660031 -1.88963570174 1.21098100683
1.58359897848 0.588087694705 -2.44125362404 0.0322192939037 0.0640667544632 0.776084472882 -0.441001393283 -1.22288589267 -1.30037874034 -1.88644840976 1.2108772935
1.65837867315 0.588036046836 -2.43734298382 0.0330465114123 0.0657211894805 0.776000470806 -0.440750552116 -1.22322081062 -1.29923906852 -1.88325963183 1.21077264103
1.73167017927 0.587986789398 -2.43343312938 0.0338736380414 0.0673754427386 0.775919276057 -0.440498473807 -1.22354840018 -1.29809669883 -1.88006934959 1.21066544142
1.80350630078 0.587939026143 -2.4295238874 0.0347006994694 0.0690295655947 0.775841170274 -0.440245255863 -1.22386991016 -1.29695210102 -1.87687762496 1.21055650768
1.87391888299 0.587891859173 -2.42561509414 0.0355277224575 0.0706836115708 0.775766437286 -0.439990982518 -1.22418660014 -1.2958057253 -1.87368451662 1.21044665555
1.94293141529 0.587847093946 -2.42170701686 0.036354624735 0.0723374161259 0.775694476348 -0.43973549155 -1.22449592343 -1.29465668776 -1.87049001537 1.21033427452
2.01057449546 0.587803831429 -2.41779949607 0.0371814336226 0.0739910339012 0.775625574397 -0.439478877802 -1.22479913636 -1.29350545792 -1.8672941787 1.21022017915
2.07687783796 0.587761171103 -2.41389238203 0.0380081775162 0.0756445216884 0.775560020822 -0.439221222523 -1.22509750621 -1.2923524854 -1.8640970609 1.21010518712
2.14186400282 0.58772092296 -2.40998591341 0.0388347708565 0.0772977083689 0.775497202635 -0.438962370471 -1.22538847208 -1.29119688909 -1.86089866174 1.2099876853
2.20493086415 0.587682185393 -2.40607994476 0.0396612425994 0.0789506518546 0.775437412387 -0.438702413501 -1.22567329805 -1.29003913792 -1.85769903434 1.20986848995
2.26736747591 0.587644055478 -2.40217434045 0.0404876227688 0.0806034121935 0.775380945177 -0.438441429594 -1.22595325914 -1.28887968062 -1.85449822869 1.20974842076
2.32917681458 0.587608347299 -2.39826931033 0.0413138225453 0.0822558117464 0.775327175093 -0.438179271147 -1.22622577979 -1.28771763946 -1.85129625333 1.2096258614
2.39036724022 0.587574156891 -2.39436472311 0.0421398725126 0.0839079116811 0.775276400761 -0.437916026669 -1.22649213215 -1.28655348253 -1.84809315708 1.20950163022
2.45094682824 0.587540579145 -2.39046045745 0.0429658043158 0.0855597752875 0.775228922746 -0.437651770679 -1.2267535986 -1.28538765722 -1.84488898572 1.20937654849
2.51091890257 0.587509431783 -2.38655669408 0.043791525903 0.0872112184618 0.775184103191 -0.437386363494 -1.22700759019 -1.28421929008 -1.84168375629 1.20924899794
2.57029133347 0.587479808708 -2.38265331606 0.044617069479 0.0888623056139 0.775142246 -0.437119890202 -1.22725538619 -1.28304884783 -1.83847751343 1.209119798
2.6290717233 0.587450802842 -2.37875021646 0.0454424683017 0.0905131032593 0.775103657349 -0.436852421574 -1.22749827639 -1.28187677623 -1.83527029879 1.20898977158
2.68726372252 0.587424235096 -2.37484754666 0.0462676271178 0.0921634208915 0.775067687189 -0.436583826411 -1.22773365839 -1.28070220674 -1.83206213771 1.20885729831
2.74487473253 0.587399197459 -2.3709452042 0.0470925797445 0.093813326145 0.775034644939 -0.436314186067 -1.22796281874 -1.27952560443 -1.82885307071 1.20872319887
2.80191189937 0.587374781114 -2.36704309669 0.0479173610435 0.0954628887429 0.775004842591 -0.436043567271 -1.2281870547 -1.27834741303 -1.82564313541 1.20858829791
2.85837917911 0.587352809696 -2.36314134595 0.0487418725923 0.0971119118404 0.774977617604 -0.435771847872 -1.22840375037 -1.27716676963 -1.8224323652 1.20845097277
2.91428352521 0.587332373508 -2.35923986411 0.0495661498109 0.0987604662777 0.774953285185 -0.435499105179 -1.22861419974 -1.27598413729 -1.81922079658 1.20831204555
2.96963164834 0.587312562222 -2.35533857348 0.0503902291557 0.100408624967 0.774932162992 -0.435225401656 -1.22881970724 -1.27479995735 -1.81600846322 1.20817234239
3.02442779342 0.587295201733 -2.35143756607 0.0512140090679 0.102056184792 0.774913576053 -0.43495062469 -1.2290176438 -1.27361337324 -1.81279540634 1.2080302385
3.07814134516 0.587279380886 -2.34753676875 0.0520375265609 0.103703219778 0.774897845367 -0.434674847283 -1.2292093107 -1.27242484561 -1.80958165851 1.20788655733
3.13238998317 0.587264188072 -2.34363611862 0.0528608196754 0.105349806007 0.774885294496 -0.43439812733 -1.22939601969 -1.27123481311 -1.80636724955 1.20774212666
3.18717817006 0.587251450978 -2.33973567774 0.0536837837507 0.106995734157 0.77487523563 -0.434120362349 -1.22957512833 -1.27004242615 -1.80315222824 1.2075953192
3.2425120974 0.587240257221 -2.3358353878 0.0545064573831 0.108641081422 0.774867995821 -0.433841620719 -1.22974794534 -1.26884814265 -1.79993662333 1.20744695995
3.29839788977 0.587229694144 -2.3319352008 0.055328880187 0.11028592703 0.774863904381 -0.433561955554 -1.22991578951 -1.26765239817 -1.79672046089 1.20729787811
3.35484058328 0.587221590754 -2.32803514868 0.0561509444352 0.111930055526 0.774862261082 -0.433281274887 -1.23007600572 -1.26645435083 -1.79350379702 1.2071464444
3.41184636951 0.587215033675 -2.32413518806 0.0569726902958 0.113573547248 0.774863398806 -0.432999642276 -1.23022990976 -1.26525445545 -1.79028665673 1.20699348503
3.45502760751 0.587210590494 -2.32121026147 0.0575887917831 0.114805750222 0.774866588927 -0.432787739992 -1.23034159767 -1.26435347195 -1.78787346102 1.20687824391
3.49820831384 0.587207532536 -2.31828537084 0.0582046759324 0.116037518521 0.774871132327 -0.432575283154 -1.23044898113 -1.26345122242 -1.78546004207 1.20676169365
3.54138867689 0.587205345524 -2.3153605032 0.0588203673931 0.117268901442 0.77487722082 -0.432362302891 -1.23055280494 -1.26254795721 -1.78304640751 1.20664429836
3.58456883062 0.587204029754 -2.31243565005 0.0594358621646 0.118499890985 0.774884848742 -0.432148801823 -1.230653067 -1.26164368189 -1.78063257266 1.20652606227
3.62774889226 0.587202971097 -2.30951080297 0.0600511916873 0.11973055003 0.774894361179 -0.431934776697 -1.23075078124 -1.26073868951 -1.77821853793 1.20640766687
3.67092899995 0.587203298449 -2.30658595255 0.060666286886 0.120960740428 0.774904975691 -0.431720277323 -1.23084394139 -1.25983244676 -1.77580434767 1.20628772588
3.71410929183 0.587204497851 -2.30366109012 0.0612811741442 0.122190514944 0.77491722598 -0.431505237778 -1.23093365002 -1.25892522419 -1.77338999854 1.20616708081
3.75728986001 0.587206569331 -2.30073620856 0.0618958491389 0.123419864934 0.77493099342 -0.431289691653 -1.23101978758 -1.25801701937 -1.77097550903 1.20604561074
3.80047070031 0.587208998639 -2.29781130879 0.0625103384515 0.124648843559 0.774946588013 -0.431073628519 -1.23110322542 -1.25710807832 -1.76856088019 1.20592390828
3.84365221878 0.587212814515 -2.29488636303 0.0631245769328 0.125877320521 0.774963258487 -0.430857111314 -1.23118209565 -1.25619792056 -1.76614615732 1.20580067411
3.88683441125 0.587217502971 -2.29196137166 0.0637385919752 0.127105350606 0.774981542086 -0.430640068407 -1.23125750544 -1.25528681177 -1.76373133559 1.20567675188
3.93001738238 0.587223063901 -2.28903632736 0.0643523792228 0.128332925102 0.775001319898 -0.430422534378 -1.23132933503 -1.25437475052 -1.76131643332 1.20555202012
3.97320099819 0.587228983084 -2.28611123981 0.0649659661582 0.129560098972 0.775022905723 -0.430204494516 -1.23139846011 -1.2534619794 -1.75890144982 1.20542707314
4.01638592014 0.587236288836 -2.28318606351 0.0655792858486 0.130786738353 0.775045540816 -0.42998602153 -1.23146300489 -1.25254802644 -1.75648643348 1.20530060843
4.05957201007 0.587244467285 -2.28026080793 0.0661923666696 0.132012899995 0.775069766077 -0.429767037659 -1.23152408131 -1.25163315188 -1.75407137812 1.20517347209
4.1027593852 0.587253518193 -2.27733546557 0.0668052042405 0.133238575137 0.775095462283 -0.429547578565 -1.23158156932 -1.25071735542 -1.75165630182 1.20504554201
4.14594776923 0.587262927497 -2.27441005487 0.0674178269318 0.134463820519 0.77512294691 -0.429327625073 -1.23163634881 -1.24980087592 -1.74924120231 1.20491741407
4.18913809152 0.587273722817 -2.27148451259 0.0680301660537 0.135688498763 0.775151453641 -0.429107260091 -1.23168653603 -1.24888325043 -1.7468261308 1.20478778237
4.23233008415 0.587285390538 -2.26855885732 0.0686422509571 0.13691266857 0.775181527372 -0.428886399405 -1.23173324804 -1.2479647335 -1.7444110799 1.20465749589
4.27552386016 0.587297930284 -2.26563308138 0.0692540772395 0.138136321135 0.775213048898 -0.428665079682 -1.23177636483 -1.24704532599 -1.74199606744 1.2045264322
4.31871901346 0.587310828293 -2.262707212 0.0698656741485 0.139359514953 0.775246338489 -0.428443277399 -1.23181676946 -1.24612526278 -1.73958108959 1.20439518783
4.36191674552 0.587325111208 -2.25978116816 0.0704769712616 0.140582109179 0.775280622956 -0.428221085783 -1.23185257112 -1.24520409039 -1.73716620027 1.20426245411
4.40511664192 0.587340265813 -2.25685497761 0.0710879988952 0.141804164446 0.775316450921 -0.427998414026 -1.23188489165 -1.24428205741 -1.73475139093 1.20412908271
4.44831881985 0.587356291593 -2.25392863249 0.0716987526251 0.143025671906 0.775353702583 -0.427775300024 -1.2319136104 -1.24335916584 -1.73233667914 1.20399495014
4.49152274766 0.587372675223 -2.25100216883 0.0723092625711 0.144246691798 0.775392701995 -0.427551715451 -1.23193961457 -1.24243564644 -1.7299220596 1.2038606547
4.53472988219 0.587390442093 -2.24807548782 0.0729194565991 0.145467079854 0.775432668788 -0.427327764266 -1.23196100612 -1.24151105562 -1.72750758874 1.20372488451
4.5779396834 0.587409079527 -2.24514862639 0.0735293659813 0.146686898618 0.775474155104 -0.427103348921 -1.23197891137 -1.24058563569 -1.72509325695 1.20358849375
4.62115226433 0.587428586871 -2.2422215765 0.0741389862761 0.147906139208 0.775517041149 -0.426878508378 -1.23199320968 -1.23965938986 -1.72267908154 1.20345135855
4.66436696771 0.587448451373 -2.239294383 0.0747483484644 0.149124863585 0.775561654028 -0.426653209593 -1.23200479155 -1.23873254453 -1.7202650558 1.20331407818
4.70758550995 0.587469696893 -2.23636692929 0.075357378724 0.150342924104 0.775607206583 -0.426427567442 -1.23201175222 -1.23780466642 -1.71785123849 1.20317533783
4.75080721704 0.587491811439 -2.23343926147 0.0759661092745 0.151560385205 0.775654254517 -0.426201477421 -1.23201522251 -1.23687599131 -1.71543761906 1.20303599438
4.79403220201 0.587514794212 -2.23051137135 0.0765745356573 0.152777237971 0.775702677666 -0.425974979704 -1.23201508136 -1.23594652363 -1.7130242145 1.20289592305
4.83725967784 0.587538133174 -2.22758331257 0.0771826897072 0.15399354607 0.775752806542 -0.425748036276 -1.23201222286 -1.23501648525 -1.7106110168 1.20275572454
4.88049162884 0.587562850378 -2.22465495079 0.0777904959372 0.15520915853 0.775803847365 -0.425520773172 -1.23200473588 -1.23408545359 -1.70819808684 1.20261408119
4.92372723449 0.587588434657 -2.22172634128 0.078397987502 0.15642414166 0.775856358732 -0.425293078953 -1.23199375496 -1.23315365762 -1.70578541325 1.20247185187
4.96696662457 0.587614885067 -2.21879747567 0.0790051599316 0.157638486519 0.775910220854 -0.425064994785 -1.23197915939 -1.23222110304 -1.70337301269 1.20232891176
5.01020886971 0.58764169042 -2.21586841644 0.0796120459041 0.158852258464 0.775965767233 -0.424836477684 -1.23196184633 -1.23128800697 -1.70096087589 1.2021858625
5.05345622216 0.587669870687 -2.21293901148 0.0802185682895 0.160065303235 0.776022197415 -0.424607665149 -1.23193989837 -1.23035395791 -1.69854906572 1.20204138339
5.09670772324 0.587698915667 -2.21000932526 0.0808247611722 0.161277689 0.77608007351 -0.424378438407 -1.23191445435 -1.22941917781 -1.69613757004 1.20189633613
5.13996350693 0.587728824272 -2.20707934925 0.0814306200694 0.162489406795 0.776139275513 -0.424148839834 -1.23188539331 -1.22848367362 -1.69372640519 1.20175059508
5.18322251407 0.587759086297 -2.20414915472 0.0820361784944 0.163700523645 0.776200139966 -0.423918821339 -1.23185361541 -1.22754765757 -1.6913155607 1.20160476297
5.22648725228 0.587790719359 -2.20121857185 0.0826413576982 0.164910882052 0.776261860127 -0.423688532019 -1.23181719755 -1.22661072959 -1.68890510126 1.20145751635
5.2697566373 0.587823214365 -2.1982876743 0.0832461926826 0.166120552021 0.776325001009 -0.423457845797 -1.23177728216 -1.22567310435 -1.68649501407 1.20130971911
5.3130307989 0.587856570079 -2.19535645338 0.0838506789567 0.167329524569 0.776389442856 -0.423226806123 -1.23173374848 -1.22473479009 -1.6840853151 1.20116124535
5.35630855236 0.587890277416 -2.19242498915 0.0844548508595 0.168537868375 0.776455525099 -0.422995359725 -1.23168749944 -1.22379599396 -1.68167599277 1.20101269872
5.39959266483 0.58792535137 -2.18949309412 0.0850586280449 0.169745422746 0.776522434777 -0.422763667536 -1.23163660647 -1.22285632768 -1.67926711343 1.20086275294
5.44288191391 0.587961284092 -2.18656085113 0.0856620464249 0.170952259506 0.776590739959 -0.422531595944 -1.2315822157 -1.22191599839 -1.67685866369 1.20071227441
5.48617642937 0.587998074198 -2.18362825132 0.0862651014997 0.172158369655 0.776660320746 -0.422299189632 -1.23152420613 -1.22097501568 -1.67445065915 1.20056113642
5.5294749009 0.58803521386 -2.18069538352 0.086867828427 0.17336382351 0.776731519727 -0.422066389939 -1.23146348366 -1.22003358144 -1.6720430872 1.20040994395
5.57278035938 0.588073715175 -2.17776204265 0.0874701452847 0.174568457225 0.776803517648 -0.421833369904 -1.23139811435 -1.21909131949 -1.66963601564 1.20025736762
5.61609144427 0.588113071685 -2.17482832069 0.0880720888891 0.175772344434 0.776876885983 -0.421599988079 -1.2313292483 -1.21814842923 -1.66722943062 1.20010427687
5.65940828534 0.588153281849 -2.17189420864 0.0886736547287 0.176975476113 0.776951504097 -0.421366290629 -1.23125676366 -1.2172049216 -1.66482334734 1.19995054346
5.70272944669 0.588193839235 -2.16895980405 0.0892748787741 0.178177924204 0.777027718068 -0.421132213264 -1.23118156953 -1.21626099311 -1.66241775222 1.19979677409
5.74605821039 0.588235752776 -2.16602488433 0.0898756775507 0.179379521757 0.777104702717 -0.420897941224 -1.23110172717 -1.21531627996 -1.66001271437 1.1996416366
5.78939309029 0.588278517535 -2.16308955057 0.0904760887634 0.180580344183 0.777183031807 -0.420663325486 -1.23101838941 -1.21437097363 -1.65760821954 1.19948600225
5.83273421617 0.588322131824 -2.16015379364 0.0910761078999 0.181780382456 0.777262585329 -0.420428413204 -1.23093143494 -1.2134250864 -1.65520428255 1.19932974281
5.87608002234 0.588366090733 -2.15721771977 0.0916757717287 0.182979710113 0.777343711922 -0.420193134707 -1.230841775 -1.21247880926 -1.65280088887 1.19917346571
5.91943405044 0.588411399767 -2.15428108896 0.092274995245 0.184178157146 0.777425580653 -0.419957687585 -1.23074746643 -1.21153179108 -1.65039810881 1.19901583602
5.96279467199 0.588457555653 -2.15134401137 0.0928738170381 0.185375800732 0.77750876811 -0.419721914885 -1.23064966524 -1.2105842152 -1.64799592778 1.19885772755
6.00616202931 0.588504556549 -2.14840647773 0.0934722325911 0.186572631838 0.777593154217 -0.419485865035 -1.23054824996 -1.2096360953 -1.64559436019 1.19869901127
6.04953441858 0.5885518992 -2.14546860294 0.0940702794647 0.187768725585 0.777679090512 -0.419249462757 -1.23044413419 -1.20868761671 -1.64319339067 1.19854029572
6.09291564935 0.588600585423 -2.14253012965 0.0946678711455 0.188963908947 0.777765740454 -0.419012918134 -1.2303353707 -1.20773844119 -1.64079309052 1.19838024327
6.1363039508 0.588650113741 -2.13959117709 0.0952650470962 0.190158260848 0.777853683 -0.418776066324 -1.23022311811 -1.20678874381 -1.63839344493 1.19821972985
6.17969946946 0.588700482161 -2.13665173583 0.0958618028007 0.191351772257 0.777942798588 -0.418538956809 -1.23010725539 -1.2058385396 -1.63599446787 1.19805862626
6.22310038009 0.588751189214 -2.1337119294 0.0964581766001 0.192544519856 0.778033441179 -0.418301508813 -1.2299886979 -1.20488800816 -1.63359614319 1.19789754164
6.26651073504 0.588803232767 -2.13077148322 0.0970540804956 0.193736327647 0.778124768956 -0.418063944956 -1.22986549489 -1.20393682436 -1.63119854306 1.1977351359
6.30992863792 0.588856113278 -2.12783052552 0.0976495548151 0.194927276286 0.778217363257 -0.417826092371 -1.22973880751 -1.20298515482 -1.6288016525 1.19757228722
6.35335423943 0.588909828597 -2.12488904674 0.0982445950405 0.196117356737 0.778311104451 -0.417588001855 -1.22960851453 -1.20203301598 -1.62640548504 1.19740886548
6.39678558037 0.588963879171 -2.12194717896 0.0988392402894 0.197306647235 0.778406349506 -0.41734958681 -1.22947553359 -1.20108058155 -1.62401002381 1.19724548119
6.44022696847 0.589019258666 -2.11900463052 0.0994334010969 0.19849496885 0.778502251236 -0.417111082595 -1.22933791052 -1.20012753973 -1.6216153417 1.19708079152
6.48367638592 0.589075469602 -2.11606153859 0.100027118649 0.199682403953 0.778599393306 -0.416872308222 -1.22919680885 -1.19917404854 -1.61922142363 1.19691567695
6.52713396668 0.589132509675 -2.11311789349 0.100620388425 0.200868943505 0.778697655995 -0.416633315831 -1.2290521071 -1.19822012586 -1.61682828269 1.19675000638
6.57059763853 0.589189881376 -2.11017383577 0.101213250312 0.202054667279 0.778797399309 -0.416394012905 -1.22890472513 -1.19726593939 -1.61443590135 1.19658439177
6.61407195617 0.589248573917 -2.10722905685 0.101805613399 0.203239393455 0.778897770786 -0.416154647663 -1.22875270565 -1.19631119084 -1.61204435305 1.19641748753
6.65755476785 0.58930809201 -2.10428370277 0.102397519721 0.204423206097 0.778999356115 -0.415915031012 -1.22859721415 -1.19535602953 -1.60965362273 1.19625017616
6.7010462117 0.589368433202 -2.10133776372 0.102988964762 0.205606096179 0.77910203621 -0.415675216129 -1.22843812969 -1.1944004747 -1.60726372301 1.19608232644
6.74454409411 0.589429102146 -2.09839138869 0.103579989162 0.20678814498 0.779206173263 -0.415435104892 -1.22827637327 -1.19344468806 -1.60487463573 1.19591455078
6.78805322095 0.589491083356 -2.09544425229 0.104170500589 0.207969167834 0.779310909941 -0.415194958329 -1.22810998518 -1.19248838493 -1.6024864348 1.19574550117
6.83157129813 0.58955388387 -2.09249650938 0.104760541919 0.209149250494 0.779416834186 -0.414954579038 -1.22794013297 -1.1915317058 -1.6000991052 1.19557606255
6.87509847218 0.589617501073 -2.08954815003 0.105350108636 0.210328383929 0.779523826781 -0.414714021596 -1.22776669541 -1.19057467135 -1.59771265908 1.19540610259
6.91863242805 0.589681441916 -2.08659933161 0.105939242133 0.211506650922 0.779632252779 -0.41447318191 -1.22759059529 -1.18961743714 -1.59532707773 1.19523623499
6.96217821026 0.589746685966 -2.08364971205 0.106527848672 0.212683864001 0.77974124991 -0.414232333965 -1.22740987058 -1.18865973228 -1.59294243536 1.19506510917
7.00573340749 0.589812742712 -2.08069945498 0.107115971963 0.213860110581 0.779851408051 -0.413991272103 -1.22722569047 -1.18770168831 -1.5905587171 1.19489361216
7.04929816207 0.589879609387 -2.07774855035 0.107703607495 0.215035381646 0.779962608387 -0.413750052065 -1.22703793401 -1.18674332734 -1.58817593459 1.19472161115
7.0928700292 0.589946795351 -2.07479716381 0.108290797398 0.216209761453 0.780075218309 -0.413508563984 -1.22684752508 -1.18578479874 -1.58579406864 1.19454972055
7.13645430457 0.590015274991 -2.07184493683 0.108877446556 0.217383059768 0.780188371011 -0.413267094708 -1.22665249999 -1.1848258455 -1.58341319363 1.19437658757
7.18004844708 0.590084560367 -2.06889204167 0.109463599498 0.218555365653 0.780302657923 -0.413025430428 -1.22645402905 -1.18386659017 -1.58103329489 1.19420310096
7.22365259906 0.590154648562 -2.06593846822 0.110049251723 0.219726670102 0.780417960758 -0.412783627997 -1.2262519917 -1.18290705624 -1.57865438356 1.19402912755
7.26726420268 0.590225051467 -2.06298439031 0.110634446091 0.220897058839 0.780534649392 -0.412541571661 -1.22604731294 -1.18194738685 -1.57627643999 1.19385528268
7.31088878807 0.590296738052 -2.0600294331 0.111219086124 0.222066338903 0.780651852365 -0.412299561274 -1.22583802757 -1.18098733896 -1.57389953866 1.19368021106
7.35452368015 0.590369223077 -2.05707377747 0.111803217168 0.223234600991 0.780770162959 -0.412057374655 -1.2256253072 -1.180027026 -1.57152366513 1.19350480366
7.39816903803 0.590442503468 -2.05411741317 0.112386834727 0.22440183611 0.780889463201 -0.411815069884 -1.22540903142 -1.1790664729 -1.56914883002 1.19332892665
7.44182216988 0.590516093765 -2.05116052216 0.112969982385 0.225568131425 0.781010125177 -0.411572525423 -1.22519012595 -1.17810581655 -1.56677501331 1.19315319594
7.48548884865 0.590590957292 -2.0482027135 0.11355256232 0.226733291295 0.781131273143 -0.411330054009 -1.22496662467 -1.1771448279 -1.56440228941 1.19297625418
7.52916628206 0.590666611627 -2.04524417655 0.114134620688 0.227897408031 0.781253501906 -0.411087425197 -1.22473970004 -1.17618361124 -1.5620306442 1.19279899417
7.57285461664 0.590743053545 -2.04228490099 0.114716153001 0.229060472658 0.781376694007 -0.410844698199 -1.22450923202 -1.1752221929 -1.55966008778 1.19262128166
7.61655105172 0.590819800348 -2.03932507678 0.115297203556 0.230222573768 0.781501223831 -0.410601745628 -1.224276147 -1.17426070348 -1.55729059979 1.19244373328
7.66026159469 0.590897809491 -2.03636429707 0.115877673211 0.231383513078 0.781626211417 -0.410358893113 -1.22403847828 -1.17329892795 -1.55492225448 1.19226498958
7.70398332349 0.590976601485 -2.03340275964 0.116457608919 0.232543384494 0.781752252789 -0.410115902051 -1.22379739867 -1.17233696148 -1.55255503807 1.19208594493
7.74771638882 0.591056172955 -2.03044045407 0.117037006204 0.233702179064 0.781879231267 -0.409872832657 -1.22355278883 -1.17137483174 -1.55018896017 1.19190646492
7.79145787702 0.591136044076 -2.02747757823 0.117615910067 0.23485998679 0.782007523338 -0.409629551783 -1.22330557544 -1.17041266305 -1.5478240001 1.19172716669
7.83521402151 0.591217166217 -2.02451370961 0.118194220063 0.236016606782 0.782136244897 -0.409386397933 -1.22305379155 -1.16945025442 -1.54546023184 1.19154668873
7.87898177883 0.591299062941 -2.02154905425 0.118771983941 0.237172134538 0.7822659936 -0.409143124098 -1.22279861068 -1.16848769176 -1.54309764203 1.19136592753
7.92276130806 0.591381730714 -2.01858360166 0.119349197227 0.23832656111 0.782396652676 -0.408899791957 -1.22253991318 -1.16752500426 -1.54073623976 1.19118474744
7.96654956995 0.591464692701 -2.01561755755 0.119925905627 0.239479977909 0.782528601312 -0.408656262277 -1.22227862658 -1.16656230982 -1.53837600407 1.19100376683
8.01035303234 0.591548893968 -2.01265048389 0.120502007406 0.240632181468 0.782660951118 -0.408412886524 -1.22201278376 -1.16559942155 -1.53601700859 1.19082162192
8.0541685262 0.591633861246 -2.00968259498 0.121077551106 0.241783268869 0.782794301451 -0.40816940921 -1.22174355892 -1.16463641603 -1.53365924044 1.19063921148
8.09799621478 0.591719590841 -2.00671388019 0.121652532256 0.242933231169 0.782928535512 -0.407925893458 -1.22147083212 -1.16367332396 -1.53130270813 1.19045639863
8.14183294581 0.591805609015 -2.00374455297 0.122226997254 0.244082161164 0.783064034967 -0.407682194067 -1.22119553139 -1.16271025688 -1.52894739053 1.19027380275
8.18568540901 0.591892854326 -2.00077416004 0.122800843102 0.24522985286 0.783199907537 -0.407438675239 -1.22091569014 -1.16174704187 -1.52659336078 1.19009005821
8.22955032649 0.591980856771 -1.99780292377 0.123374119114 0.246376404883 0.783336753398 -0.407195073471 -1.2206324821 -1.16078374637 -1.52424060649 1.18990606501
8.27342784477 0.592069612512 -1.99483083348 0.123946820835 0.247521808326 0.78347445677 -0.406951452766 -1.22034578825 -1.15982040237 -1.52188913567 1.18972168635
8.31731471528 0.592158651004 -1.99185811022 0.124518995342 0.248666157341 0.783613401239 -0.406707662268 -1.22005653634 -1.15885711515 -1.51953892699 1.18953754188
8.36121783706 0.592248904096 -1.98888428567 0.125090538391 0.249809243438 0.783752690695 -0.406464078853 -1.21976276063 -1.15789372574 -1.51719005305 1.18935226422
8.40513382339 0.592339905163 -1.9859095902 0.125661500068 0.250951166792 0.783892926538 -0.406220430775 -1.21946563469 -1.15693029233 -1.51484250201 1.18916675512
8.44906282077 0.592431650217 -1.98293401305 0.126231875926 0.252091918508 0.784033993358 -0.405976783279 -1.2191650397 -1.15596684834 -1.51249628132 1.18898087702
8.49300146343 0.592523672008 -1.97995778276 0.126801713717 0.25323159409 0.784176276992 -0.405732979692 -1.21886190334 -1.15500349276 -1.51015136952 1.18879525025
8.53695688064 0.592616895485 -1.97698041624 0.127370907969 0.254369982594 0.784318877599 -0.405489409455 -1.21855426113 -1.15404008045 -1.50780783857 1.18860850579
8.58092555173 0.592710857498 -1.97400215171 0.127939509528 0.255507185712 0.784462397426 -0.405245792806 -1.21824328589 -1.15307666046 -1.50546567721 1.1884215467
8.62490764413 0.592805553915 -1.97102297833 0.128507513963 0.256643194582 0.78460672185 -0.405002195989 -1.21792885948 -1.15211326754 -1.50312489235 1.18823423519
8.66889966648 0.59290052088 -1.96804313205 0.129074969689 0.257778106034 0.784752238755 -0.404758456662 -1.21761190914 -1.15114999445 -1.50078546244 1.18804719196
8.71290897411 0.592996676249 -1.96506211522 0.129641770025 0.258911706706 0.784898044703 -0.404514976681 -1.21729047205 -1.15018670979 -1.4984474587 1.18785904658
8.75693192913 0.593093560451 -1.9620801738 0.130207966571 0.260044099799 0.785044742732 -0.404271468323 -1.21696572011 -1.14922345349 -1.49611087051 1.18767070334
8.80096869898 0.593191169207 -1.95909729691 0.130773554907 0.26117527647 0.7851922188 -0.404027998955 -1.21663753558 -1.14826026169 -1.4937757042 1.18748202391
8.84501568344 0.593289042152 -1.95611372773 0.131338584109 0.262305334873 0.785340863036 -0.403784400483 -1.21630684539 -1.14729722091 -1.49144193818 1.18729362964
8.88908045136 0.593388089865 -1.95312895434 0.131902946299 0.263434059255 0.785489768271 -0.403541087171 -1.21597168845 -1.1463342134 -1.48910964287 1.18710414851
8.93315924762 0.593487856454 -1.95014323032 0.132466693831 0.264561554318 0.785639538537 -0.403297763245 -1.21563323585 -1.14537126997 -1.48677880829 1.18691448632
8.97725224385 0.593588337494 -1.94715654472 0.133029822294 0.265687811244 0.785790060404 -0.403054497171 -1.21529137029 -1.14440842813 -1.48444944024 1.18672450427
9.02135573936 0.593689076202 -1.94416914785 0.133592381412 0.26681292948 0.785941725982 -0.402811115313 -1.21494701791 -1.14344576827 -1.48212151708 1.18653482391
9.06547749976 0.5937909757 -1.94118051379 0.134154262134 0.267936690923 0.786093624476 -0.402568044174 -1.21459821979 -1.14248318614 -1.47979510835 1.18634407185
9.10961367364 0.593893583873 -1.93819090359 0.134715517555 0.269059201766 0.786246360957 -0.402324979938 -1.21424614609 -1.14152070349 -1.47747020477 1.1861531555
9.15376442008 0.593996896154 -1.93520030626 0.135276143279 0.270180453213 0.786399822646 -0.402081992142 -1.21389067999 -1.14055835912 -1.4751468116 1.18596193556
9.1979259379 0.594100459423 -1.93220897909 0.135836189668 0.271300545992 0.786554403519 -0.401838901744 -1.21353274658 -1.13959622746 -1.47282490717 1.1857710336
9.24210619785 0.594205169185 -1.92921638243 0.136395546514 0.272419259684 0.786709189368 -0.40159614722 -1.21317038962 -1.13863421752 -1.47050456009 1.18557907526
9.28630123967 0.594310577186 -1.92622278467 0.136954267649 0.273536701954 0.786864786099 -0.401353416891 -1.21280477795 -1.13767234207 -1.4681857618 1.18538696923
9.33051122245 0.59441667871 -1.92322817477 0.137512348683 0.274652864022 0.78702108127 -0.401110781569 -1.21243579488 -1.13671064136 -1.46586851697 1.18519457528
9.37473224872 0.594523024404 -1.92023281691 0.13806984062 0.275767847895 0.787178471318 -0.400868056486 -1.21206436497 -1.13574918368 -1.46355280402 1.18500251578
9.41897248181 0.594630501981 -1.91723615795 0.138626632107 0.27688143087 0.787336038456 -0.400625692057 -1.21168853476 -1.13478789121 -1.46123869051 1.18480941523
9.46322785679 0.594738667135 -1.91423847348 0.139182777703 0.277993722062 0.787494389097 -0.400383369009 -1.21130947124 -1.13382676794 -1.45892616862 1.18461618314
9.50749853275 0.594847515013 -1.91123975244 0.139738273033 0.279104712722 0.787653411743 -0.400141159038 -1.21092705855 -1.13286585533 -1.45661524248 1.1844226792
9.55178051594 0.594956600099 -1.90824026574 0.140293169725 0.280214506106 0.787813504759 -0.399898872068 -1.21054221996 -1.13190521583 -1.45430589056 1.18422952573
9.59608215806 0.595066802162 -1.90523944703 0.140847355303 0.281322877263 0.787973746857 -0.399656970234 -1.21015300516 -1.13094478453 -1.45199817934 1.18403534637
9.64039929373 0.595177680931 -1.90223757899 0.141400885048 0.282429936752 0.78813474529 -0.39941512653 -1.20976057952 -1.12998455661 -1.44969210179 1.18384105184
9.68473208621 0.595289231412 -1.89923465052 0.141953754594 0.283535675845 0.788296389037 -0.399173413836 -1.20936482747 -1.12902457492 -1.44738766146 1.1836465011
9.72907643711 0.595401012008 -1.89623093912 0.142506016191 0.284640199039 0.788459078704 -0.398931636647 -1.20896667119 -1.12806489603 -1.44508483692 1.18345231678
9.77344089906 0.595513894395 -1.89322586552 0.143057556255 0.285743279166 0.788621889503 -0.398690268632 -1.20856416382 -1.12710546774 -1.44278369352 1.18325712181
9.81782119365 0.595627442412 -1.89021971935 0.143608430776 0.286845028207 0.788785429129 -0.398448975407 -1.2081584685 -1.12614627666 -1.44048422498 1.18306182753
9.86221748833 0.595741650934 -1.88721248947 0.144158635408 0.287945437472 0.788949587663 -0.398207830604 -1.20774947065 -1.12518736681 -1.43818643435 1.18286629299
9.90662558841 0.595856082355 -1.88420445984 0.144708223007 0.289044612671 0.789114767532 -0.397966633672 -1.20733809075 -1.12422878909 -1.43589030028 1.1826711405
9.95105423493 0.595971600115 -1.88119503857 0.1452570789 0.290142324456 0.789280040545 -0.397725869537 -1.20692238578 -1.12327050378 -1.43359588694 1.18247499255
9.99549905317 0.59608777224 -1.87818452205 0.145805259782 0.29123868622 0.789446014965 -0.397485196455 -1.20650351662 -1.12231248899 -1.43130318886 1.18227876123
10.0399602022 0.596204593473 -1.87517289914 0.14635276132 0.292333689296 0.789612581591 -0.397244689066 -1.20608136927 -1.12135478997 -1.42901220852 1.18208230516
10.0844333995 0.596321630274 -1.87216046011 0.146899636975 0.293427440607 0.789780145052 -0.39700414161 -1.20565686278 -1.12039745203 -1.42672292472 1.1818862467
10.128927566 0.596439737708 -1.86914660071 0.147445770997 0.29451970865 0.789947773565 -0.39676405018 -1.20522805803 -1.11944044766 -1.42443540039 1.1816892079
10.1734382308 0.596558488073 -1.86613162403 0.147991220786 0.295610608227 0.790116076259 -0.396524065567 -1.20479611386 -1.1184837465 -1.4221496309 1.18149210192
10.2179655529 0.596677875962 -1.86311551882 0.14853598201 0.296700130675 0.790284944093 -0.396284263813 -1.20436091616 -1.11752739528 -1.41986561813 1.18129478611
10.2625051577 0.596797471987 -1.8600985816 0.149080108736 0.297788384128 0.790454784343 -0.39604443374 -1.20392338294 -1.1165714336 -1.41758334108 1.18109788347
10.3070661461 0.5969181227 -1.85708019604 0.14962348415 0.298875134956 0.790624661465 -0.39580508249 -1.20348157908 -1.115615846 -1.41530286138 1.18090001554
10.3516439426 0.597039404733 -1.85406067172 0.150166166345 0.299960499345 0.790795185134 -0.395565853733 -1.20303666084 -1.11466059389 -1.41302417523 1.18070209601
10.396238723 0.597161312558 -1.8510399974 0.150708151007 0.30104446867 0.790966247411 -0.395326824229 -1.2025885151 -1.11370572508 -1.41074728399 1.18050398235
10.4408460121 0.597283420979 -1.84801847559 0.151249492787 0.302127152231 0.791138257423 -0.395087778079 -1.20213805774 -1.11275127395 -1.40847216681 1.18030629687
10.4854750826 0.597406567925 -1.84499547824 0.151790073827 0.30320831431 0.791310276069 -0.394849233061 -1.20168335817 -1.11179723668 -1.40619888401 1.18010766119
10.5301212751 0.597530334428 -1.84197132126 0.152329952906 0.304288072469 0.791482913661 -0.394610825788 -1.20122557003 -1.11084356656 -1.40392743263 1.17990898955
10.5747847529 0.59765471483 -1.83894599339 0.152869125725 0.305366418106 0.791656063042 -0.394372633962 -1.20076458082 -1.10989031263 -1.40165781348 1.17971013903
10.6194609654 0.597779288202 -1.83591980306 0.153407647514 0.306443461683 0.791830135521 -0.394134436858 -1.20030130449 -1.10893750403 -1.3993900059 1.17951173164
10.6641593487 0.597904883729 -1.83289211072 0.153945399388 0.307518965431 0.792004188425 -0.393896762608 -1.19983381532 -1.10798514826 -1.39712406887 1.17931238932
10.7088751554 0.598031086897 -1.82986323847 0.154482440798 0.308593048252 0.792178832288 -0.393659241233 -1.19936326362 -1.10703319085 -1.39486000025 1.17911302612
10.7536085447 0.598157891938 -1.82683317509 0.155018767467 0.30966570159 0.792353961225 -0.393421950988 -1.1988895381 -1.10608168181 -1.39259780035 1.17891349949
10.7983548822 0.598284882236 -1.82380223469 0.155554435195 0.310737037046 0.792529988568 -0.393184666588 -1.19841355047 -1.1051306453 -1.3903374487 1.1787144307
10.8431237714 0.598412878127 -1.82076976661 0.156089324084 0.311806814823 0.792705967908 -0.392947926336 -1.19793337994 -1.10418009987 -1.38807900289 1.17851444212
10.8879103728 0.598541469616 -1.81773609897 0.156623494255 0.312875155165 0.79288251033 -0.39271135357 -1.19745017373 -1.10322998331 -1.38582246162 1.17831444795
10.9327148457 0.598670650815 -1.81470122053 0.157156941446 0.313942049547 0.793059510863 -0.392475027354 -1.19696382137 -1.10228034674 -1.38356782468 1.17811430545
10.9775324761 0.598800009487 -1.81166545102 0.157689722023 0.315007610702 0.793237385114 -0.392238717807 -1.19647523242 -1.10133120939 -1.38131507184 1.1779146354
11.0223730308 0.598930357007 -1.80862812889 0.158221715086 0.316071596827 0.793415182672 -0.392002973283 -1.19598249105 -1.10038260062 -1.37906425923 1.17771406051
11.0672315699 0.59906128797 -1.80558958818 0.158752981429 0.317134129513 0.793593515614 -0.391767410254 -1.19548674176 -1.09943445045 -1.37681538646 1.17751349564
11.1121082692 0.599192796354 -1.80254981761 0.159283516793 0.318195200243 0.793772279359 -0.391532108997 -1.1949878742 -1.09848681137 -1.37456845274 1.17731279712
11.1569983229 0.599324474361 -1.7995091424 0.159813378111 0.319254922878 0.793951892159 -0.391296834902 -1.19448679615 -1.09753969766 -1.37232343812 1.17711258555
11.2019116566 0.599457124313 -1.79646689039 0.160342443495 0.320313053645 0.794131399523 -0.391062146095 -1.19398159689 -1.09659314914 -1.37008039725 1.17691148428
11.2468432511 0.599590345436 -1.79342340139 0.160870774397 0.321369715449 0.794311414207 -0.390827652597 -1.19347341767 -1.09564708843 -1.36783933062 1.1767104082
11.2917932737 0.599724131588 -1.7903786641 0.161398366572 0.322424899799 0.794491832452 -0.390593435554 -1.19296214884 -1.09470156914 -1.3656002369 1.1765092133
11.3367568474 0.599858079454 -1.78733300905 0.161925277504 0.323478721664 0.794673074987 -0.390359255926 -1.19244869594 -1.09375660089 -1.36336309643 1.17630851961
11.3817440445 0.599992982212 -1.78428575382 0.162451384335 0.324530935325 0.794854183115 -0.390125681346 -1.1919311536 -1.09281223361 -1.36112796232 1.17610695131
11.426749766 0.600128443775 -1.78123724378 0.162976749171 0.325581664998 0.795035770483 -0.389892315399 -1.19141065989 -1.0918683826 -1.35889483599 1.17590542346
11.4717741752 0.600264457872 -1.77818746764 0.163501367774 0.326630902204 0.795217733892 -0.389659240307 -1.1908871055 -1.09092510272 -1.35666371554 1.17570379132
11.516812324 0.600400625727 -1.7751367611 0.16402529818 0.327678763016 0.795400496837 -0.389426212542 -1.19036139396 -1.08998239901 -1.35443458161 1.17550267457
11.5618744309 0.600537731289 -1.77208443175 0.16454841657 0.328724999796 0.795583096253 -0.389193808986 -1.18983162536 -1.08904033112 -1.3522074858 1.17530069843
11.6069553177 0.600675383188 -1.76903083038 0.165070785691 0.329769738038 0.795766146317 -0.388961627298 -1.18929893396 -1.08809880747 -1.34998243036 1.17509877733
11.6520551476 0.600813575061 -1.76597594575 0.165592401329 0.330812969314 0.795949545226 -0.38872975005 -1.18876321183 -1.08715788371 -1.34775941294 1.17489676714
11.6971688927 0.600951912684 -1.76292011854 0.166113322051 0.331854810758 0.796133718684 -0.388497929897 -1.18822535966 -1.08621756079 -1.34553841443 1.17469528607
11.7423069185 0.601091170711 -1.75986264666 0.166633423095 0.332895012846 0.796317699244 -0.388266752566 -1.18768348327 -1.08527790766 -1.34331948488 1.17449296083
11.7874639711 0.601230962544 -1.75680388618 0.167152767848 0.333933702352 0.796502101994 -0.388035809678 -1.18713871343 -1.08433882586 -1.34110262745 1.17429070564
11.8326402096 0.601371281697 -1.75374382586 0.167671352104 0.334970870864 0.796686825758 -0.387805184798 -1.18659094265 -1.08340037225 -1.33888783923 1.17408837573
11.8778305391 0.601511738564 -1.75068281125 0.168189234967 0.33600663659 0.796872299198 -0.38757462633 -1.18604106948 -1.08246254349 -1.33667510146 1.17388658878
11.9230454591 0.601653098428 -1.74762013089 0.168706290742 0.337040748141 0.797057550074 -0.387344728763 -1.18548720536 -1.08152541758 -1.3344644626 1.17368397289
11.9682796404 0.601794979496 -1.74455614596 0.169222583449 0.338073333554 0.797243194441 -0.387115077853 -1.18493047743 -1.08058888942 -1.33225592668 1.17348144187
12.0135332419 0.601937375172 -1.74149084521 0.16973810889 0.339104384437 0.797429131875 -0.386885758045 -1.18437077878 -1.07965301698 -1.33004949028 1.17327885053
12.058801102 0.602079900499 -1.73842457896 0.170252926703 0.340134020062 0.797615794063 -0.386656513638 -1.18380900578 -1.07871779282 -1.327845135 1.17307681589
12.104093854 0.602223311326 -1.73535662661 0.17076691027 0.341161987195 0.797802203771 -0.386427947604 -1.18324327554 -1.07778330361 -1.32564290767 1.17287396764
12.1494060932 0.6023672307 -1.73228735433 0.171280124233 0.342188415122 0.797988978004 -0.386199640091 -1.18267471137 -1.07684943787 -1.3234428132 1.17267121889
12.194737983 0.602511651922 -1.7292167509 0.171792564412 0.34321329548 0.7981760173 -0.385971676216 -1.18210320722 -1.07591625453 -1.32124484769 1.1724684244
12.2400842863 0.602656194708 -1.72614517118 0.172304290962 0.344236748579 0.79836375623 -0.385743796528 -1.1815296569 -1.07498374241 -1.31904899306 1.1722662
12.2854557702 0.602801605422 -1.7230718858 0.172815176357 0.34525851937 0.798551212416 -0.385516612136 -1.18095218336 -1.0740519964 -1.3168552945 1.17206317732
12.3308469592 0.602947511979 -1.71999726572 0.173325285858 0.346278738373 0.798739003913 -0.385289697739 -1.18037190605 -1.07312089885 -1.31466375783 1.17186026867
12.3762580164 0.603093907589 -1.71692129977 0.173834615304 0.347297397264 0.798927032398 -0.385063138945 -1.17978871997 -1.07219050953 -1.31247437866 1.17165732905
12.4216836377 0.603240416661 -1.71384434721 0.174343225355 0.348314617367 0.799115735215 -0.384836672901 -1.17920351606 -1.07126081385 -1.31028713922 1.1714549726
12.4671347202 0.603387776024 -1.71076567016 0.174850987593 0.349330141842 0.799304124648 -0.384610918521 -1.17861442324 -1.07033191448 -1.30810208309 1.17125183321
12.5126057171 0.603535618499 -1.70768564427 0.175357967893 0.350344102442 0.799492820058 -0.38438544508 -1.17802255719 -1.06940368772 -1.30591921696 1.17104882253
12.5580967915 0.603683937192 -1.70460425836 0.175864162102 0.35135649086 0.799681723915 -0.384160338981 -1.17742781355 -1.0684761944 -1.30373853593 1.17084579522
12.6036025765 0.603832361245 -1.70152187601 0.176369631394 0.352367429444 0.799871276837 -0.383935333759 -1.17683108086 -1.06754941646 -1.30156002264 1.17064336423
12.6491340865 0.603981617907 -1.69843775109 0.176874246463 0.353376659583 0.800060485427 -0.383711055919 -1.1762304939 -1.066623464 -1.29938371896 1.17044016585
12.6946857076 0.604131344924 -1.69535226377 0.17737807379 0.354384314236 0.800249970306 -0.383487069627 -1.17562716435 -1.0656982076 -1.29720963247 1.17023711064
12.7402576113 0.604281535304 -1.69226540288 0.177881109234 0.355390385124 0.800439634835 -0.383263461977 -1.17502098864 -1.06477370906 -1.29503775779 1.17003405309
12.7858443597 0.604431822944 -1.68917753617 0.178383414474 0.356394995604 0.800629923074 -0.383039962996 -1.17441285288 -1.06384994703 -1.29286807795 1.16983160493
12.8314570926 0.604582925478 -1.68608790955 0.178884859329 0.357397885314 0.800819835593 -0.38281720655 -1.17380089768 -1.06292703867 -1.29070063311 1.16962840495
12.8770901332 0.604734485601 -1.68299690756 0.179385510881 0.358399188419 0.801009994551 -0.382594751726 -1.17318623086 -1.06200484897 -1.28853543174 1.16942536275
12.9227436408 0.604886496213 -1.67990451904 0.179885364995 0.359398896645 0.801200303915 -0.382372686568 -1.17256874927 -1.06108344086 -1.28637246796 1.16922233219
12.968412127 0.605038596001 -1.67681111579 0.180384483856 0.360397134368 0.801391211583 -0.382150737481 -1.17194933693 -1.06016278975 -1.28421172522 1.16901992408
13.0141068446 0.60519149294 -1.67371593599 0.180882736411 0.361393639479 0.801581711586 -0.381929545609 -1.17132613999 -1.05924301956 -1.28205324195 1.16881677962
13.0598220458 0.605344834704 -1.67061936846 0.181380190347 0.36238854735 0.801772427966 -0.381708664912 -1.17070026267 -1.05832398978 -1.27989702753 1.16861380767
13.1055579024 0.605498614094 -1.66752140204 0.181876841532 0.36338184972 0.801963265402 -0.381488184269 -1.17007160236 -1.05740576439 -1.27774307558 1.16841086166
13.1513088631 0.605652474582 -1.66442241239 0.182372752647 0.364373671949 0.802154675425 -0.38126782696 -1.16944104054 -1.05648831601 -1.27559136995 1.16820855071
13.1970862856 0.605807114478 -1.66132163031 0.182867791783 0.365363750221 0.802345645499 -0.381048240815 -1.16880672925 -1.05557177468 -1.27344194735 1.16800551923
13.2428843675 0.60596218643 -1.65821944867 0.18336202721 0.366352221076 0.802536801263 -0.380828975268 -1.16816976856 -1.05465599493 -1.27129481801 1.16780267446
13.2887032805 0.606117683159 -1.65511585637 0.183855454818 0.367339076293 0.802728048518 -0.380610119611 -1.1675300569 -1.05374104148 -1.26914997512 1.16759987009
13.3345374149 0.606273252935 -1.65201123281 0.184348137771 0.368324442198 0.802919842535 -0.380391394192 -1.16688847317 -1.05282688441 -1.26700740295 1.16739771336
13.3803982371 0.606429584379 -1.64890480163 0.184839943314 0.369308053283 0.803111163762 -0.380173453337 -1.16624317512 -1.05191365952 -1.26486713642 1.16719485195
13.4262798862 0.606586335128 -1.64579695964 0.185330940297 0.37029004725 0.803302639696 -0.379955842027 -1.16559525877 -1.05100121654 -1.26272918666 1.16699219152
13.4721825297 0.606743497827 -1.64268769579 0.185821124628 0.371270415912 0.803494177201 -0.379738649996 -1.16494462355 -1.05008962097 -1.26059354641 1.16678958594
13.5181005076 0.606900725551 -1.63957739307 0.186310559951 0.372249286558 0.80368623547 -0.379521594808 -1.16429214579 -1.04917884054 -1.25846020034 1.16658764044
13.5640453826 0.607058697218 -1.63646526824 0.18679911267 0.373226391997 0.803877787512 -0.379305337035 -1.16363598882 -1.04826901642 -1.25632918162 1.16638500617
13.6100112478 0.607217075476 -1.63335172193 0.18728685222 0.374201871096 0.804069463059 -0.379089417162 -1.16297724489 -1.04735999363 -1.25420050226 1.16618258741
13.655998258 0.607375852874 -1.63023674309 0.187773774511 0.375175715679 0.804261169662 -0.378873925742 -1.16231581395 -1.04645183868 -1.25207415451 1.16598023759
13.7020007158 0.607534687318 -1.62712071823 0.188259943676 0.376148054007 0.804453370948 -0.378658577356 -1.1616525702 -1.04554451697 -1.24995012353 1.16577856034
13.7480302715 0.607694248014 -1.62400285746 0.188745225282 0.377118617219 0.804645032027 -0.378444038595 -1.16098568239 -1.04463817461 -1.24782844067 1.16557621044
13.7940809682 0.607854202617 -1.62088356506 0.189229689336 0.378087545328 0.804836784885 -0.37822984579 -1.1603162388 -1.04373265227 -1.24570911881 1.16537409038
13.8401529606 0.608014543596 -1.61776283004 0.189713331764 0.379054830184 0.805028538013 -0.378016090029 -1.15964414022 -1.04282801731 -1.24359214976 1.16517205358
13.8862404926 0.608174933681 -1.61464104226 0.190196217172 0.380020600999 0.805220759478 -0.377802483255 -1.15897025853 -1.0419242331 -1.24147751916 1.16497070164
13.9323553236 0.608336032369 -1.61151740545 0.190678210302 0.38098458726 0.805412406107 -0.377589697745 -1.15829276782 -1.04102145026 -1.2393652565 1.1647686933
13.9784914336 0.608497512332 -1.60839232742 0.191159381733 0.381946930122 0.805604112462 -0.377377265706 -1.1576127526 -1.04011950523 -1.23725537557 1.16456692931
14.0246489817 0.608659365946 -1.60526579719 0.191639727392 0.38290762144 0.805795787679 -0.377165279068 -1.15693011415 -1.03921846643 -1.2351478677 1.1643652626
14.0708221657 0.60882126078 -1.60213820789 0.192119312369 0.383866791393 0.805987904766 -0.37695344696 -1.15624572242 -1.03831829523 -1.23304271904 1.1641642931
14.1170228287 0.608983846625 -1.59900875709 0.192598000582 0.384824167819 0.806179411719 -0.376742447161 -1.15555775659 -1.03741914634 -1.23093995723 1.16396268361
14.1632449047 0.609146801157 -1.595877856 0.19307586317 0.385779892996 0.806370945728 -0.376531808099 -1.15486729726 -1.03652085238 -1.22883959691 1.16376133274
14.2094885527 0.609310116686 -1.5927454937 0.193552896079 0.386733958813 0.806562416962 -0.376321622096 -1.15417424665 -1.03562348247 -1.226741629 1.16356009364
14.2557479203 0.609473465602 -1.58961206641 0.194029164864 0.387686496383 0.806754303274 -0.376111595965 -1.15347947248 -1.03472699649 -1.22464604014 1.16335956382
14.302034947 0.609637487998 -1.5864767658 0.194504532627 0.388637231909 0.806945543373 -0.375902412671 -1.15278115887 -1.03383155275 -1.2225528561 1.1631584105
14.3483435122 0.609801866562 -1.58334000634 0.194979071069 0.389586308793 0.807136777434 -0.375693596882 -1.15208038274 -1.03293698018 -1.22046209237 1.16295753023
14.394673775 0.609966593532 -1.58020177717 0.195452776146 0.390533718948 0.807327916531 -0.375485241436 -1.15137704711 -1.03204334871 -1.21837373948 1.16275677615
14.4410198371 0.610131346118 -1.57706247751 0.195925713884 0.391479594423 0.807519443698 -0.375277050862 -1.15067201764 -1.03115061685 -1.21628778457 1.16255674344
14.4873937255 0.610296754736 -1.57392129333 0.19639774657 0.392423659796 0.807710287859 -0.375069713013 -1.14996348325 -1.03025894605 -1.21420425149 1.16235610398
14.5337892698 0.610462507076 -1.57077864228 0.196868946461 0.393366059579 0.807901092344 -0.374862749038 -1.14925251712 -1.02936816188 -1.21212315662 1.16215575203
14.5802066247 0.610628595303 -1.56763451349 0.197339309526 0.394306785709 0.808091769116 -0.374656252289 -1.14853902307 -1.02847833505 -1.21004449008 1.16195554069
14.6266398626 0.610794701444 -1.56448930913 0.197808902255 0.395245971167 0.808282806665 -0.374449925135 -1.14782386484 -1.02758942292 -1.20796823951 1.16175606269
14.6731010775 0.610961446257 -1.56134220965 0.198277586128 0.396183338911 0.808473123582 -0.374244460031 -1.1471052359 -1.02670158962 -1.20589442686 1.16155599489
14.7195840613 0.611128522418 -1.55819363574 0.198745433948 0.397119034552 0.808663366522 -0.374039374881 -1.14638420568 -1.02581465767 -1.20382306935 1.16135622891
14.766088973 0.611295922037 -1.5550435766 0.199212441703 0.398053050063 0.808853448505 -0.373834763326 -1.14566067904 -1.02492869842 -1.20175415672 1.16115661819
14.8126098304 0.611463331943 -1.55189243717 0.199678676347 0.39898551935 0.809043863712 -0.373630325752 -1.14493551781 -1.02404366833 -1.19968767717 1.16095775276
14.8591588114 0.611631363254 -1.54873939262 0.200143998545 0.399916163746 0.809233519679 -0.373426759125 -1.14420691959 -1.02315973388 -1.19762365064 1.1607583145
14.9057296659 0.611799713651 -1.5455848666 0.200608481665 0.400845129987 0.809423067096 -0.373223577725 -1.14347595077 -1.02227671439 -1.19556209531 1.16055919305
14.952322553 0.611968375152 -1.54242884831 0.201072121689 0.401772410035 0.809612419453 -0.373020876173 -1.14274251645 -1.02139468237 -1.19350300043 1.16036024111
14.9989314486 0.612137039393 -1.5392717454 0.201534986045 0.402698138745 0.809802077199 -0.37281835266 -1.14200747706 -1.02051359334 -1.19144635481 1.16016204644
15.0455686143 0.61230630789 -1.53611272795 0.201996934586 0.403622035827 0.809990936245 -0.372616708335 -1.14126903414 -1.01963361565 -1.18939217638 1.15996329624
15.0922277457 0.612475883287 -1.53295222243 0.202458041226 0.404544249107 0.810179651218 -0.372415454485 -1.1405282506 -1.01875456599 -1.18734048419 1.15976487737
15.1389090017 0.612645757553 -1.52979021809 0.202918301966 0.405464770588 0.810368136683 -0.372214685955 -1.13978503258 -1.01787651745 -1.18529126714 1.1595666429
15.1856063331 0.612815627094 -1.52662712515 0.203377784691 0.406383736039 0.810556899293 -0.37201409932 -1.13904023881 -1.01699942525 -1.1832445146 1.15936917751
15.2323320561 0.612986083861 -1.52346210883 0.203836348448 0.407300863552 0.810744822733 -0.371814399593 -1.13829207447 -1.01612345901 -1.18120024246 1.1591711741
15.279079841 0.613156835449 -1.52029559828 0.204294067694 0.408216302043 0.810932565941 -0.371615095138 -1.13754159925 -1.01524843304 -1.17915847067 1.1589735167
15.3258498427 0.613327873776 -1.51712758282 0.204750938447 0.409130043549 0.811120044451 -0.371416281125 -1.1367887202 -1.01437442109 -1.17711918774 1.15877605862
15.37263597 0.613498900004 -1.51395847516 0.205207029051 0.410042224758 0.811307771531 -0.371217652546 -1.13603429457 -1.01350137818 -1.17508238365 1.15857938143
15.4194506145 0.613670496561 -1.51078743579 0.205662197744 0.410952562144 0.811494617941 -0.371019918027 -1.13527653088 -1.0126294748 -1.17304807223 1.15838218405
15.4662874047 0.613842375975 -1.50761489648 0.206116519526 0.411861205707 0.811681247239 -0.370822583182 -1.13451648568 -1.01175852314 -1.17101627429 1.15818534746
15.5131464911 0.614014530104 -1.50444084659 0.206569990425 0.412768147505 0.811867575793 -0.370625743651 -1.13375406679 -1.01088859768 -1.16898697798 1.15798872499
15.5600217534 0.614186664863 -1.50126570126 0.207022679257 0.413673525169 0.812054124054 -0.370429092691 -1.13299013044 -1.0100196533 -1.16696017394 1.15779289541
15.6069256501 0.614359353193 -1.49808861641 0.207474443439 0.414577053533 0.812239748992 -0.370233342458 -1.13222288792 -1.00915186099 -1.16493587385 1.15759656364
15.6538517636 0.614532312537 -1.49491002635 0.207925358517 0.41547888369 0.812425119208 -0.370037995864 -1.13145339295 -1.008285031 -1.16291409943 1.15740060766
15.7008002614 0.614705534704 -1.49172992048 0.208375420535 0.416379007726 0.812610151974 -0.369843148904 -1.13068155418 -1.00741923848 -1.16089483848 1.15720488098
15.7477649685 0.614878730321 -1.48854871623 0.208824698768 0.417277564192 0.812795375047 -0.369648493533 -1.12990822668 -1.00655443863 -1.15887808228 1.15700995894
15.794758423 0.615052462903 -1.48536556517 0.209273049817 0.418174266289 0.812979630968 -0.369454745026 -1.12913162432 -1.00569080235 -1.15686384033 1.156814553
15.8417741655 0.615226454787 -1.48218090402 0.209720549773 0.419069266202 0.813163593758 -0.369261403713 -1.12835279815 -1.00482813816 -1.15485213529 1.15661953805
15.8888123634 0.615400697717 -1.47899472221 0.210167194684 0.419962556024 0.813347181375 -0.369068566218 -1.12757165739 -1.00396652209 -1.15284295456 1.15642476732
15.9358668125 0.615574907036 -1.47580743946 0.210613054306 0.420854275268 0.81353092962 -0.368875922843 -1.12678905661 -1.00310590957 -1.15083629017 1.15623081333
15.9829501012 0.615749636874 -1.47261820307 0.211057984408 0.421744135473 0.813713665638 -0.368684191944 -1.12600321162 -1.00224647105 -1.14883214935 1.15603639407
16.0300557531 0.615924614434 -1.46942745211 0.211502061627 0.422632289911 0.813896069219 -0.368492871456 -1.12521517097 -1.00138801363 -1.14683055572 1.15584238109
16.077183919 0.616099831404 -1.46623517603 0.211945282019 0.423518730693 0.814078059073 -0.368302058523 -1.12442484452 -1.00053061416 -1.14483149628 1.15564862753
16.1243283697 0.61627500781 -1.46304179675 0.212387715818 0.424403598291 0.814260179373 -0.368111442014 -1.12363308644 -0.999674228555 -1.14283496383 1.15545570277
16.1715017604 0.616450688457 -1.45984645746 0.212829217954 0.425286602563 0.814441240992 -0.367921743157 -1.12283811402 -0.998819026415 -1.14084096329 1.15526233159
16.2186975688 0.616626605387 -1.45664959949 0.213269865613 0.426167897882 0.814621929957 -0.367732457547 -1.1220409736 -0.997964813591 -1.13884951922 1.15506938218
16.265915954 0.616802750246 -1.45345121234 0.213709654865 0.427047476385 0.814802165844 -0.367543682661 -1.12124157584 -0.997111667588 -1.1368606183 1.15487670788
16.3131506533 0.616978847696 -1.45025172003 0.214148656415 0.427925479486 0.81498250139 -0.367355106382 -1.12044077442 -0.996259545348 -1.13487425407 1.15468487426
16.3604143762 0.617155433287 -1.44705026176 0.214586724352 0.428801615359 0.815161730405 -0.367167452419 -1.11963678778 -0.995408614978 -1.13289042908 1.15449261343
16.4077005797 0.617332243871 -1.44384728105 0.215023936409 0.429676039474 0.81534054554 -0.366980214218 -1.11883066019 -0.994558681392 -1.13090916888 1.15430079002
16.4550094102 0.617509271048 -1.44064276746 0.215460288668 0.430548743993 0.815518867184 -0.366793489636 -1.11802230307 -0.993709822792 -1.1289304598 1.15410925745
16.5023345799 0.617686244096 -1.43743714704 0.215895852319 0.431419871294 0.815697257248 -0.366606965472 -1.11721257006 -0.992861997222 -1.12695429618 1.1539185777
16.549688857 0.61786368937 -1.43422955511 0.216330480588 0.432289127832 0.815874491374 -0.366421367898 -1.11639968002 -0.992015370971 -1.12498067813 1.15372749017
16.5980179299 0.618041348515 -1.43102043736 0.216764251775 0.433156670205 0.81605126954 -0.366236187977 -1.11558467576 -0.991169747984 -1.12300963224 1.15353685635
16.6468536682 0.618219213063 -1.42780978333 0.217197161954 0.434022490564 0.816227512592 -0.366051524441 -1.11476746897 -0.990325207555 -1.12104114442 1.15334652898
16.6961947825 0.61839701689 -1.42459802111 0.217629282814 0.434886732283 0.816403792282 -0.365867062834 -1.11394891375 -0.989481708859 -1.11907520991 1.15315706669
16.7460599814 0.61857527723 -1.42138428222 0.218060466711 0.435749100078 0.816578865139 -0.365683531488 -1.11312722894 -0.988639415799 -1.11711182628 1.15296721668
16.7964477914 0.618753740459 -1.4181690144 0.218490792494 0.436609751643 0.816753438569 -0.365500419747 -1.1123034556 -0.987798132045 -1.11515102113 1.15277783626
16.8473638472 0.618932398084 -1.41495220726 0.218920256258 0.437468679173 0.816927434391 -0.365317826447 -1.11147750643 -0.986957937364 -1.11319278008 1.15258877872
16.8988067925 0.619110988521 -1.41173429082 0.219348930182 0.43832602702 0.817101434401 -0.365135436427 -1.11065023584 -0.986118792671 -1.11123709923 1.15240059848
16.9507961648 0.61929001996 -1.40851439292 0.219776665738 0.439181498133 0.817274174968 -0.364953979934 -1.1098198621 -0.985280858958 -1.10928397356 1.1522120509
17.0033304068 0.619469243473 -1.40529296327 0.220203542329 0.440035251314 0.817446371457 -0.364772944687 -1.10898742483 -0.984443939856 -1.10733343166 1.15202398905
17.0564153918 0.619648650553 -1.40206999158 0.220629556079 0.440887278813 0.817617946746 -0.364592429457 -1.10815283785 -0.983608115475 -1.10538545893 1.15183626695
17.1100496967 0.619827984108 -1.39884590974 0.221054779653 0.441737725962 0.817789493083 -0.364412118677 -1.10731695604 -0.982773348875 -1.10344005232 1.15164943442
17.1642537086 0.620007743367 -1.39561984195 0.221479063628 0.442586293912 0.817959725574 -0.364232744266 -1.10647799647 -0.981939797611 -1.10149720413 1.15146225534
17.2190257991 0.620187684069 -1.39239223992 0.221902487973 0.443433142601 0.818129368239 -0.364053792198 -1.10563699786 -0.981107265339 -1.09955694406 1.15127557874
17.2743720802 0.620367797668 -1.38916309336 0.22232504882 0.444278264296 0.818298344629 -0.363875361719 -1.10479387463 -0.98027583295 -1.09761925714 1.15108925858
17.3302910533 0.620547831552 -1.38593283607 0.22274681935 0.445121805357 0.818467258328 -0.363697136489 -1.10394948285 -0.979445465532 -1.09568414136 1.15090384058
17.3868040141 0.620728276058 -1.38270058864 0.223167649216 0.445963465087 0.818634801867 -0.363519850086 -1.10310203757 -0.978616316841 -1.09375158617 1.15071809722
17.4439092337 0.620908891565 -1.37946680474 0.223587618965 0.446803404585 0.818801708561 -0.363342986722 -1.10225257707 -0.97778819072 -1.09182162243 1.15053287353
17.5016130961 0.621089669475 -1.37623147409 0.224006724732 0.447641616119 0.818967902507 -0.363166646296 -1.10140101616 -0.976961168986 -1.08989423481 1.15034802313
17.5599140107 0.621270361624 -1.37299503235 0.224425040227 0.448478247109 0.819133999327 -0.36299051162 -1.10054821261 -0.976135218873 -1.08796942237 1.15016408775
17.6188342108 0.621451449545 -1.36975659657 0.224842414156 0.449312994968 0.819298667689 -0.362815317795 -1.09969237871 -0.975310489876 -1.08604717163 1.14997984874
17.6789672657 0.621632698205 -1.36651662232 0.225258927651 0.450146021959 0.819462650735 -0.362640547474 -1.09883455249 -0.974486786357 -1.08412751463 1.14979614682
17.740338314 0.621814098974 -1.36327509935 0.225674576858 0.450977320372 0.819625873251 -0.362466300954 -1.09797464944 -0.973664190862 -1.08221043572 1.14961283564
17.8029643816 0.621995408078 -1.36003246515 0.226089436017 0.451807038689 0.819788963355 -0.362292260566 -1.09711352908 -0.972842673254 -1.08029593505 1.14943045236
17.8668885917 0.622177098339 -1.35678783325 0.226503352867 0.452634872391 0.819950564584 -0.36211916266 -1.0962494003 -0.972022378174 -1.07838399611 1.1492477877
17.9321286313 0.622358939262 -1.35354166109 0.22691640913 0.453460984915 0.820111430445 -0.36194648857 -1.09538330113 -0.971203110885 -1.07647465211 1.14906567768
17.9987117871 0.62254092221 -1.35029393848 0.227328600974 0.454285368604 0.820271486659 -0.361774338568 -1.09451514805 -0.97038495431 -1.07456788718 1.14888397667
18.0666564995 0.622722807733 -1.3470451047 0.227740003171 0.455108172998 0.820431374273 -0.361602394972 -1.09364580242 -0.969567881525 -1.07266370255 1.14870321648
18.1367031267 0.622905060043 -1.34379426976 0.228150462471 0.455929091598 0.820589710332 -0.361431395131 -1.092773469 -0.968752031731 -1.07076207856 1.14852219767
18.2089064633 0.62308745315 -1.340541893 0.228560061202 0.456748289059 0.82074725955 -0.361260818877 -1.09189918642 -0.967937211122 -1.06886304971 1.14834175186
18.2833331303 0.623269978365 -1.33728796421 0.228968795528 0.457565757712 0.820903948053 -0.361090767279 -1.09102287145 -0.967123503688 -1.06696659973 1.14816173284
18.3600411835 0.623452400573 -1.33403292453 0.229376740799 0.458381648255 0.821060431101 -0.360920921787 -1.09014538849 -0.966310885204 -1.06507273122 1.14798266835
18.4399130435 0.623635175448 -1.33077588043 0.229783742735 0.459195652125 0.821215297543 -0.360752020948 -1.089264937 -0.965499489209 -1.0631814211 1.14780336862
18.5230674006 0.623818081458 -1.32751729311 0.230189884277 0.46000793521 0.821369323943 -0.360583543269 -1.08838255658 -0.964689123164 -1.06129270523 1.14762466056
18.6105051313 0.624001109893 -1.32425715239 0.230595161608 0.460818489871 0.821522437135 -0.360415590082 -1.0874981647 -0.963879871686 -1.05940656705 1.1474463982
18.703353656 0.624184029875 -1.32099590121 0.230999650637 0.46162746793 0.821675306852 -0.360247842854 -1.08661262853 -0.963071714189 -1.05752301042 1.14726910379
18.8019749067 0.624367288673 -1.3177326425 0.23140319604 0.462434558737 0.821826492468 -0.360081040696 -1.08572414179 -0.96226477762 -1.05564200882 1.14709159836
18.9084592816 0.624550669145 -1.31446783931 0.23180588138 0.463239929416 0.821976782985 -0.359914661128 -1.08483374521 -0.961458871188 -1.05376359945 1.14691470354
19.0253677917 0.624734162552 -1.31120148148 0.232207702845 0.464043572346 0.822126105804 -0.359748805959 -1.08394135682 -0.960654080319 -1.05188776544 1.14673827332
19.1570805521 0.624917542246 -1.30793401383 0.23260873695 0.464845640555 0.822275146333 -0.359583156046 -1.08304784757 -0.959850387753 -1.05001451212 1.14656282529
19.3116982772 0.62510124716 -1.30466453563 0.233008827271 0.465645821198 0.822422432468 -0.359418451493 -1.08215140401 -0.959047913791 -1.04814380923 1.14638719083
19.5121053766 0.625285064512 -1.30139351185 0.233408058016 0.466444282688 0.822568766627 -0.359254168591 -1.08125306878 -0.958246469386 -1.04627569546 1.14621218662
20.0 0.625468985559 -1.29812093234 0.233806425397 0.467241017449 0.822714076985 -0.359090409207 -1.08035276072 -0.957446140426 -1.0444101537 1.14603766718
