liuchen18/hilsys_old/sim_sys/data/fwx_planned_trajectory_he.txt
this is the FWX joint values,the following info is time,x,y,theta,joint1,joint2,joint3,joint4,joint5,joint6,joint7
0.0 2.57765367058 0.141898572369 -2.28319549018 -2.7098316564 1.18844592081 -2.6344239113 -1.69692038368 0.975054647838 0.871866229444 -0.184793374289
0.0717995557496 2.57319017679 0.141942919275 -2.28360130239 -2.71064328081 1.18740927357 -2.63272058186 -1.69647481412 0.97636346673 0.870380917851 -0.185078314771
0.12719849354 2.56872633644 0.141986971224 -2.28400762252 -2.71145592107 1.18637279783 -2.63101666008 -1.69602350981 0.977670556945 0.868899257855 -0.185363169685
0.174306639001 2.56426214901 0.142030728124 -2.28441445149 -2.71226957902 1.18533651171 -2.62931215477 -1.69556648741 0.978975912767 0.867421252695 -0.185647935923
0.21632227088 2.55979761438 0.142074189648 -2.2848217907 -2.71308425743 1.18430043298 -2.62760707524 -1.6951037633 0.980279527189 0.865946905982 -0.185932610936
0.2547418257 2.55533273242 0.142117355398 -2.28522964152 -2.71389995906 1.18326457932 -2.62590143093 -1.69463535409 0.981581393504 0.864476221154 -0.186217191863
0.28545908842 2.55150545626 0.142154461863 -2.28557961317 -2.71459990237 1.1823774658 -2.62443904491 -1.69423019463 0.98269638497 0.863218199147 -0.186460321784
0.314398577277 2.54767785785 0.142190998617 -2.28593001849 -2.71530071301 1.18148999142 -2.62297613586 -1.69381958999 0.983809381071 0.861963509581 -0.186704222579
0.34193533205 2.54385000577 0.142227297214 -2.28628080256 -2.71600228115 1.18060270071 -2.62151288147 -1.69340490843 0.984921155775 0.860711472637 -0.186947935777
0.368399377673 2.54002189833 0.142263377282 -2.28663196617 -2.71670460837 1.17971562178 -2.62004923729 -1.69298609407 0.986031628734 0.859462134977 -0.187191572853
0.393832500955 2.53619353548 0.142299238575 -2.28698351016 -2.71740769635 1.17882876571 -2.61858520916 -1.69256315734 0.98714079569 0.858215498734 -0.187435132374
0.418519288995 2.53236491711 0.142334880787 -2.28733543533 -2.71811154669 1.17794214346 -2.61712080299 -1.69213610886 0.988248652697 0.856971565931 -0.187678612605
0.442481641563 2.52853604314 0.142370303614 -2.28768774247 -2.71881616098 1.177055766 -2.61565602466 -1.69170495927 0.98935519581 0.855730338593 -0.187922011885
0.465740404142 2.52470698151 0.142405903925 -2.28804036972 -2.71952141546 1.17617022292 -2.6141909322 -1.69127096192 0.99046106626 0.854491203829 -0.188164602023
0.488317027949 2.52087759811 0.142440922438 -2.28839344084 -2.72022755771 1.17528441492 -2.61272539054 -1.69083165707 0.991564941505 0.853255397806 -0.188407884372
0.510450276314 2.51704795969 0.142475706247 -2.2887468957 -2.72093446743 1.17439887161 -2.61125953004 -1.69038833108 0.992667548637 0.852022269897 -0.188650998116
0.532148863396 2.51321806521 0.142510269434 -2.28910073555 -2.72164214712 1.17351361668 -2.60979332064 -1.6899409466 0.993768826587 0.850791855352 -0.188894024424
0.553421324443 2.50938791458 0.14254461166 -2.28945496114 -2.72235059831 1.17262866099 -2.60832676823 -1.68948951438 0.994868771565 0.849564156077 -0.189136961713
0.574276029853 2.5055575077 0.142578732638 -2.28980957322 -2.72305982246 1.1717440154 -2.60685987848 -1.68903404495 0.995967379625 0.848339174113 -0.189379808742
0.594721182613 2.50172684445 0.142612631926 -2.29016457248 -2.72376982099 1.1708596906 -2.60539265746 -1.6885745494 0.997064647497 0.847116911118 -0.189622563389
0.614764489879 2.49789598926 0.142646685604 -2.29051989585 -2.72448046772 1.16997621876 -2.60392515793 -1.68811219351 0.998161198331 0.845896778461 -0.189864536394
0.63441451757 2.49406481197 0.142680155348 -2.29087567278 -2.72519202159 1.16909258516 -2.60245725574 -1.6876446338 0.999255715964 0.84467999313 -0.190107183676
0.653487915659 2.49023337851 0.142713388219 -2.29123183787 -2.72590435178 1.16820929157 -2.60098907429 -1.68717312762 1.00034894119 0.843465898448 -0.190349651693
0.672373733796 2.48640168817 0.142746397988 -2.29158839289 -2.72661746181 1.16732636172 -2.59952058461 -1.68669763846 1.00144081184 0.8422545302 -0.190592021432
0.691073818581 2.48256974082 0.14277918427 -2.29194533851 -2.72733135306 1.16644380627 -2.59805179254 -1.68621817719 1.00253132441 0.841045890145 -0.190834291373
0.709589994887 2.47873753634 0.14281174668 -2.29230267539 -2.72804602681 1.16556163588 -2.59658270386 -1.6857347547 1.00362047548 0.839839980061 -0.191076460038
0.727924074811 2.47490507458 0.142844084831 -2.29266040416 -2.72876148435 1.16467986116 -2.59511332432 -1.68524738188 1.00470826163 0.838636801704 -0.191318525962
0.746077543298 2.47107241987 0.142876574262 -2.29301845781 -2.72947759165 1.16379898713 -2.5936437027 -1.68475719697 1.00579531664 0.8374357619 -0.191559806145
0.764052787509 2.46723944249 0.142908477187 -2.29337697396 -2.73019462394 1.16291805282 -2.59217372413 -1.68426191313 1.00688030326 0.83623808662 -0.191801743111
0.781851254053 2.46340620767 0.142940140751 -2.29373588217 -2.73091244037 1.16203753264 -2.59070350563 -1.68376275857 1.00796397525 0.835043113468 -0.192043490527
0.799474683461 2.45957271496 0.142971578406 -2.29409518469 -2.7316310454 1.1611574503 -2.58923301933 -1.68325969762 1.00904626942 0.833850878778 -0.192285129142
0.816924798374 2.45573896421 0.143002789759 -2.29445488211 -2.73235044026 1.16027781634 -2.58776227093 -1.68275274115 1.01012718239 0.832661384269 -0.192526657721
0.834203303541 2.45190495526 0.143033774354 -2.29481497502 -2.73307062607 1.1593986412 -2.58629126626 -1.6822419003 1.01120671117 0.831474631496 -0.192768074643
0.851311887099 2.44807068796 0.143064531757 -2.29517546396 -2.73379160394 1.15851993531 -2.58482001104 -1.68172718612 1.01228485268 0.830290622062 -0.193009378462
0.868251936872 2.44423622657 0.143095437155 -2.29553627818 -2.7345132324 1.15764217709 -2.58334855031 -1.68120970889 1.01336225021 0.829108758884 -0.193249892994
0.885025677725 2.44040144172 0.143125753073 -2.29589756308 -2.73523580218 1.15676445838 -2.58187677759 -1.68068723874 1.01443754702 0.827930276045 -0.193491047102
0.901634462978 2.43656639796 0.143155826869 -2.29625924338 -2.7359591628 1.15588722667 -2.58040480404 -1.68016097458 1.01551150907 0.826754505787 -0.193732001672
0.918079915594 2.43273109511 0.143185671732 -2.29662132182 -2.73668331968 1.15501050574 -2.57893260271 -1.67963088132 1.01658407184 0.825581485212 -0.193972837641
0.934363643199 2.42889553302 0.143215287152 -2.29698379891 -2.73740827385 1.15413430587 -2.57746017947 -1.67909697025 1.01765523262 0.824411215692 -0.194213553328
0.950487235531 2.42505971149 0.14324467267 -2.29734667513 -2.73813402628 1.15325863736 -2.57598754 -1.67855925252 1.01872498856 0.823243698731 -0.194454147357
0.966294199397 2.42122363032 0.14327382782 -2.29770995095 -2.73886057794 1.15238351046 -2.57451469001 -1.67801773929 1.01979333687 0.822078935799 -0.194694618325
0.982101968354 2.4173873538 0.14330312751 -2.2980735521 -2.73958778023 1.15150937746 -2.57304167129 -1.67747351284 1.02086092972 0.82091632629 -0.194934296851
0.997911075297 2.41355075276 0.143331834407 -2.29843763129 -2.74031593861 1.150635382 -2.57156838481 -1.67692440041 1.02192639236 0.819757111596 -0.195174597984
1.01372125442 2.40971389116 0.143360296234 -2.2988021087 -2.74104489343 1.14976194526 -2.57009493627 -1.67637157134 1.0229905019 0.818600619082 -0.195414690161
1.02953250827 2.40587676909 0.143388525812 -2.29916698749 -2.74177465102 1.14888909093 -2.56862129987 -1.6758149915 1.02405319302 0.81744688638 -0.195654653885
1.04534483558 2.40203938637 0.143416522602 -2.29953226809 -2.74250521221 1.14801682914 -2.56714748142 -1.67525467228 1.02511446331 0.816295914729 -0.195894487513
1.06115823762 2.39820174276 0.143444286141 -2.2998979509 -2.74323657783 1.14714517001 -2.56567348652 -1.67469062484 1.02617431008 0.815147705576 -0.19613418987
1.07697271568 2.39436383805 0.143471815893 -2.30026403631 -2.74396874865 1.14627412359 -2.56419932094 -1.67412286058 1.02723273105 0.81400226014 -0.196373759331
1.09278800521 2.39052573657 0.143499486596 -2.3006304467 -2.74470156942 1.14540411653 -2.56272502362 -1.6735524336 1.02829038634 0.812858974795 -0.196612533582
1.10860463657 2.38668730925 0.14352656091 -2.3009973417 -2.74543535943 1.14453434332 -2.56125050203 -1.67297722838 1.02934588472 0.811719097439 -0.19685191367
1.12442234904 2.38284861953 0.143553387027 -2.30136463718 -2.74616995039 1.1436651993 -2.55977585695 -1.67239838457 1.03040001362 0.810581950944 -0.197091075706
1.14024114264 2.37900966775 0.143579977348 -2.30173233669 -2.7469053494 1.14279670806 -2.55830106377 -1.67181586916 1.0314527072 0.809447573354 -0.197330099427
1.15606101609 2.3751704537 0.143606331409 -2.30210044059 -2.74764155722 1.14192887963 -2.55682612804 -1.67122969327 1.03250396281 0.808315966075 -0.197568983878
1.17188197066 2.37133097713 0.143632448648 -2.30246894921 -2.74837857444 1.14106172389 -2.55535105552 -1.67063986841 1.03355377846 0.807187130199 -0.197807727425
1.1877040089 2.36749123778 0.143658328537 -2.30283786283 -2.74911640169 1.14019525073 -2.55387585185 -1.67004640597 1.03460215199 0.806061066907 -0.198046328668
1.20352686374 2.36365130009 0.14368434565 -2.30320710069 -2.7498548774 1.13932986159 -2.55240055367 -1.66945033201 1.03564975103 0.8049371698 -0.198284132101
1.21935106807 2.35981103498 0.143709762559 -2.30357682893 -2.75059433389 1.13846480085 -2.55092507406 -1.66884958815 1.03669516924 0.803816692593 -0.198522524786
1.23517636247 2.35597050543 0.143734927957 -2.30394695934 -2.7513345947 1.13760043852 -2.54944950939 -1.66824528449 1.0377392037 0.802698953893 -0.198760690299
1.25100274437 2.35212971202 0.143759853935 -2.30431749585 -2.75207566773 1.13673679814 -2.547973836 -1.66763738872 1.03878178757 0.801583992506 -0.198998708332
1.26683021379 2.34828865453 0.143784539947 -2.30468843874 -2.75281755352 1.13587388948 -2.54649805955 -1.66702591224 1.03982291879 0.800471809531 -0.199236577563
1.28265877328 2.34444733266 0.143808985451 -2.30505978825 -2.75356025253 1.1350117223 -2.54502218568 -1.66641086652 1.04086259547 0.799362406036 -0.19947429661
1.29848842156 2.34060574613 0.143833189919 -2.30543154459 -2.75430376522 1.13415030632 -2.54354621997 -1.66579226294 1.04190081563 0.798255783134 -0.199711864228
1.31431889538 2.33676395956 0.143857527792 -2.30580362404 -2.75504792412 1.13329001824 -2.54207019719 -1.66517109963 1.0429382538 0.797151331993 -0.19994863167
1.33015072635 2.33292184371 0.143881261471 -2.30617619884 -2.75579307371 1.13243015135 -2.54059403517 -1.66454537523 1.04397348995 0.796050311392 -0.200185971873
1.34598365634 2.32907946116 0.143904740233 -2.30654917691 -2.75653902986 1.13157105082 -2.53911782632 -1.66391617026 1.04500732996 0.794952036073 -0.200423076065
1.36181768151 2.32523681277 0.143927975785 -2.30692256257 -2.75728580117 1.13071274008 -2.53764154804 -1.66328345331 1.04603970633 0.793856545422 -0.200660023442
1.37765280313 2.32139389827 0.143950967621 -2.30729635602 -2.75803338807 1.12985522879 -2.53616520585 -1.66264723567 1.04707061702 0.792763840583 -0.200896813059
1.39348902249 2.31755071734 0.143973715133 -2.30767055738 -2.7587817908 1.12899852644 -2.53468880548 -1.66200752905 1.04810006071 0.79167392232 -0.201133443194
1.40932634087 2.31370726966 0.143996217801 -2.30804516682 -2.75953100967 1.12814264259 -2.53321235245 -1.66136434483 1.04912803558 0.790586791682 -0.201369912747
1.42516449117 2.3098636201 0.144018850003 -2.30842009784 -2.76028087171 1.12728792976 -2.53173587996 -1.66071865309 1.05015522216 0.789501837916 -0.201605580074
1.44100400757 2.3060196391 0.144040873874 -2.30879552835 -2.76103173274 1.12643372905 -2.53025930986 -1.66006850949 1.05118018837 0.788420323981 -0.201841803551
1.45684463193 2.30217538899 0.144062639365 -2.30917136269 -2.7617834014 1.12558036142 -2.52878273098 -1.65941496486 1.05220374784 0.787341561246 -0.202077782424
1.4726863617 2.29833087085 0.144084157818 -2.30954760551 -2.76253588704 1.12472785017 -2.52730612169 -1.65875798864 1.05322583241 0.786265589755 -0.202313595521
1.48852919687 2.29448608435 0.144105428665 -2.30992425691 -2.76328918985 1.12387620469 -2.52582948762 -1.65809759234 1.05424644058 0.785192410351 -0.20254924155
1.50437314 2.29064102917 0.144126451347 -2.31030131697 -2.76404330996 1.12302543438 -2.52435283433 -1.6574337875 1.05526557099 0.784122023858 -0.202784719193
1.52021819108 2.28679570497 0.144147225314 -2.31067878573 -2.76479824749 1.12217554857 -2.52287616737 -1.65676658563 1.05628322225 0.783054431115 -0.203020027198
1.53606408177 2.28295017689 0.144168124891 -2.31105657416 -2.76555382435 1.12132687605 -2.52139951878 -1.65609692893 1.05730008021 0.781989019797 -0.203254531023
1.55191134877 2.27910431497 0.144188411941 -2.31143486542 -2.76631040687 1.12047880478 -2.51992281367 -1.65542292974 1.05831470209 0.780927056368 -0.203489574468
1.56775973524 2.27525818131 0.144208437077 -2.31181356047 -2.76706779696 1.11963163197 -2.51844613772 -1.65474560943 1.0593279087 0.779867849029 -0.203724364591
1.58360923606 2.27141177723 0.144228211302 -2.31219266431 -2.76782600465 1.11878538079 -2.51696947024 -1.65406493817 1.06033963105 0.778811438604 -0.20395898005
1.5994598525 2.26756510238 0.144247734027 -2.31257217696 -2.76858502995 1.11794006045 -2.51549281686 -1.65338092758 1.06134986804 0.77775782574 -0.204193419427
1.61531158585 2.2637181564 0.144267004686 -2.31295209839 -2.7693448728 1.11709568012 -2.51401618314 -1.65269358923 1.0623586186 0.776707011112 -0.204427681378
1.63116443865 2.25987093892 0.144286022745 -2.31333242857 -2.77010553318 1.11625224898 -2.51253957457 -1.65200293459 1.0633658815 0.775658995496 -0.204661764788
1.64701814 2.25602351544 0.144305162467 -2.31371307613 -2.77086682828 1.11541007256 -2.51106302238 -1.65130987817 1.06437234736 0.774613165308 -0.204895042182
1.6628732279 2.25217575546 0.144323685446 -2.31409422903 -2.7716291341 1.11456858468 -2.50958645422 -1.65061258862 1.06537656403 0.773570789808 -0.20512884266
1.67872944676 2.24832772095 0.144341942986 -2.31447578515 -2.77239224632 1.11372805932 -2.50810995302 -1.64991205797 1.06637935863 0.772531174425 -0.205362381286
1.69458679019 2.24447941343 0.144359945668 -2.31485774974 -2.77315617552 1.11288851942 -2.50663349916 -1.64920825742 1.06738066194 0.771494360453 -0.205595735903
1.71044526075 2.24063083253 0.144377692996 -2.3152401228 -2.77392092162 1.11204997411 -2.50515709805 -1.64850119825 1.06838047254 0.770460348761 -0.20582890578
1.72630485971 2.23678197787 0.144395184353 -2.31562290417 -2.77468648437 1.1112124323 -2.50368075535 -1.64779089223 1.06937878998 0.769429139686 -0.206061889184
1.74216558836 2.23293284906 0.144412419211 -2.31600609377 -2.77545286357 1.11037590298 -2.50220447651 -1.64707735084 1.07037561325 0.76840073389 -0.206294685033
1.7580271745 2.22908351201 0.144429771804 -2.31638959804 -2.77621987212 1.10954066899 -2.50072829219 -1.64636146093 1.07137163683 0.767374517039 -0.206526673267
1.77389015868 2.22523383555 0.144446503439 -2.3167736094 -2.77698789482 1.10870620891 -2.49925213205 -1.64564144719 1.07236540082 0.766351760314 -0.206759167841
1.78975428788 2.22138388159 0.144462966108 -2.31715802279 -2.77775672161 1.10787277401 -2.49777607661 -1.64491827254 1.07335773795 0.765331766679 -0.206991391839
1.80561955188 2.21753365187 0.144479170098 -2.31754284383 -2.77852636369 1.10704038715 -2.49630010703 -1.64419190868 1.07434857795 0.764314578422 -0.207223423268
1.82148595451 2.213683146 0.144495114832 -2.31792807236 -2.77929682075 1.10620905716 -2.49482422888 -1.64346236721 1.07533792024 0.763300195936 -0.207455260741
1.83735349704 2.20983236356 0.144510799734 -2.31831370818 -2.7800680924 1.10537879279 -2.49334844774 -1.64272965979 1.07632576439 0.762288619555 -0.207686902784
1.85322218076 2.20598130415 0.144526224279 -2.31869975112 -2.78084017826 1.10454960281 -2.49187276906 -1.64199379787 1.07731210971 0.76127984979 -0.207918348277
1.86909173092 2.20213003414 0.144541762645 -2.31908610565 -2.78161288733 1.10372174787 -2.49039722319 -1.64125564093 1.07829765391 0.760273271893 -0.208148984594
1.88496269445 2.19827842157 0.144556675888 -2.31947296818 -2.7823866124 1.10289475027 -2.48892174128 -1.64051346924 1.07928093075 0.759270158198 -0.208380110305
1.90083481323 2.1944265284 0.144571316733 -2.31986023107 -2.78316113817 1.10206883918 -2.48744640161 -1.6397682166 1.08026277742 0.758269809792 -0.208610957048
1.91670808086 2.19057435656 0.144585695059 -2.32024790015 -2.78393647633 1.10124403721 -2.48597118636 -1.63901985565 1.08124312344 0.757272269481 -0.208841602079
1.93258249862 2.18672190562 0.144599810311 -2.3206359752 -2.78471262643 1.10042035299 -2.48449610107 -1.63826839791 1.08222196837 0.756277537589 -0.209072044135
1.94845806779 2.18286917516 0.144613661927 -2.32102445593 -2.78548958789 1.09959779507 -2.48302115128 -1.63751385501 1.08319931207 0.755285614311 -0.209302281733
1.96433478965 2.17901616474 0.144627249399 -2.32141334209 -2.78626736021 1.09877637205 -2.48154634242 -1.63675623837 1.08417515401 0.754296500054 -0.209532313815
1.98021239072 2.17516294127 0.14464094682 -2.32180253641 -2.78704574884 1.09795632287 -2.48007170483 -1.63599638032 1.08515019453 0.75330958 -0.209761535227
1.99609141667 2.17130937189 0.144654015057 -2.32219223887 -2.78782515376 1.09713721248 -2.47859717058 -1.63523261618 1.08612296242 0.752326126909 -0.209991228979
2.0119716132 2.16745551866 0.144666807526 -2.32258233943 -2.78860535489 1.09631924846 -2.47712281608 -1.63446585094 1.08709429867 0.751345440258 -0.210220635205
2.02785296881 2.16360138369 0.144679333721 -2.32297284418 -2.78938636439 1.09550245321 -2.47564862447 -1.63369605808 1.0880641325 0.750367563472 -0.210449830586
2.0437354886 2.15974696655 0.144691593093 -2.32336375279 -2.79016818161 1.09468683512 -2.47417460126 -1.63292324913 1.08903246379 0.749392496698 -0.210678813785
2.05961917259 2.15589226679 0.144703585154 -2.32375506495 -2.79095080594 1.09387240262 -2.47270075188 -1.63214743543 1.08999929217 0.748420240262 -0.210907583799
2.07550402331 2.15203728395 0.144715309338 -2.32414678028 -2.79173423659 1.09305916399 -2.47122708188 -1.63136862867 1.09096461794 0.7474507941 -0.21113613897
2.0913897622 2.14818208553 0.144727139662 -2.32453879994 -2.7925182759 1.09224733705 -2.46975362171 -1.63058763414 1.09192914305 0.746483543892 -0.211363882084
2.10727694002 2.14432653763 0.144738336856 -2.32493132711 -2.79330333025 1.09143652833 -2.46828030401 -1.62980284167 1.09289139285 0.74551976196 -0.211592080159
2.12316530248 2.14047070253 0.144749255022 -2.32532424961 -2.79408917525 1.09062692439 -2.46680720348 -1.62901512766 1.09385221118 0.744558746662 -0.211819982161
2.13905483935 2.13661458249 0.144759903264 -2.32571757373 -2.79487582348 1.08981854735 -2.46533430422 -1.62822446645 1.09481152708 0.743600541993 -0.21204766411
2.15494555063 2.13275817709 0.144770281088 -2.32611129909 -2.79566327421 1.08901140547 -2.46386161164 -1.62743086935 1.09576934035 0.742645148145 -0.212275124985
2.17083744144 2.12890148584 0.144780387963 -2.32650542526 -2.79645152654 1.08820550685 -2.46238913129 -1.6266343479 1.09672565134 0.741692565017 -0.212502363278
2.18673051177 2.12504450827 0.144790223382 -2.3268999518 -2.79724057963 1.08740085961 -2.46091686863 -1.62583491356 1.09768046028 0.740742792584 -0.212729377646
2.20262448047 2.1211873125 0.144800161194 -2.32729477849 -2.798030233 1.08659766093 -2.45944485448 -1.62503334512 1.09863447049 0.739795217172 -0.212955578521
2.21851990474 2.11732976354 0.144809462105 -2.32769011131 -2.79882089866 1.08579555784 -2.45797302164 -1.62422808617 1.09958620505 0.738851109989 -0.213182216838
2.23441652641 2.1134719239 0.144818480829 -2.32808583615 -2.79961234833 1.08499471639 -2.45650144341 -1.62341998494 1.10053651013 0.737909768519 -0.213408550296
2.25031433656 2.10961379604 0.144827226128 -2.3284819595 -2.80040459504 1.08419515848 -2.45503010469 -1.62260901644 1.10148531428 0.736971237528 -0.213634654598
2.26621333517 2.1057553795 0.144835697503 -2.32887848092 -2.80119763786 1.08339689211 -2.45355901098 -1.62179519201 1.10243261773 0.736035516946 -0.21386052851
2.28211352609 2.10189667378 0.144843894448 -2.32927539987 -2.80199147577 1.08259992518 -2.45208816778 -1.62097852311 1.10337842104 0.73510260654 -0.214086170544
2.29801491059 2.09803767841 0.144851816488 -2.32967271587 -2.80278610777 1.08180426559 -2.45061758053 -1.62015902106 1.10432272455 0.73417250621 -0.214311579472
2.31391720496 2.09417846215 0.144859837265 -2.33007032747 -2.80358133098 1.08101009039 -2.44914728055 -1.61933743848 1.10526623229 0.733244603308 -0.214536173499
2.32982097151 2.09031888883 0.144867217538 -2.33046844308 -2.8043775622 1.08021708601 -2.44767720056 -1.61851227207 1.10620746656 0.73232016705 -0.214761187042
2.34572594952 2.08645902131 0.144874312651 -2.33086694691 -2.80517456985 1.07942539862 -2.44620741248 -1.61768434201 1.10714727463 0.731398494754 -0.214985887209
2.36163213007 2.08259886217 0.144881130962 -2.33126584561 -2.80597236726 1.07863504982 -2.44473790218 -1.61685362418 1.10808558507 0.730479631635 -0.215210348846
2.37753951313 2.07873841094 0.144887671979 -2.33166513864 -2.80677095332 1.07784604733 -2.44326867517 -1.61602012992 1.10902239849 0.729563577391 -0.215434570573
2.39344810256 2.07487766713 0.144893935242 -2.33206482543 -2.80757032689 1.07705839886 -2.4417997369 -1.61518387051 1.10995771548 0.728650331754 -0.215658551082
2.40935789835 2.07101663025 0.144899920317 -2.33246490542 -2.80837048687 1.07627211212 -2.44033109276 -1.61434485711 1.11089153647 0.72773989457 -0.215882289293
2.4252686168 2.06715536975 0.144906000556 -2.33286527612 -2.80917122827 1.07548734451 -2.43886277475 -1.61350381664 1.11182456575 0.726831654468 -0.216105211114
2.44118082275 2.06329374822 0.14491143693 -2.33326614799 -2.80997297201 1.07470382084 -2.43739471521 -1.61265929794 1.11275532584 0.725926878087 -0.216328534486
2.4570942555 2.05943182887 0.144916585292 -2.33366740376 -2.81077548354 1.07392166784 -2.43592698493 -1.61181209379 1.11368466485 0.725024862665 -0.216551535551
2.47300890484 2.05556961444 0.144921453634 -2.33406905024 -2.8115787765 1.07314090682 -2.43445957066 -1.6109621808 1.11461251118 0.72412565401 -0.216774288564
2.48892477076 2.05170710446 0.144926041496 -2.33447108681 -2.81238284966 1.07236154529 -2.4329924779 -1.61010957018 1.11553886562 0.723229251708 -0.216996792195
2.50484185838 2.04784429842 0.144930348455 -2.33487351286 -2.81318770175 1.07158359074 -2.43152571204 -1.60925427307 1.11646372884 0.722335655412 -0.217219045249
2.52076016641 2.04398119582 0.144934374064 -2.33527632772 -2.81399333146 1.07080705058 -2.43005927858 -1.60839630069 1.11738710184 0.721444864593 -0.21744104627
2.53667940733 2.04011786686 0.144938491404 -2.33567942807 -2.81479953217 1.07003206325 -2.4285932101 -1.60753635431 1.11830968787 0.72055626997 -0.217662229714
2.55260015364 2.03625417278 0.144941961742 -2.33608302606 -2.81560672816 1.06925839071 -2.42712743845 -1.6066730343 1.11923001137 0.719671134568 -0.217883796351
2.56852214209 2.03239017724 0.144945141387 -2.33648700314 -2.8164146823 1.06848614087 -2.42566203343 -1.60580710633 1.1201489204 0.718788756027 -0.218105031647
2.5844453599 2.02852588312 0.144948038001 -2.33689136629 -2.81722340861 1.06771533479 -2.42419698256 -1.60493854762 1.12106634297 0.717909180921 -0.218326009547
2.60036981091 2.02466128992 0.144950651123 -2.33729611481 -2.81803290565 1.06694597968 -2.42273229139 -1.60406736941 1.12198228034 0.717032408508 -0.218546728438
2.6162954964 2.02079639715 0.144952980359 -2.337701248 -2.81884317202 1.0661780828 -2.42126796531 -1.60319358268 1.12289673338 0.716158438305 -0.218767187144
2.63222241891 2.0169312043 0.144955025281 -2.33810676511 -2.81965420626 1.06541165129 -2.41980400983 -1.60231719859 1.12380970334 0.715287269576 -0.218987384122
2.64815028453 2.01306578231 0.144957158599 -2.33851256219 -2.82046580042 1.06464680512 -2.41834045824 -1.60143889336 1.12472189216 0.714418295309 -0.219206762174
2.66407967216 2.00919999106 0.144958642034 -2.33891885269 -2.8212783814 1.06388334235 -2.41687724178 -1.60055731784 1.12563182723 0.713552774247 -0.219426504816
2.68001031726 2.00533389469 0.144959832297 -2.339325517 -2.82209171003 1.06312135261 -2.41541442926 -1.59967321102 1.12654035573 0.712690004951 -0.219645907162
2.69594220578 2.00146749619 0.144960736665 -2.33973256223 -2.82290580049 1.06236085661 -2.41395200912 -1.59878655095 1.12744740587 0.71183003437 -0.21986504225
2.71187534283 1.99760079509 0.144961354743 -2.34013998764 -2.8237206513 1.06160186137 -2.41248998679 -1.59789734856 1.12835297872 0.710972861854 -0.220083908847
2.72780972842 1.99373379086 0.144961686114 -2.3405477924 -2.82453626083 1.06084437381 -2.41102836781 -1.59700561495 1.12925707588 0.710118486412 -0.22030250523
2.74374536509 1.98986648301 0.144961730426 -2.34095597577 -2.82535262756 1.06008840091 -2.40956715755 -1.59611136094 1.13015969833 0.709266907463 -0.220520830335
2.75968195765 1.98599894325 0.144961859915 -2.34136443323 -2.82616954249 1.05933404466 -2.40810639011 -1.5952152383 1.13106154637 0.708417520445 -0.220738335133
2.77562008882 1.98213103004 0.144961336909 -2.34177337923 -2.82698743448 1.05858113808 -2.40664599607 -1.59431594737 1.13196115157 0.70757157905 -0.220956185643
2.79155949281 1.97826280804 0.144960518435 -2.34218269332 -2.82780606268 1.05782975308 -2.40518604332 -1.59341420096 1.13285935953 0.706728383138 -0.221173686717
2.80750015683 1.97439428037 0.144959411419 -2.34259238272 -2.82862544148 1.05707991005 -2.40372652111 -1.59250997782 1.13375609847 0.705887980188 -0.22139091075
2.82344208089 1.97052544655 0.144958015474 -2.3430024466 -2.82944556923 1.05633161573 -2.40226743493 -1.59160328881 1.13465136986 0.705050369247 -0.221607856295
2.83938526881 1.96665630608 0.144956330271 -2.34341288414 -2.83026644431 1.05558487688 -2.40080879017 -1.59069414465 1.13554517485 0.704215549575 -0.221824522241
2.85532972315 1.96278685842 0.14495435541 -2.34382369442 -2.83108806488 1.05483970007 -2.39935059239 -1.58978255636 1.13643751547 0.703383519872 -0.22204090668
2.87127514487 1.95891717611 0.144952462643 -2.34423477266 -2.83191022134 1.05409616999 -2.39789287631 -1.58886915148 1.13732908913 0.70255367883 -0.222256469536
2.88722212184 1.95504711614 0.14494991506 -2.34464633392 -2.83273334387 1.05335415349 -2.3964355719 -1.5879526788 1.13821843274 0.701727274318 -0.222472359076
2.90317038694 1.95117674374 0.144947069912 -2.34505825712 -2.83355719028 1.05261370531 -2.39497874612 -1.5870338255 1.13910638977 0.700903607873 -0.222687889972
2.91911992486 1.94730606213 0.144943933755 -2.34547054954 -2.83438177511 1.05187484545 -2.39352238911 -1.5861125711 1.13999288871 0.700082727288 -0.222903133698
2.93507073943 1.94343507083 0.144940506261 -2.34588321031 -2.83520709665 1.05113758046 -2.39206650628 -1.5851889262 1.14087793091 0.699264631645 -0.223118089093
2.95102283319 1.93956376936 0.144936787112 -2.34629623853 -2.8360331531 1.05040191679 -2.39061110306 -1.58426290143 1.1417615179 0.698449319923 -0.223332754865
2.96729686903 1.93569215719 0.144932775955 -2.34670963326 -2.83685994255 1.04966786079 -2.38915618499 -1.5833345076 1.14264365171 0.697636790753 -0.223547129254
2.98373465283 1.93182030763 0.144928843927 -2.34712328948 -2.83768725499 1.04893548027 -2.38770178748 -1.58240434879 1.14352502691 0.696826446086 -0.223760680698
3.0003384529 1.92794807621 0.144924255036 -2.3475374226 -2.83851552122 1.04820467478 -2.38624783997 -1.58147122113 1.14440418695 0.696019527137 -0.223974539389
3.01710965836 1.92407552875 0.144919366679 -2.34795191106 -2.83934449816 1.04747548245 -2.38479440849 -1.58053578672 1.14528197236 0.695215337613 -0.224188030071
3.03404994454 1.92020266859 0.14491418509 -2.34836676226 -2.84017420055 1.04674792302 -2.38334148391 -1.57959802561 1.14615831152 0.69441392591 -0.224401223752
3.0511610175 1.91632949526 0.144908709963 -2.34878197526 -2.84100462655 1.0460220027 -2.38188907169 -1.57865794829 1.14703320602 0.693615290896 -0.224614119189
3.06844459985 1.91245600825 0.144902940982 -2.34919754906 -2.84183577416 1.04529772765 -2.3804371773 -1.57771556537 1.1479066579 0.692819431142 -0.224826714745
3.0859024347 1.90858220707 0.144896877848 -2.34961348268 -2.8426676414 1.04457510395 -2.37898580623 -1.57677088737 1.1487786691 0.692026345287 -0.225039008911
3.10353594053 1.90470816581 0.144890891006 -2.35002967107 -2.84350001817 1.04385418318 -2.37753499453 -1.57582449544 1.14964993078 0.691235438904 -0.225250478762
3.12134755563 1.90083373852 0.144884245553 -2.35044632963 -2.8443333353 1.04313489639 -2.37608467122 -1.57487523194 1.15051899396 0.690447945844 -0.225462236261
3.13933877004 1.89695899166 0.144877298953 -2.35086333658 -2.8451673492 1.04241726573 -2.37463490131 -1.57392373432 1.15138669542 0.689663172533 -0.225673616539
3.15751138054 1.89308392864 0.144870057087 -2.35128069933 -2.84600207469 1.04170131054 -2.37318567651 -1.57296998339 1.15225296393 0.688881167615 -0.225884689659
3.17586721711 1.889208549 0.144862519662 -2.35169841687 -2.84683750977 1.04098703673 -2.37173700229 -1.57201398953 1.15311780145 0.688101929641 -0.226095454167
3.19440812762 1.88533285224 0.144854686415 -2.35211648818 -2.84767365239 1.04027445022 -2.3702888841 -1.57105576305 1.15398120988 0.687325457215 -0.226305908713
3.21313598295 1.88145683789 0.144846557084 -2.35253491223 -2.84851050048 1.03956355683 -2.3688413274 -1.5700953143 1.15484319126 0.686551748846 -0.226516051848
3.2320523 1.87758058085 0.144838501335 -2.35295358404 -2.8493478441 1.03885439239 -2.36739436878 -1.56913320209 1.15570443291 0.685780214029 -0.226725369303
3.2511597049 1.87370393366 0.144829785529 -2.35337271874 -2.85018611351 1.03814691836 -2.36594793704 -1.56816831378 1.15656349441 0.685012078531 -0.226934954659
3.27084772269 1.86982696342 0.144820767077 -2.35379219446 -2.85102506494 1.03744114141 -2.36450209614 -1.56720126289 1.15742120845 0.684246651733 -0.227144153281
3.29093312475 1.86594967365 0.144811451537 -2.35421201864 -2.85186471331 1.03673708053 -2.36305683855 -1.56623203083 1.15827750395 0.683483982673 -0.227353034546
3.31142393515 1.86207206388 0.144801838653 -2.35463219025 -2.85270505653 1.03603474137 -2.36161216973 -1.56526062777 1.15913238291 0.68272406982 -0.227561597125
3.33232833771 1.85819413365 0.14479192819 -2.3550527082 -2.85354609243 1.03533412953 -2.36016809512 -1.56428706387 1.15998584744 0.681966911553 -0.227769839594
3.35365468367 1.85431588246 0.144781719901 -2.35547357138 -2.8543878188 1.03463525054 -2.35872462022 -1.56331134932 1.16083789989 0.681212506101 -0.227977760359
3.37541106482 1.85043738603 0.14477158261 -2.35589467508 -2.85523002619 1.0339381251 -2.35728178201 -1.56233402115 1.16168922303 0.680460267375 -0.228184854107
3.39760700554 1.84655849541 0.144760784112 -2.35631623385 -2.85607314373 1.0332427439 -2.35583950927 -1.56135401047 1.162538386 0.679711412298 -0.228392195815
3.42025098868 1.84267927837 0.144749681675 -2.35673812588 -2.8569169278 1.03254909871 -2.35439786483 -1.56037190747 1.16338621675 0.67896525371 -0.22859914132
3.44358305038 1.8387997385 0.144738280539 -2.35716035869 -2.85776139342 1.03185720817 -2.35295684188 -1.55938769414 1.16423264435 0.678221841016 -0.228805759314
3.46762409873 1.83491987534 0.144726580458 -2.35758293114 -2.85860653831 1.03116707759 -2.35151644594 -1.55840138058 1.16507767126 0.67748117228 -0.229012048155
3.49239568208 1.83103968845 0.144714581247 -2.35800584213 -2.85945236028 1.03047871233 -2.35007668242 -1.55741297662 1.1659212994 0.676743245952 -0.229218006754
3.5179200018 1.82715917734 0.14470228268 -2.35842909047 -2.86029885697 1.0297921176 -2.3486375568 -1.55642249235 1.16676353143 0.676008059947 -0.22942363334
3.54448240789 1.82327841852 0.144690052653 -2.35885257185 -2.86114581972 1.02910729955 -2.34719910632 -1.55543044357 1.16760504508 0.675275032976 -0.229628431687
3.57212618872 1.81939726156 0.144677160553 -2.35927649994 -2.8619936759 1.0284242769 -2.34576126009 -1.55443580395 1.16844442023 0.674545372223 -0.229833457786
3.60118254749 1.81551577493 0.14466396343 -2.35970075323 -2.86284218249 1.02774302717 -2.34432407957 -1.55343914089 1.1692824791 0.673818394681 -0.230038078406
3.63202905041 1.81163396226 0.144650466187 -2.36012533921 -2.86369135444 1.02706356854 -2.34288755877 -1.55244043708 1.17011915144 0.673094149759 -0.230242361119
3.66477598738 1.80775182313 0.144636668626 -2.36055025672 -2.86454118946 1.0263859061 -2.34145170316 -1.5514397023 1.17095443951 0.672372635568 -0.230446304587
3.69988809303 1.80386935708 0.14462257056 -2.36097550456 -2.86539168515 1.02571004481 -2.3400165182 -1.55043694637 1.17178834585 0.671653850044 -0.230649907275
3.73829292362 1.79998656367 0.144608171815 -2.36140108155 -2.86624283913 1.02503598965 -2.33858200935 -1.54943217904 1.17262087287 0.670937791174 -0.23085316775
3.78114273773 1.79610352016 0.144593839269 -2.36182688385 -2.86709444373 1.02436373278 -2.3371482139 -1.54842589561 1.17345269302 0.670223882667 -0.231055598769
3.83085534044 1.7922200747 0.144578844082 -2.36225312404 -2.8679469241 1.0236933198 -2.33571506161 -1.54741711093 1.17428239759 0.6695133214 -0.231258237386
3.89320802172 1.78833629641 0.14456354295 -2.36267968097 -2.86880003797 1.02302471444 -2.33428261251 -1.54640637045 1.17511080313 0.668805428529 -0.23146046085
3.94295942729 1.78444867877 0.144565431984 -2.36310725711 -2.86965519024 1.02239622602 -2.33284234818 -1.54534069259 1.17587137826 0.668123168789 -0.23174951695
3.98590240839 1.78056097577 0.144566762326 -2.36353506911 -2.87051081425 1.02176824367 -2.33140320909 -1.54427529857 1.17663347322 0.667442262865 -0.232034868007
4.02435857571 1.77667299222 0.144567745205 -2.36396322798 -2.87136713198 1.02114202892 -2.32996489931 -1.54320804243 1.17739435236 0.666763955801 -0.232319747182
4.05952312222 1.77278472751 0.144568380296 -2.36439173227 -2.87222414057 1.02051758575 -2.32852742397 -1.5421389334 1.17815401879 0.66608824564 -0.232604152661
4.09232399521 1.7688961943 0.144568714853 -2.36482056719 -2.87308181042 1.0198949074 -2.32709079208 -1.54106806442 1.17891258313 0.665415046039 -0.232887994441
4.12322614913 1.76500737826 0.144568701705 -2.36524974446 -2.87394016495 1.01927400737 -2.32565500525 -1.53999535639 1.17966993762 0.664744442545 -0.233171363346
4.15233949432 1.76111827931 0.144568339878 -2.36567926278 -2.87479920159 1.01865489069 -2.3242200681 -1.5389208232 1.18042608897 0.664076429725 -0.233454252915
4.18004186155 1.75722889688 0.14456762906 -2.36610912069 -2.87565891742 1.01803756122 -2.32278598576 -1.53784447408 1.18118104039 0.663411005444 -0.233736661272
4.20666523607 1.75333923041 0.144566568943 -2.36653931674 -2.87651930951 1.01742202276 -2.32135276334 -1.53676631822 1.18193479512 0.66274816754 -0.234018586535
4.23225164879 1.74944927931 0.144565159225 -2.36696984945 -2.87738037492 1.01680827907 -2.31992040597 -1.53568636479 1.18268735637 0.662087913824 -0.23430002683
4.25708738773 1.74555904304 0.144563399606 -2.36740071733 -2.87824211069 1.01619633387 -2.31848891877 -1.53460462294 1.18343872741 0.661430242078 -0.23458098028
4.28119448043 1.74166852151 0.14456128914 -2.36783191908 -2.8791045142 1.01558619193 -2.31705830632 -1.53352110632 1.18418891495 0.660775146787 -0.23486144049
4.30459431166 1.73777771318 0.144558828843 -2.36826345288 -2.87996758178 1.0149778547 -2.3156285748 -1.53243581495 1.18493791534 0.660122632209 -0.235141414601
4.32730763108 1.73388661799 0.144556017777 -2.36869531738 -2.88083131079 1.01437132685 -2.31419972878 -1.53134876244 1.18568573533 0.659472692783 -0.235420896237
4.34957505371 1.72999523539 0.14455285566 -2.3691275111 -2.88169569823 1.01376661192 -2.31277177338 -1.53025995781 1.1864323782 0.65882532618 -0.235699883523
4.37140533461 1.72610356481 0.144549342215 -2.36956003253 -2.88256074108 1.0131637134 -2.3113447137 -1.52916941008 1.18717784727 0.658180530045 -0.235978374584
4.39280706014 1.7222116057 0.144545477171 -2.36999288014 -2.88342643632 1.01256263475 -2.30991855484 -1.52807712824 1.18792214585 0.657538301994 -0.236256367549
4.41378864543 1.71831935752 0.14454126026 -2.37042605244 -2.88429278091 1.01196337937 -2.30849330189 -1.52698312125 1.18866527726 0.656898639617 -0.236533860544
4.43435833819 1.7144268202 0.144536690572 -2.37085954805 -2.88515977214 1.01136595164 -2.30706895941 -1.52588740246 1.18940724826 0.65626153727 -0.236810847266
4.45452423279 1.71053399224 0.144531769139 -2.37129336513 -2.88602740629 1.01077035285 -2.30564553358 -1.52478997193 1.19014805537 0.65562699889 -0.237087334693
4.47409851286 1.70664087357 0.144526495059 -2.3717275023 -2.88689568062 1.01017658729 -2.30422302894 -1.52369084298 1.19088770536 0.654995018785 -0.23736331654
4.49348043866 1.70274746366 0.14452086808 -2.37216195801 -2.88776459206 1.00958465818 -2.30280145058 -1.52259002443 1.1916262016 0.654365594435 -0.237638790941
4.51267190152 1.69885376197 0.144514887958 -2.37259673074 -2.88863413751 1.00899456869 -2.30138080358 -1.52148752512 1.19236354745 0.653738723293 -0.237913756033
4.53167477614 1.69495976796 0.144508554447 -2.37303181893 -2.88950431388 1.00840632197 -2.29996109301 -1.52038335385 1.1930997463 0.653114402781 -0.238188209949
4.55049091935 1.69106548111 0.144501867309 -2.37346722101 -2.89037511805 1.00781992111 -2.29854232395 -1.51927751939 1.19383480155 0.652492630298 -0.238462150832
4.56912216497 1.68717090135 0.144494825671 -2.3739029356 -2.89124654724 1.00723537011 -2.29712450091 -1.51817003478 1.19456871995 0.651873400076 -0.238735572476
4.58757033659 1.68327602722 0.14448743058 -2.37433896081 -2.89211859765 1.00665267008 -2.29570763008 -1.51706090014 1.19530149821 0.651256715723 -0.239008481698
4.60583723354 1.67938085866 0.144479681169 -2.37477529523 -2.89299126648 1.0060718249 -2.29429171595 -1.51595012846 1.19603314309 0.650642571426 -0.239280872314
4.62392464107 1.67548539516 0.144471577216 -2.37521193728 -2.89386455058 1.00549283749 -2.2928767636 -1.5148377284 1.19676365802 0.650030964472 -0.239552742471
4.64183432271 1.67158963619 0.144463118502 -2.37564888538 -2.89473844678 1.00491571072 -2.29146277806 -1.51372370858 1.19749304643 0.649421892123 -0.239824090324
4.65956802794 1.66769358124 0.144454304811 -2.37608613795 -2.89561295192 1.0043404474 -2.2900497644 -1.51260807763 1.19822131177 0.648815351611 -0.240094914022
4.67712748835 1.6637972298 0.144445135932 -2.37652369339 -2.89648806281 1.0037670503 -2.28863772765 -1.51149084411 1.19894845746 0.648211340143 -0.240365211722
4.69451441635 1.65990058181 0.144435611028 -2.37696155028 -2.89736377659 1.00319552305 -2.28722667228 -1.51037202077 1.19967449027 0.64760985183 -0.240634977326
4.71173051159 1.65600363584 0.144425731157 -2.37739970669 -2.89824008942 1.00262586656 -2.28581660449 -1.50925160776 1.20039940708 0.647010889954 -0.240904217494
4.7287774558 1.65210639186 0.144415495489 -2.37783816119 -2.89911699841 1.00205808433 -2.28440752872 -1.50812961777 1.20112321462 0.64641444858 -0.24117292615
4.74565691029 1.64820884935 0.144404903826 -2.37827691216 -2.89999450034 1.00149217897 -2.28299945002 -1.50700605925 1.20184591638 0.645820524806 -0.241441101464
4.76237052358 1.64431100782 0.144393955978 -2.37871595798 -2.90087259199 1.00092815301 -2.28159237339 -1.50588094066 1.20256751583 0.645229115703 -0.241708741606
4.77891992758 1.64041286677 0.144382651755 -2.37915529705 -2.90175127012 1.00036600895 -2.28018630386 -1.50475427041 1.20328801645 0.644640218318 -0.241975844754
4.7953067363 1.63651442571 0.144370990973 -2.37959492773 -2.90263053149 0.999805749252 -2.27878124645 -1.50362605688 1.20400742173 0.644053829667 -0.242242409087
4.81137189687 1.63261568458 0.144358972825 -2.38003484856 -2.90351037316 0.999247377134 -2.27737720556 -1.50249631251 1.20472573839 0.643469943744 -0.242508428615
4.82743829958 1.62871664201 0.144346598386 -2.3804750576 -2.90439079124 0.998690893328 -2.27597418739 -1.50136503749 1.20544296348 0.642888563503 -0.242773909853
4.84350594572 1.62481729795 0.144333866854 -2.38091555337 -2.90527178277 0.998136300957 -2.27457219635 -1.50023224419 1.20615910371 0.642309682892 -0.24303884684
4.85957483527 1.62091765193 0.14432077806 -2.38135633422 -2.90615334447 0.997583602289 -2.27317123742 -1.49909794088 1.20687416259 0.641733298821 -0.243303237766
4.8756449708 1.61701770345 0.144307331838 -2.38179739852 -2.90703547307 0.997032799548 -2.27177131559 -1.49796213582 1.20758814362 0.641159408177 -0.243567080835
4.89171635486 1.61311745204 0.144293528023 -2.38223874461 -2.90791816525 0.996483894909 -2.27037243585 -1.49682483723 1.20830105033 0.640588007819 -0.243830374251
4.90778899 1.60921689722 0.144279366455 -2.38268037085 -2.90880141772 0.995936890501 -2.26897460318 -1.4956860533 1.20901288622 0.640019094578 -0.24409311622
4.92386287368 1.60531603896 0.144264846363 -2.38312227572 -2.90968522746 0.995391789168 -2.26757782194 -1.49454579614 1.20972365799 0.639452662334 -0.244355300875
4.93993801483 1.60141487592 0.144249968825 -2.38356445727 -2.91056959056 0.994848591439 -2.2661820983 -1.49340406601 1.21043336281 0.638888713712 -0.244616934584
4.95601441091 1.59751340805 0.144234733077 -2.38400691398 -2.91145450399 0.994307300055 -2.26478743662 -1.49226087496 1.21114200738 0.63832724255 -0.244878011504
4.97209206574 1.59361163489 0.144219138971 -2.38444964419 -2.9123399644 0.99376791696 -2.26339384185 -1.49111623106 1.21184959521 0.637768245573 -0.245138529864
4.9881709806 1.58970955599 0.144203186365 -2.38489264622 -2.91322596846 0.993230444052 -2.26200131894 -1.48997014239 1.21255612984 0.637211719483 -0.245398487896
5.00425115677 1.58580717087 0.144186875118 -2.38533591839 -2.91411251282 0.992694883185 -2.26060987284 -1.48882261696 1.2132616148 0.636657660957 -0.245657883839
5.0203325968 1.58190447909 0.144170205095 -2.38577945904 -2.91499959411 0.992161236166 -2.25921950848 -1.48767366277 1.2139660536 0.636106066644 -0.245916715941
5.0364153007 1.57800148061 0.144153175553 -2.38622326661 -2.91588720926 0.991629505452 -2.25783023017 -1.48652329164 1.21466945291 0.635556930315 -0.246174978452
5.05249927358 1.57409817413 0.144135787581 -2.38666733914 -2.91677535431 0.991099691372 -2.25644204406 -1.48537150385 1.21537181003 0.635010254268 -0.246432677605
5.06858451544 1.57019455962 0.144118040443 -2.38711167507 -2.91766402617 0.990571796281 -2.25505495446 -1.48421831115 1.2160731316 0.634466032231 -0.246689807682
5.08467102883 1.56629063664 0.144099934014 -2.38755627272 -2.91855322146 0.990045821801 -2.25366896627 -1.48306372142 1.21677342114 0.633924260751 -0.24694636695
5.10075881504 1.56238640474 0.144081468175 -2.38800113037 -2.91944293678 0.989521769505 -2.25228408439 -1.48190774254 1.21747268221 0.633384936348 -0.247202353681
5.11684787533 1.55848186348 0.144062642808 -2.38844624634 -2.92033316872 0.988999640926 -2.25090031373 -1.48075038233 1.21817091832 0.632848055522 -0.24745776616
5.13293821354 1.55457701242 0.144043457799 -2.38889161892 -2.92122391388 0.988479437545 -2.24951765916 -1.47959164862 1.21886813302 0.632313614742 -0.247712602667
5.14887050461 1.55067185154 0.144023912436 -2.38933724654 -2.92211516911 0.987961161437 -2.24813612496 -1.4784315529 1.21956433289 0.631781607673 -0.247966857591
5.16480406466 1.54676637957 0.144004007811 -2.3897831272 -2.92300693044 0.987444812728 -2.24675571724 -1.4772700955 1.22025951535 0.631252036291 -0.248220537028
5.18073889496 1.5428605965 0.14398374322 -2.39022925934 -2.92389919471 0.986930393387 -2.24537644023 -1.47610728785 1.220953687 0.630724894217 -0.24847363539
5.19667499552 1.53895450189 0.143963118559 -2.39067564123 -2.92479195849 0.986417904715 -2.2439982988 -1.47494313766 1.22164685135 0.630200177824 -0.248726150992
5.21261236889 1.53504809532 0.143942133729 -2.39112227115 -2.92568521834 0.985907347963 -2.24262129781 -1.47377765261 1.22233901193 0.629677883457 -0.248978082152
5.22855101634 1.53114137637 0.143920788634 -2.39156914738 -2.92657897079 0.985398724338 -2.24124544209 -1.47261084033 1.22303017228 0.629158007438 -0.249229427198
5.24449094045 1.52723434461 0.143899083179 -2.39201626819 -2.92747321241 0.984892035 -2.23987073648 -1.47144270846 1.22372033591 0.628640546063 -0.249480184461
5.2607525587 1.52332700003 0.143877016683 -2.39246363198 -2.92836793999 0.984387281645 -2.23849718519 -1.4702732682 1.22440950934 0.628125492897 -0.249730348465
5.27717811406 1.5194193414 0.143854590241 -2.39291123675 -2.92926314953 0.983884464188 -2.23712479428 -1.4691025199 1.22509769011 0.627612849593 -0.249979925175
5.29376925758 1.51551136872 0.143831803176 -2.39335908089 -2.93015883782 0.983383584221 -2.23575356795 -1.46793047471 1.22578488472 0.627102609675 -0.250228909145
5.3105276608 1.51160308156 0.143808655406 -2.39380716267 -2.93105500137 0.982884642723 -2.23438351099 -1.46675714014 1.2264710967 0.626594769343 -0.250477298738
5.32745501185 1.50769447952 0.14378514685 -2.39425548034 -2.93195163672 0.982387640622 -2.2330146282 -1.46558252369 1.22715632954 0.626089324771 -0.250725092324
5.34455301548 1.5037855622 0.143761277432 -2.39470403216 -2.93284874035 0.981892578805 -2.23164692436 -1.4644066328 1.22784058677 0.625586272109 -0.250972288283
5.36182339306 1.49987632919 0.143737047078 -2.39515281637 -2.93374630878 0.981399458109 -2.23028040427 -1.46322947492 1.22852387187 0.625085607485 -0.251218884998
5.37926788511 1.49596678048 0.143712455133 -2.39560183136 -2.93464433875 0.980908279853 -2.22891507205 -1.46205106094 1.22920619128 0.62458732437 -0.251464877137
5.39688824878 1.49205691487 0.143687502694 -2.39605107511 -2.93554282625 0.980419043743 -2.22755093372 -1.46087139129 1.22988754265 0.624091424094 -0.251710270539
5.41468625783 1.48814673238 0.143662189112 -2.39650054599 -2.936441768 0.979931750999 -2.22618799341 -1.45969047679 1.23056793239 0.623597900093 -0.251955059906
5.43266370645 1.48423623259 0.143636514323 -2.39695024224 -2.9373411605 0.979446402273 -2.22482625585 -1.45850832478 1.23124736398 0.623106748396 -0.252199243651
5.45082240548 1.48032541513 0.143610478266 -2.3974001621 -2.93824100022 0.978962998177 -2.22346572579 -1.45732494257 1.23192584092 0.622617965011 -0.252442820203
5.46916418234 1.47641427959 0.143584080882 -2.3978503038 -2.93914128362 0.978481539278 -2.22210640795 -1.45614033742 1.23260336667 0.622131545926 -0.252685788
5.48769088489 1.47250282559 0.143557322115 -2.39830066557 -2.94004200718 0.978002026093 -2.22074830703 -1.4549545166 1.23327994472 0.621647487098 -0.252928145481
5.50640437893 1.46859105313 0.143530201338 -2.39875124578 -2.94094316759 0.977524459569 -2.21939142712 -1.45376749072 1.23395558139 0.621165781913 -0.253169887463
5.52530655065 1.46467896105 0.143502719647 -2.39920204239 -2.94184476081 0.977048839204 -2.21803577417 -1.45257926023 1.23463027442 0.620686431387 -0.253411019667
5.54439930544 1.46076654936 0.14347487642 -2.39965305376 -2.94274678354 0.976575165842 -2.21668135223 -1.45138983567 1.23530403013 0.620209428865 -0.253651536943
5.56368456402 1.45685381767 0.143446671611 -2.4001042781 -2.94364923223 0.976103439821 -2.21532816599 -1.4501992242 1.23597685197 0.619734770217 -0.253891437765
5.58316427139 1.45294076562 0.143418105175 -2.40055571364 -2.94455210331 0.975633661435 -2.21397622009 -1.44900743294 1.23664874338 0.619262451289 -0.254130720625
5.60303714843 1.44902739281 0.143389177072 -2.40100735859 -2.94545539321 0.975165830934 -2.21262551921 -1.447814469 1.2373197078 0.618792467907 -0.254369384019
5.62331113361 1.44511369888 0.143359887262 -2.40145921117 -2.94635909837 0.974699948521 -2.21127606798 -1.44662033946 1.23798974866 0.618324815871 -0.254607426454
5.64399432384 1.44119968384 0.143330235143 -2.40191126971 -2.94726321545 0.97423601477 -2.20992787041 -1.44542505463 1.23865887218 0.617859488482 -0.254844842894
5.66509498217 1.43728534655 0.143300221813 -2.40236353218 -2.94816774039 0.973774028975 -2.20858093238 -1.44422861501 1.23932707619 0.617396486446 -0.255081638954
5.68662153652 1.43337068704 0.143269846672 -2.40281599691 -2.94907266984 0.973313991609 -2.20723525788 -1.44303103087 1.2399943669 0.616935803028 -0.255317809628
5.70858258346 1.42945570493 0.143239109692 -2.4032686621 -2.94997800022 0.972855902698 -2.2058908515 -1.44183230918 1.2406607477 0.616477433939 -0.255553353462
5.73098689594 1.42554039986 0.143208010845 -2.40372152596 -2.95088372794 0.972399762223 -2.20454771783 -1.4406324569 1.24132622199 0.616021374873 -0.255788269013
5.75407198748 1.42162477147 0.143176550105 -2.40417458669 -2.9517898494 0.971945570119 -2.20320586147 -1.43943148096 1.24199079316 0.615567621497 -0.256022554842
5.77785854766 1.4177088194 0.143144727451 -2.40462784248 -2.952696361 0.97149332628 -2.20186528697 -1.43822938826 1.24265446458 0.615116169461 -0.256256209527
5.8023678884 1.41379254366 0.143112542305 -2.40508129166 -2.95360325936 0.971043030916 -2.20052599825 -1.43702618884 1.24331724237 0.614667011988 -0.256489228189
5.82762198104 1.40987594316 0.143079995761 -2.40553493219 -2.95451054041 0.970594683111 -2.19918800114 -1.43582188326 1.24397912441 0.614220149477 -0.256721616327
5.85390367086 1.4059590179 0.143047087245 -2.40598876237 -2.95541820077 0.970148282978 -2.19785129953 -1.4346164815 1.24464011681 0.613775575118 -0.2569533691
5.88125477151 1.40204176755 0.143013816745 -2.4064427804 -2.95632623682 0.969703830235 -2.19651589794 -1.43340999036 1.24530022289 0.613333284476 -0.257184485124
5.90971880267 1.39812419174 0.142980184247 -2.40689698446 -2.95723464495 0.969261324551 -2.19518180089 -1.43220241663 1.245959446 0.61289327309 -0.257414963021
5.93963727268 1.39420629013 0.142946189743 -2.40735137275 -2.95814342153 0.968820765555 -2.19384901287 -1.43099376708 1.24661778947 0.612455536482 -0.257644801431
5.97139897433 1.39028806237 0.142911833225 -2.40780594345 -2.95905256293 0.968382152832 -2.19251753837 -1.42978404844 1.2472752566 0.61202007015 -0.257873998996
6.00545465285 1.38636950848 0.14287711414 -2.40826069486 -2.95996206574 0.967945486237 -2.19118738123 -1.42857327049 1.24793185338 0.611586867253 -0.258102551003
6.04233515241 1.38245062739 0.142842033578 -2.40871562493 -2.96087192589 0.967510764646 -2.18985854718 -1.42736143382 1.24858757778 0.611155927885 -0.258330462846
6.08308916104 1.37853141912 0.142806590989 -2.40917073196 -2.96178213995 0.967077987818 -2.18853104003 -1.42614854816 1.24924243575 0.610727245169 -0.258557729842
6.12939587105 1.37461188333 0.142770786377 -2.40962601413 -2.96269270429 0.966647155165 -2.18720486422 -1.42493462013 1.24989643057 0.610300814527 -0.258784350686
6.17014510024 1.37069201968 0.142734619742 -2.41008146962 -2.96360361526 0.966218266055 -2.18588002418 -1.42371965639 1.2505495655 0.609876631353 -0.259010324073
6.21002496469 1.36677182784 0.14269809109 -2.41053709659 -2.96451486922 0.965791319813 -2.18455652431 -1.42250366351 1.2512018438 0.609454691027 -0.259235648717
6.2552954822 1.36285130746 0.142661200428 -2.41099289324 -2.9654264625 0.96536631572 -2.18323436901 -1.42128664809 1.25185326873 0.609034988908 -0.259460323336
6.29525183164 1.35893045855 0.142623947227 -2.41144885783 -2.96633839168 0.964943253285 -2.18191356204 -1.42006861963 1.25250384611 0.608617518089 -0.259684343384
6.33540530583 1.35497319861 0.142582463989 -2.4120187399 -2.9668 0.964504581693 -2.18068513963 -1.41899659582 1.25303138667 0.608183452388 -0.259909301032
6.38124895782 1.35097863334 0.142536828572 -2.41270528361 -2.9668 0.964049718003 -2.17955126082 -1.41807466361 1.25343311402 0.607732154904 -0.260135247692
6.42156219414 1.3469836657 0.142491032195 -2.41339193024 -2.9668 0.963596435848 -2.17841853986 -1.41715234399 1.25383417314 0.607282709655 -0.260360627194
6.45805628935 1.34298834156 0.142445081018 -2.41407866442 -2.9668 0.963144733553 -2.17728696048 -1.41622965975 1.25423456923 0.606835148065 -0.260585433887
6.49176097733 1.33899266135 0.142398975417 -2.4147654847 -2.9668 0.962694610855 -2.17615652408 -1.41530661398 1.25463430581 0.606389466495 -0.260809666785
6.52320074586 1.33499662553 0.142352715764 -2.4154523896 -2.9668 0.962246067468 -2.17502723204 -1.41438320975 1.25503338644 0.605945661291 -0.261033324906
6.55282068152 1.33100028599 0.142306306454 -2.41613935996 -2.9668 0.961799094395 -2.17389906175 -1.41345946997 1.25543181748 0.605503779537 -0.261256400548
6.58100595929 1.32700353176 0.14225973905 -2.41682643266 -2.9668 0.961353710146 -2.17277206643 -1.41253535514 1.25582959669 0.605063707257 -0.261478906859
6.60809385633 1.32300642327 0.142213018705 -2.41751358559 -2.9668 0.960909904213 -2.17164621958 -1.41161089092 1.25622673049 0.604625500322 -0.261700835461
6.63412709872 1.31900896097 0.142166145786 -2.41820081729 -2.9668 0.960467676214 -2.17052152254 -1.41068608027 1.25662322235 0.604189155064 -0.261922185416
6.65939694048 1.31501114532 0.142119120658 -2.41888812628 -2.9668 0.960027025743 -2.16939797669 -1.40976092614 1.25701907576 0.603754667794 -0.262142955782
6.68392576444 1.31101297678 0.142071943685 -2.41957551113 -2.9668 0.959587952371 -2.16827558336 -1.40883543145 1.25741429418 0.60332203482 -0.262363145624
6.70773529785 1.3070144558 0.14202461523 -2.42026297037 -2.9668 0.959150455647 -2.16715434391 -1.40790959911 1.25780888108 0.602891252439 -0.262582754017
6.73084628139 1.30301564329 0.141977140431 -2.42095048182 -2.9668 0.958714525211 -2.16603423204 -1.40698345467 1.25820284293 0.602462375988 -0.262801772633
6.753504222 1.29901641876 0.141929510096 -2.42163808551 -2.9668 0.958280180253 -2.16491530431 -1.40605695569 1.25859617705 0.6020352838 -0.263020215519
6.77571766132 1.29501684317 0.141881729355 -2.42232575923 -2.9668 0.957847410446 -2.16379753446 -1.40513012765 1.25898888997 0.601610031055 -0.263238074214
6.79793304692 1.29101691701 0.141833798563 -2.42301350155 -2.9668 0.957416215246 -2.16268092381 -1.40420297335 1.25938098508 0.60118661404 -0.263455347838
6.82059694649 1.28701664074 0.141785718074 -2.42370131102 -2.9668 0.956986594083 -2.16156547369 -1.40327549559 1.25977246577 0.600765029026 -0.263672035507
6.84371841028 1.28301601484 0.141737488239 -2.4243891862 -2.9668 0.956558546366 -2.16045118541 -1.40234769714 1.26016333544 0.600345272274 -0.263888136346
6.86754255674 1.27901503976 0.14168910941 -2.42507712564 -2.9668 0.956132071481 -2.15933806027 -1.40141958074 1.26055359746 0.599927340042 -0.264103649487
6.89209036425 1.27501377698 0.141640586704 -2.42576510712 -2.9668 0.955707159256 -2.15822607224 -1.40049117178 1.26094325841 0.59951128695 -0.264318566526
6.91738458112 1.27101210492 0.141591910936 -2.4264531708 -2.9668 0.955283828022 -2.15711527727 -1.39956242769 1.26133231519 0.599096992641 -0.264532901839
6.94344750327 1.26701008511 0.141543087214 -2.42714129445 -2.9668 0.954862067643 -2.15600564935 -1.39863337379 1.2617207744 0.598684511577 -0.26474664689
6.97057103775 1.26300771804 0.141494115881 -2.42782947662 -2.9668 0.954441877412 -2.15489718976 -1.39770401272 1.26210863935 0.598273840006 -0.264959800859
6.99879834259 1.25900500419 0.141444997278 -2.4285177159 -2.9668 0.954023256601 -2.15378989979 -1.39677434714 1.26249591337 0.597864974156 -0.265172362921
7.02846809041 1.25500194403 0.141395731745 -2.42920601085 -2.9668 0.953606204462 -2.15268378071 -1.39584437965 1.26288259975 0.597457910253 -0.26538433226
7.05965398673 1.25099853805 0.141346319621 -2.42989436004 -2.9668 0.953190720222 -2.15157883381 -1.39491411286 1.2632687018 0.597052644514 -0.265595708067
7.09276079196 1.24699484823 0.141296766001 -2.43058274118 -2.9668 0.952776793899 -2.15047503327 -1.39398357197 1.26365422617 0.596649230818 -0.26580648187
7.1286143563 1.24299075199 0.141247061706 -2.43127119461 -2.9668 0.952364442974 -2.14937243446 -1.39305271434 1.26403916934 0.59624755018 -0.266016668362
7.16783024511 1.23898631137 0.141197211823 -2.43195969803 -2.9668 0.951953657501 -2.14827101159 -1.39212156509 1.26442353799 0.595847656318 -0.266226258939
7.21202348362 1.23498152687 0.141147216681 -2.43264825002 -2.9668 0.951544436619 -2.14717076593 -1.39119012675 1.26480733535 0.595449545443 -0.26643525284
7.26384797575 1.23097639897 0.141097076609 -2.43333684916 -2.9668 0.951136779445 -2.14607169871 -1.39025840179 1.26519056466 0.595053213749 -0.266643649302
7.33187655532 1.22697092818 0.141046791935 -2.43402549404 -2.9668 0.950730685077 -2.14497381119 -1.38932639272 1.26557322914 0.594658657424 -0.266851447567
7.49440562826 1.22296511497 0.140996362984 -2.43471418325 -2.9668 0.950326152589 -2.14387710459 -1.38839410197 1.26595533199 0.594265872652 -0.26705864689
7.67156460965 1.22200664789 0.136675405498 -2.43635027022 -2.9668 0.932670642521 -2.15426461378 -1.37931954104 1.25796241505 0.609715698694 -0.269946698103
7.76871137391 1.22097333944 0.132286307435 -2.43800819503 -2.9668 0.914891854715 -2.16475837643 -1.36976818851 1.24988628357 0.625436591416 -0.27263660617
7.84602787219 1.21986129829 0.12783160426 -2.43968691148 -2.9668 0.896987315149 -2.17535826318 -1.359717833 1.24172897855 0.641441364662 -0.275115288049
7.9124351417 1.21866629157 0.123314380151 -2.44138516253 -2.9668 0.878955120471 -2.18606417765 -1.34914466024 1.23349350305 0.657741917434 -0.277368933873
7.97179155706 1.21738397037 0.118738072256 -2.44310157483 -2.9668 0.860793395135 -2.19687577166 -1.33802360785 1.22518343143 0.674350522881 -0.279382948467
8.02645613886 1.21600987509 0.114106494966 -2.44483465527 -2.9668 0.842500272765 -2.20779242446 -1.32632829194 1.21680295458 0.691279844542 -0.281141910643
8.0773057622 1.21453944149 0.109423864214 -2.44658278823 -2.9668 0.824073870683 -2.21881322177 -1.3140309256 1.2083569259 0.708542956506 -0.282629529308
8.12555508537 1.21283699195 0.10469569546 -2.44836452787 -2.9668 0.805514114359 -2.22988874606 -1.3010923275 1.19986624485 0.726127436486 -0.283831356911
8.17226276678 1.21102834505 0.0999263366072 -2.45015740619 -2.9668 0.786817849759 -2.24106546154 -1.28749377078 1.19132150542 0.744072133875 -0.284726597481
8.21793357838 1.20910895547 0.0951212174682 -2.45195943867 -2.9668 0.767982686453 -2.2523413817 -1.27320298713 1.18272950274 0.762392324479 -0.285295986232
8.2625936205 1.2070739092 0.0902863978933 -2.45376850691 -2.9668 0.749006282996 -2.26371427883 -1.2581855827 1.1740981392 0.781103037368 -0.28551923068
8.30699680006 1.2049166443 0.0854430213594 -2.45558156326 -2.9668 0.729950349409 -2.27517795398 -1.24235466768 1.16538110886 0.800226702268 -0.28545929586
8.35106946396 1.2026319798 0.0806036872218 -2.45739494558 -2.9668 0.710847118303 -2.28672428166 -1.22565198451 1.15656704724 0.819775915429 -0.285136260399
8.39532782159 1.20021556614 0.0757755675821 -2.45920479038 -2.9668 0.691706264461 -2.29834479305 -1.20803763932 1.14766693651 0.839758813449 -0.284541241837
8.43966896693 1.19753422645 0.0709703947703 -2.46102421739 -2.9668 0.672557688254 -2.30997114699 -1.18949015576 1.13871039791 0.860137956585 -0.283667695749
8.48411240235 1.19471271511 0.066191338507 -2.46283147511 -2.9668 0.653391581317 -2.3216521904 -1.16995159456 1.12969203369 0.880964421022 -0.282509635079
8.5286373207 1.19174774112 0.061445791184 -2.4646220207 -2.9668 0.63421757197 -2.33337667678 -1.14937872122 1.12062585649 0.902244805456 -0.281063481416
8.57367013939 1.18863585186 0.0567409982853 -2.46639121286 -2.9668 0.615044566954 -2.3451326037 -1.12772630096 1.11152663412 0.923985187927 -0.279328418154
8.61919754118 1.18537384045 0.0520838426796 -2.4681342736 -2.9668 0.5958807525 -2.35690707689 -1.10494724747 1.10240975089 0.946191244485 -0.277306867698
8.66520696409 1.1819587373 0.0474806375065 -2.46984631346 -2.9668 0.576733394775 -2.36868630052 -1.0809923069 1.09329099274 0.968868313277 -0.275005182875
8.71168707293 1.17838779421 0.0429368881149 -2.47152235434 -2.9668 0.557608680346 -2.3804555395 -1.0558096849 1.084186297 0.992021441089 -0.272434498672
8.75883851315 1.17453333737 0.0384650100726 -2.47317143006 -2.9668 0.538553370435 -2.39213099774 -1.02940891682 1.07512925883 1.01558556771 -0.26961495987
8.80754200767 1.17051835949 0.0340600635938 -2.47477416404 -2.9668 0.519530844723 -2.40376451513 -1.00167566472 1.06611621226 1.03963251962 -0.266568800276
8.85971993501 1.16634102112 0.0297232351502 -2.4763254124 -2.9668 0.500544417553 -2.4153377474 -0.972549403308 1.05716166966 1.06416587616 -0.263329050401
8.91616920552 1.1619993996 0.0254535947841 -2.4778200035 -2.9668 0.481596737295 -2.42683067535 -0.941965554091 1.04827901453 1.08918795174 -0.259940147604
8.97783991416 1.15749188907 0.0212474994926 -2.4792527197 -2.9668 0.462690977862 -2.43822086531 -0.909856519686 1.03948012859 1.11469876439 -0.256461006667
9.04638382903 1.15281741929 0.0170979600809 -2.4806183009 -2.9668 0.443832434448 -2.44948259132 -0.876153226939 1.03077502792 1.1406942158 -0.252969264675
9.11363519745 1.14797587811 0.0129938719944 -2.48191146692 -2.9668 0.425031127348 -2.46058558113 -0.840788459762 1.02217154075 1.16716304666 -0.249566970385
9.18048896693 1.14285032167 0.00893075195876 -2.48313877888 -2.9668 0.406372492335 -2.47142061838 -0.803839479682 1.013692418 1.19397992873 -0.246393807009
9.25548107761 1.13756479283 0.00487509866947 -2.48428350289 -2.9668 0.387825421274 -2.48201766275 -0.765145942349 1.00532224447 1.22119996901 -0.243617694627
9.34100047011 1.13212920916 0.000797784222228 -2.48534124659 -2.9668 0.369448646498 -2.49232040959 -0.724709552195 0.997062340613 1.24874793809 -0.241464833244
9.43205964291 1.12656182885 -0.00333807231436 -2.48630873773 -2.9668 0.351338761096 -2.50225776807 -0.682602487912 0.988913806591 1.27649861495 -0.240225368434
9.51722661743 1.12089434333 -0.00757695310758 -2.48718491711 -2.9668 0.333648497497 -2.5117405578 -0.639016731136 0.980880504613 1.30425175663 -0.240260780664
9.61330643725 1.11517829615 -0.0119685081461 -2.48797257728 -2.9668 0.316606660295 -2.52066055617 -0.594330256076 0.972974367887 1.33170216934 -0.241997261196
9.72403226863 1.109491454 -0.0165611599482 -2.48868048027 -2.9668 0.300531461018 -2.52889547839 -0.549178594673 0.965223016013 1.35841470518 -0.245888255573
9.85689815588 1.10382777475 -0.0213706264426 -2.489336819 -2.9668 0.285897233201 -2.53626487387 -0.504715041431 0.957697366328 1.3837049002 -0.252298186709
9.97017364589 1.09842272036 -0.0264227290979 -2.48995460029 -2.9668 0.273030660812 -2.54274809068 -0.461872333773 0.95045255724 1.4070841273 -0.261436067455
10.0717891899 1.09339649636 -0.031688839904 -2.49056243022 -2.9668 0.262264547675 -2.54831825905 -0.421828393038 0.943579437699 1.42800063821 -0.273187451776
10.1641515057 1.08883551966 -0.0371069850021 -2.49118679028 -2.9668 0.253748161414 -2.55302725836 -0.385500181389 0.937160642879 1.44611873081 -0.287095559247
10.248006885 1.08477303645 -0.0425995770142 -2.49184601115 -2.9668 0.247408568844 -2.5569924986 -0.353335070255 0.931246464139 1.46139619928 -0.302472779132
10.3239713789 1.08119165889 -0.04809468895 -2.49254819516 -2.9668 0.243000055913 -2.56036166067 -0.325303032436 0.925844753066 1.47404390467 -0.318588541447
10.3926672619 1.07804170767 -0.0535391223037 -2.49329321205 -2.9668 0.240197464909 -2.56327813805 -0.301048323091 0.92092779591 1.48441368358 -0.334821167213
10.4546798431 1.07513958318 -0.058872508972 -2.49408753565 -2.9668 0.238702876814 -2.56583065215 -0.280221903774 0.916464065071 1.49282995187 -0.350634035885
10.5141204071 1.07254303539 -0.0641083567086 -2.49491316634 -2.9668 0.238195931194 -2.56814554183 -0.262133298269 0.912377861193 1.49972464299 -0.365829501493
10.5718786109 1.07019946817 -0.0692424733954 -2.49576356498 -2.9668 0.238451188035 -2.5702890538 -0.246326211605 0.908615741898 1.50539165656 -0.380247090462
10.6287998874 1.06806506585 -0.0742772501584 -2.49663292797 -2.9668 0.239293390308 -2.57230858704 -0.232415226189 0.905129491765 1.51006896282 -0.393810487317
10.6800364595 1.0661042744 -0.0792184628683 -2.49751637856 -2.9668 0.240588453821 -2.57423797816 -0.220084253915 0.901877417075 1.5139448811 -0.406497164074
10.7264457509 1.06428853561 -0.0840733782479 -2.49840994097 -2.9668 0.242234329029 -2.57610146658 -0.209077478285 0.898824220838 1.51716747799 -0.41831716382
10.7689543864 1.06259494221 -0.0888496701777 -2.49931042347 -2.9668 0.244153229462 -2.57791655915 -0.199188576011 0.895940314883 1.51985330451 -0.429299216926
10.8080895565 1.06087856188 -0.0935251323624 -2.50022775806 -2.9668 0.246292034723 -2.5796721122 -0.190348642481 0.893215248527 1.52206167027 -0.439409619931
10.8462669666 1.0592498773 -0.0981371764963 -2.50114766516 -2.9668 0.248596053959 -2.58140208907 -0.182313995801 0.890612891002 1.52390382866 -0.448772185252
10.8831997587 1.05769695314 -0.102692128601 -2.50206853113 -2.9668 0.25103004765 -2.58311345686 -0.174975546023 0.888116237983 1.525437194 -0.457430666489
10.9189842449 1.05620993857 -0.107195752506 -2.50298910016 -2.9668 0.253566482671 -2.5848113873 -0.168243649051 0.885710961367 1.52670898414 -0.465428259502
10.9537087207 1.05478065537 -0.111653228901 -2.50390837208 -2.9668 0.256183580176 -2.58649982454 -0.162043832377 0.883384943913 1.52775790667 -0.472806492602
10.987453763 1.0534022598 -0.116069195951 -2.50482554998 -2.9668 0.258863986883 -2.5881818037 -0.156313763682 0.881127890962 1.52861596603 -0.479604684744
11.0209528024 1.05206898084 -0.12044779855 -2.50573999904 -2.9668 0.26159378185 -2.58985967926 -0.151000892328 0.878931015875 1.52930984211 -0.485859706117
11.0536788811 1.0506485928 -0.124760934372 -2.50666539843 -2.9668 0.264361501057 -2.59151276222 -0.146138618325 0.876801220473 1.52983744743 -0.491549940097
11.0856185643 1.04926374673 -0.129044082101 -2.50758742104 -2.9668 0.267157728979 -2.5931651607 -0.141605485563 0.874717133162 1.53024400308 -0.49676944403
11.116827706 1.0479109379 -0.133300135608 -2.50850572721 -2.9668 0.269975114944 -2.59481802909 -0.137369287736 0.872673259662 1.53054496509 -0.50154711427
11.1473572022 1.04658710588 -0.137531702693 -2.50942007012 -2.9668 0.272807707987 -2.5964722333 -0.133402283546 0.870664828519 1.53075394048 -0.505909795339
11.1772536101 1.04528958201 -0.141741124618 -2.5103302566 -2.9668 0.275650608412 -2.59812846121 -0.129680324267 0.86868767897 1.53088268448 -0.509882326044
11.2065595959 1.04401602679 -0.14593050706 -2.51123613715 -2.9668 0.278499769516 -2.59978725974 -0.126182280466 0.866738170649 1.53094140952 -0.51348769167
11.2356018898 1.042764379 -0.150101747268 -2.512137598 -2.9668 0.281351840742 -2.60144906338 -0.122889575234 0.864813108615 1.53093903437 -0.516747171957
11.2641651223 1.04140588785 -0.154222082868 -2.51305036939 -2.9668 0.28420029218 -2.60309172706 -0.119853451341 0.862925084047 1.53086197002 -0.519636819049
11.2925302409 1.04006560473 -0.158327739775 -2.51395882381 -2.9668 0.287046551688 -2.60473801127 -0.116988366259 0.86105605361 1.53073920824 -0.522223091472
11.3207215709 1.03874214044 -0.162420086402 -2.51486289711 -2.9668 0.289888695376 -2.60638814578 -0.114281629273 0.859203872552 1.5305765023 -0.524522484692
11.348761899 1.03743422817 -0.166500372323 -2.51576256264 -2.9668 0.292725180331 -2.6080422803 -0.111721959494 0.857366640236 1.53037918043 -0.5265504205
11.3766726763 1.03614072711 -0.170569734204 -2.51665780647 -2.9668 0.29555472498 -2.60970052713 -0.109299229027 0.855542666361 1.53015200425 -0.528321251111
11.4044741478 1.03486060634 -0.174629207657 -2.5175486251 -2.9668 0.298376267047 -2.61136296764 -0.107004314918 0.853730444977 1.52989924423 -0.529848348693
11.4321854771 1.03359293117 -0.178679737666 -2.51843502356 -2.9668 0.30118892887 -2.61302965759 -0.104828973626 0.851928632212 1.5296247432 -0.53114418678
11.4595605362 1.03221086645 -0.182684745944 -2.51933430171 -2.9668 0.303985726667 -2.61467771245 -0.10282672037 0.850152591699 1.52931167251 -0.532186018726
11.48688964 1.03083947847 -0.186682576687 -2.52022941866 -2.9668 0.306772509273 -2.61633001973 -0.100927413299 0.848384653011 1.52898367138 -0.533022516822
11.514461861 1.02947809892 -0.190673934134 -2.5211203748 -2.9668 0.309548765854 -2.61798659416 -0.0991250179537 0.846623880316 1.52864338561 -0.533663534027
11.5422950223 1.02812609492 -0.194659469072 -2.52200719344 -2.9668 0.312314131828 -2.61964741956 -0.097414054979 0.844869434036 1.5282933628 -0.534118385747
11.5704068004 1.02678288402 -0.198639779674 -2.52288990062 -2.9668 0.315068320069 -2.62131246996 -0.0957895026522 0.843120560018 1.52793593128 -0.534395815347
11.5990988565 1.02544792886 -0.202615416345 -2.52376852452 -2.9668 0.317811109583 -2.62298171111 -0.0942467482488 0.841376580477 1.52757322404 -0.534504038098
11.6282134885 1.0241207326 -0.206586886048 -2.52464309494 -2.9668 0.320542335914 -2.62465510167 -0.0927815455946 0.839636886039 1.5272071995 -0.534450781191
11.6576121224 1.02267610887 -0.21051409542 -2.52553225253 -2.9668 0.323253517 -2.62630904949 -0.0914461094899 0.837918651364 1.52681958235 -0.534216118881
11.687876815 1.02123827281 -0.214438095673 -2.52641763018 -2.9668 0.325953202309 -2.62796698087 -0.0901788829502 0.836203687856 1.52643207295 -0.533836707352
11.7193477163 1.0198068587 -0.218359272851 -2.52729923974 -2.9668 0.328641310708 -2.62962884702 -0.0889766152121 0.834491569679 1.52604607665 -0.533318757995
11.7524031759 1.01838150653 -0.222277987205 -2.52817711144 -2.9668 0.331317838419 -2.63129458578 -0.0878363065764 0.832781911231 1.52566298947 -0.532668209769
11.7875940438 1.01696187978 -0.22619457217 -2.52905127558 -2.9668 0.333982806175 -2.63296413212 -0.0867551675751 0.831074365809 1.52528410726 -0.531890679134
11.8202892325 1.01554766331 -0.230109336551 -2.52992176242 -2.9668 0.336636255677 -2.63463741851 -0.0857306000221 0.829368621983 1.52491063485 -0.530991482324
11.8510775069 1.01413856154 -0.234022566498 -2.53078860197 -2.9668 0.339278246536 -2.63631437525 -0.0847601801171 0.827664400347 1.5245436942 -0.529975655804
11.880034447 1.01261105385 -0.237890772316 -2.53167162184 -2.9668 0.341898574902 -2.63797067458 -0.0838939449424 0.825980258196 1.52416399727 -0.528826522876
11.9075788847 1.0110880749 -0.241757981423 -2.53255124727 -2.9668 0.344507902212 -2.63963042791 -0.0830760260473 0.82429721577 1.52379268596 -0.527572095828
11.9340432306 1.00956940573 -0.245624413956 -2.53342748734 -2.9668 0.347106282187 -2.6412935644 -0.0823045132519 0.822615086731 1.52343058806 -0.526216475747
11.9605036814 1.00805482116 -0.249490277196 -2.53430036808 -2.9668 0.349693822314 -2.64296000849 -0.081577618816 0.820933700069 1.52307854674 -0.524763627966
11.9880358485 1.0065441082 -0.253355763738 -2.53516991499 -2.9668 0.35227063725 -2.6446296837 -0.0808936621704 0.819252903973 1.52273735336 -0.523217326465
12.0169709528 1.00503706516 -0.25722105256 -2.53603615297 -2.9668 0.354836847614 -2.64630251276 -0.0802510615588 0.81757256422 1.52240775151 -0.521581165774
12.0473817925 1.0035335008 -0.261086310003 -2.53689910634 -2.9668 0.357392578934 -2.64797841769 -0.0796483264677 0.815892562714 1.52209044059 -0.519858571994
12.0791695421 1.00191165101 -0.264904710626 -2.53777966811 -2.9668 0.359925870074 -2.64963232029 -0.0791331674641 0.814232590756 1.52176520485 -0.51803606349
12.1092138658 1.00029290195 -0.268723383555 -2.53865717085 -2.9668 0.362449255725 -2.65128906977 -0.0786539370974 0.812572823301 1.52145329398 -0.516135112344
12.1378030043 0.998677113872 -0.272542456488 -2.53953161767 -2.9668 0.364962824702 -2.65294858681 -0.0782094400214 0.810913195162 1.5211552342 -0.514158532045
12.1650083016 0.99706413535 -0.276362050887 -2.54040302833 -2.9668 0.367466710852 -2.65461079253 -0.0777985413512 0.809253643817 1.52087157223 -0.512109074749
12.1911564012 0.995453821877 -0.2801822797 -2.54127142198 -2.9668 0.369961049139 -2.65627560779 -0.0774201651798 0.807594116769 1.52060282519 -0.509989374038
12.2162890732 0.993846035403 -0.284003247918 -2.54213681718 -2.9668 0.372445975224 -2.65794295315 -0.0770732905351 0.805934570771 1.52034948262 -0.507801951603
12.2406879414 0.992240643933 -0.287825053096 -2.54299923192 -2.9668 0.374921625085 -2.65961274897 -0.0767569476747 0.804274971115 1.52011200817 -0.505549223468
12.2645337384 0.990517750195 -0.291597577827 -2.5438805215 -2.9668 0.37737429138 -2.66125916921 -0.0765165866453 0.802635967472 1.51986924561 -0.503220674484
12.2876843887 0.988796995571 -0.295371105832 -2.54475903044 -2.9668 0.379818271403 -2.66290781208 -0.0763039337835 0.800996921365 1.51964291779 -0.500832635296
12.3101605946 0.987078286774 -0.299145710606 -2.54563475594 -2.9668 0.382253653348 -2.6645585948 -0.0761182052273 0.799357832037 1.5194333786 -0.498387098686
12.3322006299 0.985361516094 -0.30292146308 -2.54650771192 -2.9668 0.384680567289 -2.66621143863 -0.0759586444779 0.797718694137 1.51924100118 -0.495886038693
12.3538133329 0.983646580014 -0.30669842902 -2.54737791182 -2.9668 0.387099142322 -2.66786626476 -0.0758245294217 0.796079507743 1.51906614033 -0.493331353176
12.3754333277 0.981933378982 -0.310476669333 -2.54824536863 -2.9668 0.389509506415 -2.6695229943 -0.0757151702344 0.794440277956 1.51890913358 -0.490724867718
12.397872562 0.980221817185 -0.314256240365 -2.54911009488 -2.9668 0.391911786289 -2.67118154832 -0.0756299074397 0.792801014535 1.51877030208 -0.488068339296
12.4202904384 0.978393977943 -0.317983774136 -2.54999481736 -2.9668 0.394290550509 -2.67281536875 -0.0756120574756 0.791183185206 1.51862751084 -0.485353941255
12.4422749262 0.976567598389 -0.32171272112 -2.55087698675 -2.9668 0.396661800559 -2.67445079257 -0.0756161796743 0.789565405039 1.51850317607 -0.482593843833
12.4638346338 0.974742614439 -0.325443121778 -2.55175659514 -2.9668 0.399025611436 -2.6760877356 -0.0756417415785 0.787947708552 1.51839754552 -0.479789497082
12.4849779926 0.972918946036 -0.329175016205 -2.55263365172 -2.9668 0.401382099201 -2.67772612054 -0.0756882188351 0.786330121013 1.51831088303 -0.476942357762
12.5057132454 0.971096515827 -0.332908441243 -2.55350816532 -2.9668 0.403731378303 -2.67936587007 -0.0757551080515 0.784712670667 1.51824344022 -0.474053832176
12.5260484482 0.96927524903 -0.336643430671 -2.55438014444 -2.9668 0.406073561533 -2.68100690686 -0.0758419256483 0.783095388517 1.51819545711 -0.471125278528
12.5459914833 0.967455073315 -0.340380015369 -2.55524959729 -2.9668 0.408408759997 -2.68264915361 -0.0759482067896 0.781478308126 1.51816716262 -0.468158009156
12.5662364826 0.965520164579 -0.344061620866 -2.55614004047 -2.9668 0.410719842339 -2.68426534543 -0.0761152725716 0.779883595181 1.51813540199 -0.465146608715
12.5860913358 0.963586217574 -0.347744851566 -2.55702811587 -2.9668 0.413024478332 -2.68588253536 -0.076300141457 0.778289198922 1.51812342702 -0.462099805438
12.6055636632 0.961653187676 -0.351429727227 -2.55791381143 -2.9668 0.415322726023 -2.68750063891 -0.0765024421269 0.776695173299 1.51813141577 -0.459018678984
12.624660938 0.959721013324 -0.355116268655 -2.55879713266 -2.9668 0.417614684785 -2.68911958071 -0.0767217992847 0.775101559694 1.51815955876 -0.455904331529
12.64357777 0.957789634786 -0.358804494555 -2.55967808481 -2.9668 0.419900452293 -2.69073928545 -0.0769578508658 0.773508401092 1.51820803788 -0.452757830939
12.662692583 0.955858994092 -0.362494421644 -2.56055667293 -2.9668 0.422180124521 -2.69235967787 -0.0772102473841 0.771915741963 1.51827702671 -0.449580212232
12.6822006731 0.953929034953 -0.36618606476 -2.56143290188 -2.9668 0.424453795741 -2.69398068272 -0.0774786513169 0.770323628138 1.51836669089 -0.446372478976
12.7017881298 0.951886134371 -0.369819691334 -2.56233100349 -2.9668 0.426702659115 -2.6955743599 -0.0778025221056 0.76875481669 1.51845281917 -0.443131369884
12.7217787125 0.949843820306 -0.373455030335 -2.56322688831 -2.9668 0.428946026401 -2.6971684482 -0.0781410615882 0.767186675525 1.51855959555 -0.439862715802
12.7421807469 0.947802061779 -0.377092088311 -2.56412054096 -2.9668 0.431183938345 -2.69876286339 -0.0784940059193 0.765619269018 1.5186871496 -0.436567336557
12.763002749 0.945760810198 -0.380730873838 -2.56501196412 -2.9668 0.433416477837 -2.7003575324 -0.0788610791563 0.764052646384 1.51883561993 -0.433246084657
12.7842533984 0.943720018271 -0.384371394111 -2.56590116031 -2.9668 0.435643726183 -2.70195238224 -0.0792420139472 0.762486857644 1.51900513871 -0.429899788725
12.8059415513 0.941679639957 -0.388013655014 -2.56678813194 -2.9668 0.437865763105 -2.70354733997 -0.0796365511471 0.760921953548 1.51919583182 -0.426529254435
12.8280762373 0.939639630429 -0.391657661191 -2.56767288131 -2.9668 0.44008266676 -2.70514233275 -0.0800444394535 0.759357985502 1.51940781915 -0.423135265394
12.8504992905 0.937488672355 -0.395240575033 -2.56858028658 -2.9668 0.442273979673 -2.70670878124 -0.0805034013342 0.757818205612 1.51961580272 -0.419716483153
12.8736128746 0.93533801217 -0.398825209005 -2.56948559818 -2.9668 0.444460632796 -2.70827507474 -0.0809746075059 0.756279484133 1.51984496631 -0.41627626562
12.8974382402 0.933187628895 -0.402411561157 -2.57038879799 -2.9668 0.446642650483 -2.70984112977 -0.0814578682906 0.754741890564 1.52009540412 -0.412815245801
12.9219973024 0.93103748341 -0.405999632306 -2.57128988651 -2.9668 0.448820100369 -2.71140687578 -0.0819529760936 0.753205477065 1.52036721617 -0.40933409613
12.947565805 0.928887537551 -0.40958942235 -2.57218886419 -2.9668 0.45099304867 -2.71297224235 -0.0824597290283 0.751670296111 1.52066049747 -0.405833472058
12.9741852231 0.926737754082 -0.413180930316 -2.57308573139 -2.9668 0.453161560188 -2.71453715916 -0.0829779306846 0.750136400451 1.5209753381 -0.402314012655
13.0021758681 0.924588096667 -0.416774154405 -2.57398048844 -2.9668 0.45532569833 -2.71610155602 -0.0835073899089 0.748603843054 1.52131182334 -0.398776341181
13.0313411992 0.92232965416 -0.42030320953 -2.57489859573 -2.9668 0.457463380752 -2.71763625341 -0.0840842074319 0.747096283145 1.52164354497 -0.395220837488
13.0591200821 0.920071284137 -0.423833941843 -2.57581470944 -2.9668 0.459597135318 -2.71917025259 -0.084671348539 0.745590173924 1.52199673454 -0.391648724675
13.0855632349 0.917812973226 -0.427366343947 -2.57672880915 -2.9668 0.461726971288 -2.72070347124 -0.0852686763028 0.74408558681 1.52237145925 -0.388060498338
13.1109865693 0.915554689461 -0.430900411804 -2.5776408937 -2.9668 0.463852942539 -2.7222358416 -0.0858760314499 0.742582573939 1.52276778931 -0.384456698146
13.1354293763 0.913296401602 -0.434436140769 -2.57855096187 -2.9668 0.4659751017 -2.72376729606 -0.0864932585747 0.74108118746 1.52318579084 -0.380837851442
13.1591644349 0.911038079114 -0.437973525616 -2.57945901246 -2.9668 0.46809350016 -2.72529776717 -0.0871202059976 0.739581479505 1.52362552594 -0.377204473632
13.1822121944 0.908779692156 -0.441512560573 -2.58036504421 -2.9668 0.470208188078 -2.72682718768 -0.0877567256298 0.738083502157 1.52408705279 -0.373557068568
13.2050482839 0.906414832276 -0.444984374832 -2.58129503968 -2.9668 0.472295485425 -2.72832581892 -0.08843740309 0.736611241231 1.5245428358 -0.369897555074
13.2272229971 0.904049866913 -0.448457791583 -2.58222312224 -2.9668 0.474379493655 -2.72982323348 -0.0891268514166 0.735140809246 1.5250201881 -0.366225295425
13.2487554183 0.901684788662 -0.451932799989 -2.58314926947 -2.9668 0.476460208267 -2.73131935053 -0.0898249722436 0.733672277578 1.52551915557 -0.36254068199
13.2698731919 0.899319571109 -0.455409393096 -2.58407347886 -2.9668 0.478537670868 -2.73281410536 -0.0905316412996 0.732205696521 1.5260397846 -0.358844154512
13.2905842536 0.896954188401 -0.458887563546 -2.58499574789 -2.9668 0.480611921974 -2.73430743345 -0.0912467369794 0.730741116186 1.52658211811 -0.355136143605
13.3108963887 0.89458861524 -0.462367303601 -2.58591607402 -2.9668 0.482683001014 -2.73579927051 -0.0919701402576 0.729278586482 1.52714619566 -0.351417071014
13.3308172287 0.892222826865 -0.465848605166 -2.58683445476 -2.9668 0.48475094634 -2.73728955245 -0.0927017346042 0.727818157094 1.52773205352 -0.347687349864
13.3509276448 0.889753010117 -0.469259677335 -2.58777733828 -2.9668 0.486790509188 -2.73874802375 -0.0934746896573 0.726384066582 1.52831101761 -0.34395028164
13.3704552475 0.887282946242 -0.472672258111 -2.58871837272 -2.9668 0.488827339453 -2.74020478632 -0.0942551389116 0.724952158424 1.52891150568 -0.340203592684
13.3894168554 0.884812632629 -0.476086334569 -2.58965753388 -2.9668 0.490861420122 -2.7416597612 -0.0950430129199 0.723522502761 1.52953354633 -0.336447596233
13.4078288196 0.88234204726 -0.479501898135 -2.5905948181 -2.9668 0.492892781906 -2.74311288697 -0.0958382133277 0.72209514693 1.53017716635 -0.332682655337
13.426066378 0.879871168563 -0.482918939975 -2.59153022173 -2.9668 0.494921454561 -2.74456410247 -0.0966406436494 0.720670137963 1.53084238959 -0.328909126144
13.444678511 0.8773999754 -0.486337451016 -2.59246374117 -2.9668 0.496947466893 -2.7460133468 -0.0974502092146 0.719247522571 1.531529237 -0.325127358078
13.4636728555 0.874928447062 -0.489757421953 -2.59339537281 -2.9668 0.498970846762 -2.74746055934 -0.0982668171159 0.717827347128 1.5322377267 -0.321337694005
13.4826343676 0.872355454463 -0.493104210947 -2.59435197713 -2.9668 0.500964807573 -2.74887501062 -0.0991223137015 0.716434035247 1.53293804052 -0.317544682498
13.5019851197 0.86978210128 -0.49645240392 -2.59530678122 -2.9668 0.502956520323 -2.75028728915 -0.0999842399648 0.715043228095 1.53365971531 -0.313744600249
13.5217330172 0.867208388825 -0.499801986754 -2.59625975917 -2.9668 0.50494595662 -2.75169731813 -0.100852548676 0.713654993869 1.53440276533 -0.30993769865
13.5418861504 0.864634298616 -0.503152950136 -2.59721090634 -2.9668 0.506933137512 -2.75310503969 -0.101727161063 0.712269376298 1.53516720096 -0.306124280771
13.5624527723 0.862059812523 -0.506505284597 -2.59816021811 -2.9668 0.508918083215 -2.75451039627 -0.102607999685 0.710886418725 1.53595303005 -0.302304644364
13.5834413044 0.859484912763 -0.509858980516 -2.59910768987 -2.9668 0.51090081311 -2.75591333064 -0.103494988402 0.709506164101 1.53676025792 -0.29847908197
13.6050745257 0.856909581896 -0.513214028137 -2.60005331706 -2.9668 0.512881345752 -2.75731378585 -0.104388052337 0.70812865497 1.53758888742 -0.294647881038
13.6268579043 0.854235459958 -0.51649300712 -2.60102432207 -2.9668 0.514831389644 -2.75868060164 -0.105317801677 0.706778438038 1.53840795568 -0.29081672028
13.6493102015 0.851560886012 -0.519773280367 -2.60199356199 -2.9668 0.516779607226 -2.76004481005 -0.106253082847 0.705431013966 1.53924812608 -0.286980581922
13.6724518476 0.848885864618 -0.523054833163 -2.60296100929 -2.9668 0.518725959741 -2.76140633674 -0.107193866078 0.704086448634 1.5401094008 -0.283139668107
13.6965424589 0.846210380164 -0.52633765605 -2.60392665842 -2.9668 0.520670459681 -2.76276512762 -0.108140087677 0.702744781815 1.5409917763 -0.279294234153
13.7216208703 0.843534417317 -0.529621739481 -2.60489050384 -2.9668 0.522613118809 -2.76412112897 -0.109091684913 0.701406052853 1.54189524684 -0.27544453119
13.7479885733 0.840857961019 -0.532907073822 -2.60585254006 -2.9668 0.524553948158 -2.7654742874 -0.110048596002 0.700070300655 1.54281980442 -0.271590806229
13.7757117643 0.838180996484 -0.536193649367 -2.60681276159 -2.9668 0.526492958042 -2.76682454992 -0.111010760088 0.698737563681 1.54376543891 -0.267733302242
13.8043012287 0.835408014283 -0.539401342739 -2.6077987051 -2.9668 0.528400386962 -2.76814036832 -0.112007633463 0.697432455111 1.54470004672 -0.263878727853
13.8313690061 0.83263450588 -0.542610219317 -2.6087829059 -2.9668 0.530306356873 -2.76945317527 -0.113009274447 0.696130392114 1.54565541922 -0.260020900404
13.8571324444 0.829860478559 -0.545820264173 -2.60976533487 -2.9668 0.532210819553 -2.77076289912 -0.114015667301 0.694831438099 1.5466315483 -0.256159982113
13.8818995423 0.827085919045 -0.549031468093 -2.61074598559 -2.9668 0.534113779926 -2.77206948977 -0.115026760141 0.693535628754 1.54762841854 -0.252296189629
13.9057087575 0.824310814288 -0.552243821819 -2.61172485167 -2.9668 0.53601524228 -2.77337289751 -0.116042501798 0.692242999316 1.54864601252 -0.248429736228
13.9285970693 0.821535151452 -0.555457316053 -2.61270192675 -2.9668 0.537915210266 -2.774673073 -0.117062841807 0.690953584562 1.54968431086 -0.244560831865
13.9517224026 0.818758917913 -0.558671941461 -2.61367720448 -2.9668 0.539813686908 -2.77596996734 -0.11808773039 0.689667418808 1.55074329229 -0.240689683222
13.9751757405 0.815889532622 -0.561804949928 -2.61467849073 -2.9668 0.541679477471 -2.77723168685 -0.119145547889 0.688409130051 1.55178972063 -0.236823943688
13.9995897393 0.813019560351 -0.564939031604 -2.61567804463 -2.9668 0.54354412933 -2.77849002221 -0.120207477902 0.687154104382 1.55285651158 -0.232956373808
14.0250036221 0.810149010675 -0.568074171574 -2.61667583544 -2.9668 0.545407585616 -2.7797449047 -0.121273516185 0.685902402746 1.55394364823 -0.229087102891
14.0517228115 0.807277872233 -0.571210361117 -2.61767185593 -2.9668 0.54726984457 -2.78099628834 -0.122343620259 0.68465405677 1.55505110491 -0.225216315762
14.0800951811 0.804406133834 -0.574347591493 -2.61866609885 -2.9668 0.549130903881 -2.78224412757 -0.123417748187 0.683409097621 1.55617885418 -0.221344194479
14.1105242108 0.801533784458 -0.577485853951 -2.61965855702 -2.9668 0.550990760685 -2.78348837728 -0.124495858563 0.682167556007 1.55732686689 -0.217470918362
14.1434852318 0.798660813245 -0.580625139734 -2.62064922324 -2.9668 0.552849411573 -2.78472899277 -0.125577910508 0.680929462173 1.55849511218 -0.213596664025
14.1786833494 0.795697641872 -0.583680156955 -2.62166613008 -2.9668 0.554674267011 -2.78593377655 -0.126691282429 0.679719411875 1.5596492332 -0.209729958119
14.2107697304 0.792733833074 -0.586736139892 -2.62268130346 -2.9668 0.556498263746 -2.7871348354 -0.127808202364 0.678512808184 1.56082326176 -0.205862594134
14.2404101857 0.789769398358 -0.589793073771 -2.62369471104 -2.9668 0.558321336993 -2.78833210365 -0.128928675663 0.677309709703 1.56201717344 -0.201994673827
14.2680649004 0.786804327926 -0.592850950501 -2.62470634478 -2.9668 0.560143479106 -2.78952553956 -0.130052667448 0.67611014413 1.56323093375 -0.198126355448
14.2949144993 0.783838612107 -0.595909761992 -2.62571619662 -2.9668 0.561964681963 -2.79071510185 -0.131180143256 0.674914138714 1.56446450663 -0.194257794928
14.3233870631 0.780872241355 -0.598969500163 -2.62672425855 -2.9668 0.563784936967 -2.7919007497 -0.132311069043 0.673721720255 1.56571785452 -0.190389145899
14.3502528597 0.777905206248 -0.602030156938 -2.62773052253 -2.9668 0.565604235046 -2.79308244272 -0.133445411174 0.672532915096 1.56699093834 -0.186520559717
14.3763907384 0.774851002115 -0.605003980168 -2.62876320781 -2.9668 0.567388631752 -2.79422772035 -0.134609616516 0.671372243917 1.5682482958 -0.182661377177
14.4011540574 0.771796117928 -0.607978664898 -2.62979414757 -2.9668 0.569172415434 -2.7953689643 -0.135776881686 0.670215170762 1.56952506277 -0.178802498566
14.4261704692 0.768740566834 -0.610954196539 -2.63082330793 -2.9668 0.570955514046 -2.7965061121 -0.136947220173 0.669061752093 1.57082120834 -0.17494400225
14.4524687809 0.765684340306 -0.613930567701 -2.63185068002 -2.9668 0.572737914774 -2.79763912633 -0.13812060332 0.667912011897 1.57213669046 -0.171086023988
14.4803912167 0.762627429908 -0.616907771006 -2.63287625498 -2.9668 0.574519604394 -2.79876797001 -0.139297002803 0.666765973729 1.57347146569 -0.167228697562
14.5103346254 0.759569827292 -0.619885799091 -2.633900024 -2.9668 0.576300569272 -2.79989260664 -0.140476390628 0.665623660715 1.57482548926 -0.16337215479
14.5430907928 0.756511524198 -0.622864644608 -2.63492197823 -2.9668 0.578080795371 -2.80101300022 -0.141658739132 0.664485095547 1.57619871504 -0.159516525539
14.5784755459 0.75336915718 -0.625754181076 -2.63597048592 -2.9668 0.579825024411 -2.80209646679 -0.142869630631 0.663374684824 1.57755459355 -0.155671916918
14.6105058952 0.750226073245 -0.628644478403 -2.63701722567 -2.9668 0.581568857105 -2.8031756228 -0.144083158876 0.662267993806 1.57892934917 -0.151828395937
14.6400919952 0.747082286935 -0.631535522173 -2.63806216201 -2.9668 0.583312214744 -2.80425040906 -0.145299344355 0.661165077072 1.58032294545 -0.147986020858
14.6699807037 0.743937790754 -0.634427305716 -2.63910528529 -2.9668 0.585055079984 -2.80532079246 -0.146518163562 0.660065955172 1.58173533384 -0.144144908182
14.7026770004 0.740792577265 -0.637319822376 -2.6401465859 -2.9668 0.586797435132 -2.80638674034 -0.147739593267 0.658970648252 1.58316646462 -0.140305172697
14.7391636287 0.73764663909 -0.640213065515 -2.64118605419 -2.9668 0.588539262147 -2.80744822056 -0.14896361051 0.65787917605 1.58461628685 -0.13646692749
14.781317528 0.734499968907 -0.643107028514 -2.64222368055 -2.9668 0.590280542644 -2.80850520145 -0.150190192603 0.656791557902 1.58608474844 -0.132630283948
14.8314413958 0.73127240876 -0.645909298812 -2.64328794696 -2.9668 0.591984746532 -2.80952481419 -0.151444121054 0.655732050775 1.58753423358 -0.128806077963
14.8738906053 0.728044098937 -0.648712232872 -2.64435041319 -2.9668 0.593688746459 -2.81053987085 -0.152700319307 0.654676357972 1.58900203659 -0.124983590873
14.9110975554 0.724815055168 -0.651515816407 -2.64541104218 -2.9668 0.595392457589 -2.81155031557 -0.153958813935 0.653624532488 1.59048811624 -0.121162863473
14.944548398 0.721585270789 -0.654320043446 -2.64646982356 -2.9668 0.597095858618 -2.81255611949 -0.155219585745 0.652576591749 1.59199241853 -0.117343995609
14.9752548815 0.718354739171 -0.657124908034 -2.64752674691 -2.9668 0.598798927948 -2.81355725427 -0.156482615773 0.651532552808 1.59351488835 -0.113527085625
15.0085133609 0.715123453716 -0.659930404232 -2.64858180186 -2.9668 0.600501643687 -2.81455369203 -0.157747885284 0.650492432343 1.59505546958 -0.109712230367
15.0459986669 0.711891407855 -0.662736526117 -2.64963497802 -2.9668 0.602203983651 -2.81554540542 -0.159015375774 0.649456246664 1.59661410505 -0.105899525188
15.0884136652 0.708581710147 -0.665448665549 -2.65071483823 -2.9668 0.603868188637 -2.81649937809 -0.160309128558 0.648448070603 1.59815213587 -0.102100506644
15.1256794317 0.70527123277 -0.66816137495 -2.65179285677 -2.9668 0.605532361875 -2.81744857971 -0.161604833042 0.647443779277 1.59970790504 -0.0983037070202
15.1604458949 0.70195999247 -0.670874640086 -2.65286899507 -2.9668 0.607196412884 -2.81839295773 -0.162902521143 0.646443424415 1.60128136728 -0.0945091517978
15.1992427451 0.698647983255 -0.673588455648 -2.653943242 -2.9668 0.608860316902 -2.81933248752 -0.164202177303 0.645447020659 1.60287246394 -0.0907169262995
15.2441431914 0.695335199144 -0.676302816338 -2.65501558644 -2.9668 0.610524048922 -2.82026714495 -0.165503786161 0.644454582308 1.60448113541 -0.0869271145141
15.2829582647 0.692021634163 -0.67901771687 -2.65608601728 -2.9668 0.61218758369 -2.82119690635 -0.166807332557 0.643466123329 1.60610732121 -0.0831397990995
15.324405723 0.688707282349 -0.681733151968 -2.65715452341 -2.9668 0.61385089571 -2.82212174857 -0.168112801531 0.642481657355 1.60775095994 -0.0793550613884
15.3742397424 0.685318576611 -0.684352410574 -2.65824971793 -2.9668 0.615475039785 -2.82300854382 -0.169443551778 0.641525047241 1.60937237483 -0.0755851190987
15.416339192 0.68192906292 -0.686972148283 -2.65934302074 -2.9668 0.617099307722 -2.82389038253 -0.170775978437 0.640572370991 1.61101093405 -0.0718177822204
15.4536797171 0.678538758895 -0.689592350835 -2.66043439175 -2.9668 0.618723603818 -2.82476721547 -0.172110118143 0.639623679396 1.61266658882 -0.0680530627174
15.4874478654 0.675147659084 -0.692213013527 -2.66152381915 -2.9668 0.620347900293 -2.82563902211 -0.173445958426 0.638678984662 1.61433927659 -0.0642910331598
15.5186898715 0.671755758027 -0.69483413166 -2.66261129114 -2.9668 0.621972169165 -2.82650578243 -0.174783486988 0.637738298693 1.61602893405 -0.0605317649246
15.5509378536 0.668363050252 -0.697455700544 -2.6636967959 -2.9668 0.623596382243 -2.82736747685 -0.176122691713 0.636801633096 1.61773549705 -0.0567753281976
15.5862613993 0.664969530277 -0.700077715492 -2.66478032164 -2.9668 0.625220511137 -2.82822408631 -0.177463560661 0.635868999186 1.61945890071 -0.0530217919772
15.6194474946 0.661505010057 -0.702601457283 -2.66589050351 -2.9668 0.62680446798 -2.82904240642 -0.1788288245 0.634964020271 1.62115847744 -0.0492840435065
15.6501698319 0.658039654494 -0.705125589804 -2.66699873572 -2.9668 0.628388690722 -2.82985561274 -0.180195527215 0.63406300598 1.6228745949 -0.0455491883778
15.682466931 0.654573481958 -0.707650098677 -2.66810497676 -2.9668 0.629973078824 -2.83066365931 -0.18156370963 0.633166006494 1.62460720133 -0.041817226553
15.7174483537 0.651106487436 -0.710174979743 -2.66920921416 -2.9668 0.631557601863 -2.83146652959 -0.182933361906 0.632273031936 1.626356231 -0.0380882193467
15.7564853307 0.647638665885 -0.712700228845 -2.67031143547 -2.9668 0.633142229249 -2.83226420749 -0.184304474365 0.63138409217 1.62812161748 -0.0343622269997
15.801584779 0.644170012235 -0.715225841825 -2.67141162824 -2.9668 0.634726930225 -2.83305667742 -0.185677037494 0.630499196801 1.62990329367 -0.0306393086804
15.8406405466 0.640700521388 -0.717751814525 -2.67250978004 -2.9668 0.636311673865 -2.83384392425 -0.18705104194 0.629618355182 1.63170119182 -0.0269195224886
15.8826681973 0.637163435949 -0.720177516328 -2.67363452209 -2.9668 0.63785527294 -2.8345927006 -0.188448642011 0.62876492539 1.63347368208 -0.023216420737
15.9198149829 0.633625488055 -0.722603522526 -2.6747572494 -2.9668 0.639399268923 -2.83533623275 -0.189847476877 0.627915475448 1.63526210425 -0.0195164145207
15.953787866 0.630086696734 -0.725029818528 -2.67587791906 -2.9668 0.640943556767 -2.83607447794 -0.191247591079 0.627070055247 1.63706640396 -0.0158194931017
15.9900821337 0.626547057324 -0.727456400662 -2.67699651802 -2.9668 0.64248810373 -2.83680742344 -0.192648977039 0.626228673176 1.63888651288 -0.012125707821
16.0234016237 0.623006565123 -0.72988326525 -2.67811303324 -2.9668 0.64403287693 -2.83753505698 -0.194051627325 0.625391337407 1.64072236207 -0.00843510905059
16.0544868413 0.619465215383 -0.732310408605 -2.67922745167 -2.9668 0.645577843346 -2.83825736676 -0.195455534657 0.624558055892 1.64257388202 -0.00474774619311
16.0834876437 0.615923003318 -0.734737827033 -2.68033976029 -2.9668 0.64712296982 -2.83897434143 -0.19686069191 0.62372883637 1.64444100267 -0.00106366768591
16.1142197904 0.612316650724 -0.737063077243 -2.6814785627 -2.9668 0.648626012893 -2.83965272311 -0.198288725811 0.622926747523 1.64628116188 0.00260290700312
16.1455698973 0.608709408404 -0.739388547107 -2.6826152789 -2.9668 0.650129574924 -2.84032575547 -0.199717820183 0.622128640924 1.64813664261 0.00626625859104
16.1791895637 0.605101295964 -0.741714221737 -2.68374986467 -2.9668 0.651633546658 -2.84099339888 -0.201148022871 0.621334566476 1.65000738819 0.00992640738187
16.215967809 0.601492309031 -0.744040097888 -2.68488230641 -2.9668 0.653137893294 -2.8416556443 -0.202579328238 0.620544531177 1.65189332819 0.0135833108944
16.2571485251 0.597882443178 -0.746366172302 -2.68601259055 -2.9668 0.654642579919 -2.84231248308 -0.204011730785 0.619758541837 1.65379439166 0.0172369275249
16.293944729 0.594271693921 -0.748692441706 -2.6871407035 -2.9668 0.656147571501 -2.84296390705 -0.20544522516 0.618976605096 1.6557105072 0.0208872165468
16.3296675452 0.590660056726 -0.751018902814 -2.68826663169 -2.9668 0.657652832901 -2.84360990845 -0.206879806154 0.618198727415 1.65764160292 0.0245341381067
16.3704895841 0.586987778111 -0.753241400247 -2.68941892965 -2.9668 0.659115107236 -2.84421725021 -0.208336618855 0.617447665069 1.65954421555 0.0281627975567
16.4071845982 0.583314582047 -0.755464033785 -2.69056906435 -2.9668 0.660578015273 -2.84481916127 -0.209794344253 0.616700577075 1.66146154081 0.0317881712485
16.4407445064 0.579640488649 -0.757686788163 -2.69171699029 -2.9668 0.662041443801 -2.84541560509 -0.211253033123 0.615957513639 1.66339351999 0.0354102880504
16.4743126496 0.575965493785 -0.75990966051 -2.69286269341 -2.9668 0.663505356178 -2.84600657608 -0.2127126815 0.615218480681 1.66534008099 0.0390291133644
16.5107939502 0.572289593256 -0.762132647936 -2.69400615964 -2.9668 0.664969715667 -2.84659206908 -0.214173285556 0.614483483979 1.66730115131 0.0426446133868
16.544378677 0.568612782797 -0.764355747532 -2.69514737492 -2.9668 0.666434485434 -2.84717207934 -0.215634841602 0.613752529172 1.66927665804 0.0462567551079
16.5757115473 0.564935058081 -0.766578956368 -2.69628632522 -2.9668 0.667899628553 -2.84774660254 -0.217097346085 0.613025621762 1.67126652787 0.0498655063081
16.6055428731 0.561200232891 -0.768696509353 -2.69745149669 -2.9668 0.669320917102 -2.84828245264 -0.218581505578 0.612325183428 1.67322642876 0.0534552837619
16.6337880778 0.5574644619 -0.770814115735 -2.698614423 -2.9668 0.67074294805 -2.84881281281 -0.220066453747 0.611628703597 1.67520043745 0.0570417691354
16.6606690766 0.553727765677 -0.772931759803 -2.69977505751 -2.9668 0.672165604453 -2.84933764953 -0.221552243949 0.610936233042 1.67718849339 0.0606249989658
16.686507612 0.549990140293 -0.775049439014 -2.70093338572 -2.9668 0.673588847995 -2.8498569605 -0.223038873667 0.610247776909 1.67919052319 0.0642049456726
16.7113441356 0.546251581741 -0.777167150802 -2.70208939314 -2.9668 0.675012640282 -2.85037074384 -0.224526340516 0.609563340239 1.68120645315 0.0677815823928
16.7366862248 0.542512085941 -0.779284892574 -2.7032430653 -2.9668 0.676436942837 -2.85087899807 -0.226014642245 0.60888292797 1.6832362092 0.0713548829815
16.7630639441 0.538771648738 -0.781402661712 -2.70439438772 -2.9668 0.6778617171 -2.85138172212 -0.227503776739 0.608206544943 1.685279717 0.0749248220071
16.7909054593 0.534977690777 -0.783413187503 -2.70557176111 -2.9668 0.679241805999 -2.85184581016 -0.229014052399 0.607556256545 1.68729180904 0.0784751094321
16.8201746906 0.531182757948 -0.785423684533 -2.70674680343 -2.9668 0.680622740865 -2.85230436965 -0.230525014003 0.606909904974 1.68931741028 0.082022147172
16.8512523801 0.527386871232 -0.787434136588 -2.70791946695 -2.9668 0.682004401209 -2.85275736999 -0.232036717175 0.606267541807 1.69135645837 0.0855659786242
16.884580275 0.523590026873 -0.789444541414 -2.70908973679 -2.9668 0.683386747174 -2.85320481203 -0.233549160646 0.605629171697 1.69340887898 0.0891065824509
16.9206591027 0.51979222103 -0.791454896731 -2.7102575981 -2.9668 0.68476973883 -2.85364669698 -0.235062343284 0.604994799225 1.69547459749 0.0926439379609
16.9540039109 0.515993449781 -0.793465200227 -2.71142303604 -2.9668 0.686153336173 -2.85408302646 -0.236576264087 0.604364428905 1.69755353903 0.0961780251102
16.9851131522 0.512193709119 -0.795475449563 -2.71258603581 -2.9668 0.687537499132 -2.85451380245 -0.238090922184 0.603738065188 1.69964562846 0.099708824497
17.0147865626 0.508344063219 -0.797376974097 -2.71377489763 -2.9668 0.688876182841 -2.85490602755 -0.239626265406 0.603137395672 1.70170489721 0.103219316709
17.0430441095 0.504493412664 -0.799278388039 -2.71496133921 -2.9668 0.690215811566 -2.85529270455 -0.241162210963 0.602540637376 1.70377708443 0.106726643539
17.0699370619 0.500641778805 -0.801179674623 -2.7161453118 -2.9668 0.691556261444 -2.85567380575 -0.242698816438 0.6019478429 1.70586212605 0.110230854507
17.0957872827 0.49678915804 -0.803080831854 -2.71732680023 -2.9668 0.692897491164 -2.85604933497 -0.244236081651 0.601359016657 1.70795994703 0.113731933819
17.1206352245 0.492935546672 -0.804981857708 -2.71850578933 -2.9668 0.694239459351 -2.85641929634 -0.245774006554 0.600774163021 1.71007047212 0.117229866262
17.1459891498 0.489080940918 -0.806882750126 -2.71968226396 -2.9668 0.69558212456 -2.85678369439 -0.24731259123 0.600193286335 1.71219362585 0.120724637203
17.17237938 0.485225336902 -0.808783507018 -2.72085620901 -2.9668 0.696925445282 -2.85714253401 -0.248851835894 0.599616390908 1.71432933257 0.124216232585
