liuchen18/hilsys_old/sim_sys/data/fwx_planned_trajectory_he.txt
this is the FWX joint values,the following info is time,x,y,theta,joint1,joint2,joint3,joint4,joint5,joint6,joint7
0.0 1.95699131576 -0.195977904042 -0.874771623922 2.31554728571 1.31689592439 -0.494901489409 1.24035743852 2.75567485374 1.41758035496 -1.91887649721
0.0843019730286 1.95485503126 -0.19632235843 -0.874264245146 2.31656204327 1.3164596384 -0.496102729539 1.24123352494 2.7544967261 1.41511622181 -1.91899429654
0.149167268337 1.95271963367 -0.196665715895 -0.873755557198 2.31757941916 1.31601942713 -0.497306735573 1.2421047065 2.75331696695 1.41264942259 -1.91911004216
0.204548827512 1.95058511943 -0.197007964007 -0.873245562644 2.31859940827 1.31557528849 -0.498513506062 1.24297095665 2.75213558457 1.41017999031 -1.91922372467
0.253797050949 1.948451485 -0.197349090238 -0.87273426384 2.31962200588 1.31512722121 -0.49972303962 1.2438322492 2.75095258775 1.40770795869 -1.91933533491
0.298875469523 1.9463187268 -0.197689082072 -0.872221663188 2.32064720718 1.31467522421 -0.500935334747 1.24468855816 2.74976798531 1.40523336175 -1.91944486404
0.340491084012 1.94418666273 -0.198028811282 -0.871707845017 2.32167484353 1.31422053718 -0.502150192154 1.24554119756 2.74858141198 1.4027566037 -1.91955374971
0.379675015753 1.94205567869 -0.198366331766 -0.871192632408 2.32270526874 1.31376040508 -0.503368100696 1.24638711617 2.74739374384 1.40027687674 -1.91965863404
0.416941988614 1.9399255631 -0.198702665794 -0.870676125175 2.32373828321 1.31329637207 -0.504588696383 1.2472280683 2.74620444363 1.39779472554 -1.91976161392
0.452385898693 1.93779630873 -0.199037815547 -0.870158326286 2.32477388099 1.31282840695 -0.505812047192 1.24806393326 2.74501357446 1.39531014836 -1.91986247764
0.486433085631 1.93566791172 -0.199371768713 -0.869639238376 2.32581205681 1.31235650946 -0.507038151482 1.24889468527 2.74382114576 1.39282318038 -1.91996121634
0.519138643302 1.93354036815 -0.199704512973 -0.869118864149 2.32685280526 1.31188067954 -0.508267007558 1.24972029885 2.7426271669 1.3903338571 -1.92005782152
0.55087278409 1.93141346467 -0.20003712371 -0.868597301353 2.32789593085 1.31140240253 -0.509498379978 1.25054235138 2.74143120629 1.38784260916 -1.92015400211
0.581658410166 1.92928761205 -0.200367424403 -0.868074363785 2.32894180599 1.31091867358 -0.510732811342 1.25135751436 2.74023420787 1.3853486509 -1.92024610097
0.61152676377 1.92716260418 -0.20069646484 -0.867550147393 2.32999023877 1.31043104449 -0.511969917473 1.25216755808 2.7390356337 1.3828524786 -1.92033624744
0.64050527063 1.92503843347 -0.201024247482 -0.867024656021 2.33104122152 1.30993948428 -0.51320976848 1.25297236211 2.7378355477 1.3803540955 -1.92042422666
0.668901647774 1.92291509573 -0.201350760237 -0.866497892602 2.33209474835 1.30944399378 -0.514452362444 1.25377190136 2.73663395981 1.37785353827 -1.92051003038
0.696727639984 1.92079258669 -0.201675991033 -0.86596986014 2.33315081328 1.30894457395 -0.515697697479 1.25456615087 2.73543087994 1.37535084388 -1.92059365046
0.723997409994 1.91867069558 -0.202001056968 -0.865440654609 2.33420922434 1.30844268343 -0.516945596185 1.25535660723 2.73422593146 1.37284637045 -1.92067661075
0.750716932756 1.91654983029 -0.202323684387 -0.864910093643 2.33527034627 1.30793540514 -0.518196412631 1.25614020088 2.73301989481 1.37033951489 -1.9207558329
0.77689990171 1.91442978068 -0.202644993789 -0.864378272666 2.33633398823 1.30742420198 -0.519449964378 1.2569184307 2.73181239699 1.36783063484 -1.92083284732
0.802557141699 1.91231054217 -0.20296497339 -0.863845195152 2.33740014325 1.30690907509 -0.520706249225 1.25769127208 2.73060344769 1.36531976784 -1.92090764648
0.827699261564 1.91019211025 -0.203283611352 -0.863310864351 2.33846880486 1.30639002634 -0.521965265089 1.25845870064 2.72939305724 1.36280695204 -1.92098022266
0.85233665104 1.9080744803 -0.20360089589 -0.862775283563 2.33953996643 1.30586705775 -0.523227009852 1.25922069209 2.7281812361 1.36029222578 -1.92105056822
0.87672322306 1.90595744788 -0.203917970443 -0.862238546255 2.34061344105 1.30534163093 -0.524491291332 1.25997875615 2.72696760791 1.35777590637 -1.92112022755
0.900857033627 1.90384140715 -0.204232509719 -0.861700475981 2.3416895816 1.30481082639 -0.525758492773 1.26072979914 2.72575295408 1.35525747672 -1.92118608278
0.924742997897 1.9017261544 -0.204545660397 -0.861161165628 2.3427682023 1.30427610971 -0.527028416484 1.26147533314 2.72453690192 1.35273725344 -1.92124968516
0.948383712527 1.89961168472 -0.204857411046 -0.860620618973 2.34384929561 1.30373748313 -0.52830106021 1.26221533408 2.72331946171 1.3502152754 -1.92131102726
0.971781746202 1.89749799324 -0.205167750141 -0.860078839557 2.34493285444 1.30319494961 -0.529576421557 1.26294977837 2.7221006443 1.34769158209 -1.92137010208
0.994939639636 1.89538507506 -0.205476666224 -0.859535830969 2.34601887162 1.30264851232 -0.530854498115 1.26367864252 2.72088046062 1.34516621321 -1.92142690265
1.0178620003 1.89327273255 -0.205785328255 -0.858991683996 2.34710716557 1.30209963445 -0.532135082202 1.26440344805 2.71965853471 1.34263944368 -1.92148299271
1.04054714527 1.89116134515 -0.2060913611 -0.858446228447 2.34819807666 1.30154539692 -0.533418587647 1.26512108009 2.71843564872 1.34011084531 -1.9215352174
1.0629996183 1.88905071608 -0.206395936821 -0.857899554506 2.34929142455 1.30098726654 -0.53470480098 1.26583306229 2.71721143053 1.33758069207 -1.92158514703
1.08522185754 1.88694084009 -0.206699044333 -0.857351666236 2.35038720109 1.30042524678 -0.535993719599 1.26653937154 2.71598589082 1.33504902415 -1.92163277508
1.10721627474 1.88483171202 -0.207000672509 -0.85680256747 2.35148539862 1.29985934167 -0.537285340976 1.26723998491 2.71475904106 1.33251588228 -1.92167809481
1.12898525831 1.88272332661 -0.207300810269 -0.856252262084 2.35258600939 1.29928955549 -0.538579662422 1.26793487976 2.71353089271 1.3299813074 -1.92172109988
1.15053305987 1.8806154936 -0.20760065108 -0.855700837997 2.35368885756 1.29871735189 -0.539876459477 1.26862558866 2.71230106988 1.32744553072 -1.92176337369
1.17185824358 1.87850857672 -0.207897772159 -0.855148131633 2.35479427029 1.29813981455 -0.541176179144 1.26930897713 2.71107035615 1.32490821537 -1.9218017237
1.19296500356 1.87640238661 -0.208193369836 -0.854594230265 2.35590207303 1.29755841057 -0.542478590416 1.26998658024 2.70983837929 1.32236959145 -1.92183774084
1.21385563187 1.87429691772 -0.208487433512 -0.854039138259 2.35701225704 1.29697314442 -0.543783690827 1.27065837532 2.70860515076 1.31982970027 -1.92187141824
1.23453238954 1.87219216456 -0.208779952443 -0.853482859719 2.35812481412 1.29638402136 -0.545091477384 1.27132434055 2.70737068241 1.31728858379 -1.92190275029
1.25479489421 1.87008812157 -0.209070916003 -0.852925398808 2.35923973594 1.29579104677 -0.546401947278 1.27198445398 2.70613498635 1.31474628408 -1.92193173084
1.27505231746 1.86798460628 -0.209361541256 -0.852366840438 2.36035685268 1.29519568311 -0.547714859054 1.27264025733 2.70489768714 1.31220298713 -1.92195996041
1.29530131517 1.86588196585 -0.209649359649 -0.851807027882 2.36147647779 1.29459502039 -0.549030692735 1.27328860125 2.70365956865 1.30965845024 -1.92198421547
1.31554363555 1.86378001878 -0.209935591053 -0.851246045409 2.36259844274 1.29399052384 -0.55034920067 1.27393102896 2.70242025969 1.3071128579 -1.92200610201
1.33577933452 1.86167875921 -0.210220225268 -0.850683897648 2.36372273826 1.29338219932 -0.551670379802 1.27456751915 2.70117977199 1.30456625262 -1.92202561473
1.3560084696 1.85957818137 -0.210503252033 -0.850120588984 2.36484935559 1.29277005319 -0.552994226952 1.27519805081 2.69993811801 1.30201867741 -1.9220427484
1.37623109516 1.85747827939 -0.210784661189 -0.849556123849 2.36597828586 1.29215409201 -0.554320738991 1.27582260302 2.69869531034 1.29947017545 -1.92205749763
1.39644888948 1.85537887906 -0.211065692237 -0.848990583986 2.36710936559 1.29153577577 -0.555649656411 1.27644272562 2.69745097373 1.29692088629 -1.9220714798
1.41665867938 1.85328031007 -0.211343833387 -0.84842381983 2.3682428939 1.29091220329 -0.556981494717 1.27705525613 2.69620589315 1.29437066342 -1.92208143991
1.43686212916 1.85118239925 -0.211620326749 -0.847855912455 2.36937870865 1.29028483696 -0.558315987832 1.27766174577 2.69495969768 1.29181964471 -1.92208900068
1.4570592994 1.84908514046 -0.211895162643 -0.847286866764 2.37051680003 1.28965368382 -0.559653132508 1.27826217417 2.6937123996 1.28926787366 -1.92209415734
1.47725025073 1.84698852762 -0.212168331327 -0.84671668741 2.37165715874 1.2890187514 -0.560992925341 1.27885652126 2.69246401193 1.28671539427 -1.92209690512
1.49743503907 1.84489255459 -0.212439823134 -0.84614537908 2.3727997754 1.28838004747 -0.562335362764 1.27944476727 2.69121454769 1.28416225072 -1.92209723965
1.51761526034 1.84279705587 -0.212710898869 -0.845573020233 2.37394449309 1.28773902801 -0.563680166803 1.28002846853 2.68996363192 1.28160853491 -1.9220967933
1.53778791542 1.84070234282 -0.212979005909 -0.844999468665 2.37509159623 1.28709280385 -0.565027889178 1.28060445306 2.68871205044 1.27905419865 -1.92209228361
1.55795458777 1.83860825103 -0.213245407522 -0.844424802162 2.37624092924 1.28644283277 -0.566378245368 1.28117427791 2.68745943295 1.27649933191 -1.92208534707
1.578115338 1.83651477411 -0.213510094541 -0.843849025877 2.37739248181 1.28578912315 -0.567731231662 1.28173792403 2.68620579209 1.27394397915 -1.92207598013
1.59827022983 1.83442190569 -0.213773057774 -0.843272144715 2.37854624413 1.2851316837 -0.569086844315 1.28229537246 2.68495114139 1.27138818525 -1.92206417878
1.6184193223 1.83232963937 -0.214034288108 -0.842694163616 2.37970220633 1.28447052341 -0.57044507945 1.28284660452 2.68369549438 1.26883199526 -1.9220499393
1.6385641212 1.83023781878 -0.214295066301 -0.842115157603 2.38086021835 1.28380709293 -0.571805639433 1.28339318213 2.68243847589 1.2662754524 -1.92203490926
1.65870181542 1.82814673612 -0.214552801789 -0.84153499212 2.38202054932 1.28313851758 -0.573169114852 1.28393192539 2.68118087373 1.26371860853 -1.92201577763
1.6788338952 1.82605623622 -0.214808777498 -0.840953741467 2.38318305062 1.28246624958 -0.574535200742 1.2844643972 2.67992231723 1.26116150477 -1.92199419691
1.69896042893 1.8239663124 -0.215062984882 -0.840371411062 2.38434771143 1.28179029848 -0.575903893313 1.28499057946 2.67866281965 1.25860418637 -1.92197016376
1.71908147875 1.82187695805 -0.215315415338 -0.83978800605 2.38551452146 1.28111067421 -0.577275188485 1.28551045437 2.67740239498 1.25604669899 -1.92194367489
1.73919710838 1.81978816651 -0.215566060363 -0.839203531617 2.38668347032 1.2804273869 -0.57864908213 1.28602400428 2.67614105733 1.25348908844 -1.92191472708
1.75930873037 1.81769979097 -0.215816219344 -0.838618059253 2.38785441505 1.27974188036 -0.580025256468 1.28653279522 2.67487843121 1.25093134829 -1.92188498152
1.7794137263 1.81561210368 -0.216063266472 -0.838031462178 2.3890276092 1.27905129772 -0.581404341418 1.2870336431 2.67361530631 1.24837363207 -1.92185110296
1.79951349472 1.81352495911 -0.216308503097 -0.837443811153 2.39020291125 1.27835708382 -0.582786011709 1.28752811449 2.67235131187 1.24581593105 -1.92181475674
1.81960810247 1.81143835034 -0.216551921306 -0.83685511183 2.3913803099 1.27765924945 -0.584170263283 1.28801619247 2.6710864616 1.24325829117 -1.92177594022
1.83969761791 1.80935227051 -0.216793513112 -0.836265369585 2.39255979439 1.27695780578 -0.585557091664 1.28849786048 2.66982076998 1.24070075877 -1.92173465092
1.85978210475 1.80726671272 -0.217033270646 -0.83567458983 2.3937413539 1.27625276414 -0.586946492362 1.28897310212 2.66855425157 1.23814338029 -1.92169088642
1.87986288231 1.8051815401 -0.21727251052 -0.835082840437 2.39492485268 1.27554555992 -0.588338126961 1.28944348593 2.66728653042 1.23558609883 -1.92164632001
1.89993752797 1.80309700426 -0.217508574623 -0.834490002537 2.39611052848 1.27483335719 -0.589732665745 1.28990582683 2.66601839844 1.23302917087 -1.92159759498
1.92000734704 1.80101296969 -0.217742781315 -0.833896143268 2.39729824702 1.2741175918 -0.591129762682 1.29036169344 2.66474948462 1.23047253704 -1.92154638794
1.94007240636 1.79892942922 -0.217975123331 -0.833301268501 2.39848799656 1.27339827586 -0.592529413292 1.29081107025 2.66347980305 1.22791624384 -1.92149269728
1.9601327774 1.79684637577 -0.218205593355 -0.832705383829 2.3996797659 1.27267542172 -0.593931612795 1.2912539419 2.6622093687 1.22536033817 -1.92143652113
1.98018852542 1.79476380223 -0.218434184165 -0.832108494874 2.40087354381 1.27194904198 -0.595336356236 1.29169029336 2.66093819655 1.222804867 -1.92137785801
2.00024087029 1.79268158202 -0.218662228111 -0.831510665812 2.40206920193 1.27122056203 -0.596743283962 1.2921216943 2.65966590983 1.22024972216 -1.92131839231
2.02028759606 1.79059994546 -0.218887037901 -0.830911785809 2.40326696194 1.27048716992 -0.598153107949 1.29254496143 2.65839330337 1.21769526427 -1.92125474759
2.04032990549 1.7885187674 -0.219109947365 -0.830311918288 2.40446669698 1.26975029105 -0.599565460567 1.29296166427 2.65712000546 1.21514138253 -1.92118861121
2.06036787007 1.78643804045 -0.219330949926 -0.829711069326 2.40566839491 1.26900993882 -0.600980336968 1.29337178869 2.65584603056 1.21258812389 -1.92111998246
2.08040156127 1.78435775733 -0.219550038965 -0.829109244722 2.40687204411 1.26826612678 -0.602397732022 1.29377532062 2.65457139411 1.2100355357 -1.92104886013
2.10043104748 1.78227791074 -0.219767207955 -0.828506450294 2.40807763297 1.26751886873 -0.603817640382 1.29417224638 2.6532961115 1.20748366532 -1.92097524351
2.12045744754 1.78019838474 -0.219983803447 -0.827902746478 2.4092850406 1.2667695785 -0.605239680769 1.29456413522 2.65201980495 1.20493235276 -1.92090082656
2.14047875218 1.77811938773 -0.220197112101 -0.827298030504 2.41049447255 1.26601547139 -0.606664607358 1.2949478091 2.65074327247 1.20238206348 -1.92082221665
2.16049606626 1.77604080525 -0.220408481708 -0.826692362055 2.41170580945 1.26525796065 -0.60809203075 1.2953248367 2.64946614152 1.19983263476 -1.92074110991
2.18050945973 1.77396262974 -0.220617906404 -0.826085747394 2.41291903877 1.264497061 -0.609521945697 1.29569520533 2.6481884269 1.19728411387 -1.92065750653
2.20051900715 1.77188485373 -0.220825380279 -0.825478192503 2.41413414855 1.26373278719 -0.610954346615 1.29605890236 2.64691014443 1.19473654843 -1.9205714062
2.22052477847 1.76980746973 -0.221030897544 -0.824869703392 2.41535112677 1.26296515419 -0.612389227848 1.29641591538 2.64563130997 1.19218998611 -1.92048280873
2.24052778531 1.76773037274 -0.221235817362 -0.824260336722 2.41656986011 1.26219556261 -0.61382618616 1.2967678117 2.6443515444 1.18964421465 -1.92039341619
2.2605262375 1.76565374874 -0.221437403565 -0.823649997774 2.41779053801 1.26142125844 -0.615266018193 1.29711142211 2.64307164924 1.18709980476 -1.92029982355
2.2805211327 1.76357749424 -0.221637016365 -0.823038742497 2.41901304857 1.26064364092 -0.616708312907 1.29744831246 2.64179125104 1.18455654148 -1.92020373312
2.30051254238 1.76150160152 -0.22183465062 -0.822426577316 2.42023737893 1.25986272612 -0.618153064514 1.29777847167 2.64051036489 1.18201447225 -1.92010514632
2.32050054113 1.75942606296 -0.222030301151 -0.821813508377 2.42146351681 1.25907853001 -0.619600266928 1.29810188862 2.63922900691 1.17947364482 -1.9200040638
2.34048520354 1.7573508709 -0.222223962907 -0.821199541849 2.42269144986 1.2582910688 -0.621049914011 1.29841855241 2.63794719329 1.17693410699 -1.91990048627
2.36046743246 1.75527593157 -0.222417005974 -0.820584730583 2.42392107239 1.25750172835 -0.622501579971 1.29873002706 2.6366645431 1.17439559383 -1.91979612314
2.38044565684 1.75320140801 -0.222606674902 -0.81996898799 2.42515255758 1.25670778805 -0.623956105734 1.29903315434 2.63538186264 1.17185878187 -1.91968755692
2.4004207671 1.75112720801 -0.222794340499 -0.819352366176 2.42638580121 1.25591063201 -0.62541305712 1.29932949678 2.63409877655 1.16932340331 -1.9195764975
2.42039283471 1.7490533237 -0.222979998404 -0.818734871732 2.4276207901 1.25511027752 -0.626872428044 1.29961904474 2.63281530027 1.16678950565 -1.9194629469
2.44036193739 1.74697974731 -0.223163644197 -0.818116510952 2.42885751166 1.25430674174 -0.628334211975 1.29990178858 2.63153145026 1.16425713669 -1.91934690655
2.46032815126 1.74490647108 -0.223345273604 -0.817497290165 2.43009595323 1.25350004201 -0.629798402411 1.30017771882 2.63024724309 1.16172634427 -1.91922837777
2.48029226574 1.74283341267 -0.223526265893 -0.816877258373 2.43133601681 1.25269154797 -0.631264550379 1.300448395 2.62896229541 1.15919681043 -1.91910907669
2.50025293666 1.7407607118 -0.223703849854 -0.816256337123 2.43257785931 1.25187857542 -0.632733542126 1.30071067256 2.62767741925 1.15666931776 -1.91898557498
2.52021094255 1.73868828775 -0.223879405125 -0.815634574627 2.4338213843 1.25106249191 -0.634204919589 1.30096610963 2.62639223671 1.15414354522 -1.91885958973
2.54016635955 1.73661613255 -0.224052928155 -0.815011977636 2.43506657829 1.25024331586 -0.635678676477 1.30121469793 2.62510676359 1.15161954031 -1.91873112333
2.56011926381 1.73454423832 -0.224224415325 -0.814388552592 2.43631342837 1.24942106556 -0.637154805949 1.30145642922 2.62382101673 1.14909735078 -1.91860017767
2.58006972992 1.73247259718 -0.224393863118 -0.813764305943 2.43756192167 1.24859575955 -0.638633300909 1.30169129567 2.62253501289 1.14657702429 -1.91846675515
2.60001844005 1.73040113843 -0.224562658343 -0.813139282915 2.43881196773 1.24776874933 -0.640113689583 1.3019208503 2.62124836629 1.14405818997 -1.9183325759
2.61996427538 1.72832997818 -0.224728017339 -0.812513412971 2.44006370762 1.24693739097 -0.641596902533 1.30214196661 2.61996189455 1.14154173576 -1.91819420664
2.63990789942 1.72625904739 -0.224891327016 -0.811886740571 2.44131705242 1.24610303324 -0.643082458879 1.30235619564 2.61867521752 1.13902728775 -1.91805336738
2.659849393 1.72418833798 -0.225052584617 -0.811259272581 2.4425719884 1.24526569577 -0.644570351881 1.30256353077 2.61738835122 1.13651489319 -1.91791006142
2.67978883225 1.722117842 -0.225211787285 -0.810631015546 2.44382850247 1.24442539809 -0.646060574051 1.30276396546 2.61610131262 1.13400459956 -1.91776429181
2.69972629176 1.72004755147 -0.225368932307 -0.810001976032 2.44508658149 1.24358215985 -0.647553117897 1.30295749337 2.61481411876 1.13149645428 -1.91761606157
2.71966233873 1.71797740754 -0.22552541225 -0.80937219551 2.44634614254 1.2427373128 -0.64904748853 1.3031456596 2.61352638092 1.12899003359 -1.91746709379
2.7395960874 1.7159075024 -0.225678434606 -0.808741611273 2.44760731101 1.24188825635 -0.650544661485 1.30332535855 2.61223892321 1.12648633033 -1.91731395209
2.75952808632 1.71383777887 -0.225829391736 -0.808110264019 2.44887000552 1.24103631901 -0.652044132482 1.30349813304 2.61095136259 1.12398491766 -1.91715835901
2.77945841474 1.71176822881 -0.225978281683 -0.807478160715 2.45013421213 1.24018152164 -0.653545894323 1.30366397808 2.60966371522 1.12148584247 -1.91700031875
2.79938715036 1.7096988442 -0.226125102401 -0.806845308014 2.45139991753 1.23932388481 -0.655049939151 1.30382288865 2.60837599833 1.11898915191 -1.91683983487
2.81931436932 1.70762961701 -0.226269851964 -0.806211712569 2.45266710842 1.23846342932 -0.656556258903 1.30397486008 2.6070882291 1.11649489298 -1.91667691133
2.83924052382 1.70556050033 -0.226413926938 -0.80557741216 2.45393570924 1.23760146546 -0.658064335608 1.30412142792 2.60580001551 1.11400258927 -1.91651327256
2.85916495809 1.7034915623 -0.226554529483 -0.804942351703 2.45520583015 1.23673543942 -0.659575189473 1.30425951093 2.60451218861 1.11151333751 -1.91634548278
2.87908810879 1.7014227577 -0.226693055693 -0.804306568235 2.45647739709 1.23586665758 -0.661088293213 1.30439064182 2.6032243623 1.10902665835 -1.91617526462
2.89901005208 1.69935407835 -0.226829504397 -0.803670068795 2.45775039597 1.23499514203 -0.662603639039 1.30451481738 2.60193655277 1.10654259814 -1.91600262343
2.91893086564 1.6972855162 -0.22696387435 -0.803032860112 2.45902481333 1.23412091442 -0.66412121858 1.30463203421 2.60064877737 1.1040612035 -1.91582756357
2.93885063028 1.69521706319 -0.227096164422 -0.802394948914 2.46030063573 1.23324399663 -0.665641023275 1.30474228927 2.59936105342 1.10158252091 -1.91565008976
2.95876967855 1.69314868444 -0.227227773391 -0.801756369359 2.46157779484 1.23236567581 -0.667162512075 1.30484710704 2.59807298519 1.09910602165 -1.91547192633
2.97908793753 1.69108042395 -0.227355901684 -0.801117073801 2.46285638596 1.23148344812 -0.668686749942 1.30494343368 2.59678541141 1.09663290528 -1.91528964062
2.99960853683 1.68901224853 -0.227481947302 -0.800477095665 2.46413634223 1.23059859625 -0.670213186345 1.30503279046 2.59549794234 1.09416264021 -1.91510495452
3.02033356962 1.68694415001 -0.227605909882 -0.799836442054 2.46541764945 1.22971114339 -0.671741813039 1.30511517583 2.59421059423 1.09169527214 -1.91491787417
3.04126515705 1.68487612032 -0.227727788971 -0.799195119752 2.46670029405 1.22882111228 -0.673272621109 1.30519058808 2.5929233845 1.08923084705 -1.91472840478
3.06240543891 1.68280815139 -0.227847584238 -0.798553135548 2.46798426246 1.22792852582 -0.674805601508 1.30525902579 2.59163633053 1.08676941076 -1.91453655178
3.0807065463 1.68103563917 -0.227949679033 -0.798002322237 2.46908588908 1.22716234358 -0.676120962874 1.30531300465 2.59053293205 1.08466167225 -1.91437154069
3.09900720925 1.67926317007 -0.228049215381 -0.797451014842 2.47018850387 1.22639340934 -0.677438322061 1.30536074849 2.58942997582 1.08255665588 -1.91420352482
3.11730757694 1.6774907295 -0.228147220406 -0.796899234662 2.47129206423 1.22562264462 -0.678757257427 1.30540336577 2.58832717009 1.08045392774 -1.91403376903
3.13560770378 1.6757183123 -0.228243694378 -0.796346986215 2.47239656113 1.2248500646 -0.680077763671 1.30544085642 2.58722452518 1.07835351627 -1.91386227729
3.15390764103 1.67394591341 -0.228338637469 -0.795794273798 2.47350198596 1.22407568416 -0.681399834889 1.30547322032 2.58612205209 1.07625544996 -1.91368905329
3.17220744154 1.67217352775 -0.228432049932 -0.795241101718 2.47460833012 1.22329951826 -0.682723465183 1.30550045745 2.58501976181 1.07415975727 -1.91351410065
3.19050715813 1.67040115028 -0.228523932067 -0.794687474269 2.47571558502 1.222521582 -0.684048648454 1.30552256806 2.58391766526 1.07206646649 -1.91333742343
3.2088068452 1.66862877566 -0.228615354205 -0.794133403297 2.47682372696 1.22174286367 -0.68537485593 1.30554076579 2.5828154068 1.0699750358 -1.91316051389
3.22710658199 1.6668563962 -0.228704240464 -0.793578887203 2.47793275915 1.22096144522 -0.686703189127 1.30555262815 2.58171375149 1.06788665758 -1.91298030211
3.24540637162 1.66508401172 -0.228791588061 -0.793023920163 2.47904269323 1.22017833861 -0.688032979677 1.30555942176 2.58061228269 1.06580071809 -1.91279854144
3.26370628401 1.66331161523 -0.228877407294 -0.792468514983 2.48015350359 1.21939352277 -0.689364298909 1.30556109113 2.57951105126 1.06371729292 -1.91261507229
3.282006372 1.6615392017 -0.228961698817 -0.791912675933 2.48126518169 1.21860701329 -0.690697140324 1.3055576373 2.5784100681 1.06163640985 -1.9124298992
3.30030668997 1.65976676609 -0.229044463375 -0.791356407337 2.48237771888 1.21781882572 -0.692031497723 1.3055490613 2.5773093442 1.05955809679 -1.91224302622
3.3186072861 1.65799430337 -0.22912570176 -0.790799713499 2.48349110656 1.21702897575 -0.693367364696 1.30553536442 2.57620889045 1.05748238145 -1.91205445781
3.3369081231 1.65622181739 -0.229206428798 -0.790242602853 2.48460532785 1.21623838504 -0.694704215296 1.30551769044 2.5751083637 1.0554087064 -1.91186561822
3.35520946357 1.65444928257 -0.229284628145 -0.789685080197 2.48572037316 1.21544522329 -0.696043165747 1.30549370264 2.57400852119 1.05333832267 -1.91167350939
3.3735112205 1.65267670751 -0.229361294427 -0.7891271365 2.48683626056 1.21465048394 -0.697383527949 1.30546465443 2.57290894103 1.05127056785 -1.91147988276
3.39181346382 1.65090408528 -0.229436438414 -0.788568784826 2.48795296391 1.21385414568 -0.698725373878 1.30543049186 2.57180967454 1.04920552079 -1.91128457878
3.41011624637 1.6491314109 -0.229510061263 -0.788010029466 2.48907047463 1.21305622461 -0.700068696875 1.3053912169 2.57071073264 1.04714320872 -1.91108760207
3.42841961786 1.64735867938 -0.229582164183 -0.787450874726 2.49018878411 1.2122567369 -0.701413490258 1.30534683175 2.56961212618 1.0450836588 -1.91088895746
3.44672363113 1.64558588573 -0.229652748457 -0.78689132492 2.49130788372 1.21145569877 -0.702759747376 1.30529733866 2.568513866 1.04302689811 -1.91068864966
3.46502815566 1.64381304258 -0.229722825208 -0.7863313859 2.49242776176 1.21065401072 -0.704106924954 1.30524386816 2.56741560455 1.04097232904 -1.91048809909
3.48333363431 1.64204010699 -0.229790387085 -0.785771067835 2.49354839789 1.20984988587 -0.705456173781 1.30518411393 2.56631810817 1.03892128474 -1.91028431669
3.50163988994 1.64026709628 -0.229856424844 -0.785210358636 2.49466981629 1.2090442979 -0.706806786419 1.30511931503 2.56522094933 1.03687305475 -1.91007905083
3.51994699092 1.63849400361 -0.229920949726 -0.784649271605 2.49579199035 1.20823722522 -0.708158835521 1.30504941899 2.56412417985 1.03482772116 -1.90987214184
3.53825498853 1.63672082405 -0.229983963365 -0.784087811028 2.4969149115 1.20742868445 -0.709512314136 1.30497442883 2.56302781058 1.03278531053 -1.9096635947
3.55656393406 1.63494755267 -0.230045467439 -0.783525981202 2.49803857115 1.20661869226 -0.71086721527 1.30489434775 2.56193185224 1.03074584925 -1.90945341462
3.57487387877 1.63317418455 -0.230105463685 -0.782963786414 2.49916296073 1.20580726547 -0.712223531803 1.30480917918 2.5608363155 1.02870936358 -1.90924160703
3.59318460202 1.63140074102 -0.230164958306 -0.782401230098 2.50028807336 1.20499528209 -0.713580703822 1.30472003899 2.55974084832 1.02667521672 -1.90902958669
3.61149672538 1.629627162 -0.230221955371 -0.781838327448 2.50141387866 1.20418100109 -0.714939915554 1.30462465373 2.55864622636 1.02464482192 -1.90881437657
3.62980997846 1.62785347342 -0.230277440546 -0.781275063509 2.50254040654 1.20336537504 -0.716300440962 1.30452424682 2.55755201625 1.02261742158 -1.90859772016
3.64812443275 1.62607966856 -0.230331425515 -0.780711451779 2.50366763 1.2025483821 -0.717662353215 1.30441876735 2.55645827029 1.02059310092 -1.90837945795
3.66644013797 1.62430574255 -0.230383912382 -0.780147496539 2.50479554048 1.20173003932 -0.71902564516 1.30430821929 2.55536499922 1.01857188579 -1.90815959505
3.68475714385 1.62253169055 -0.230434903259 -0.779583202041 2.50592412948 1.20091036396 -0.720390309269 1.30419260701 2.55427221351 1.01655380163 -1.90793813753
3.70307550012 1.62075750773 -0.23048440036 -0.779018572572 2.50705338841 1.20008937319 -0.721756338317 1.30407193483 2.55317992378 1.01453887401 -1.90771509077
3.72139489909 1.61898322399 -0.230533403712 -0.778453609251 2.50818331506 1.19926792154 -0.723123155879 1.30394730313 2.55208777314 1.01252642764 -1.90749186331
3.73971613328 1.61720876238 -0.230579931205 -0.777888331984 2.50931386959 1.19844431601 -0.724491978755 1.30381647338 2.55099654695 1.0105179539 -1.90726549237
3.75803884994 1.61543415735 -0.230624962194 -0.777322723117 2.51044508732 1.19761948684 -0.725862062872 1.30368065231 2.5499058057 1.00851264893 -1.90703771532
3.77636311434 1.6136594023 -0.230668508802 -0.776756796329 2.5115769409 1.1967934119 -0.727233481939 1.30353979048 2.54881560218 1.00651060107 -1.90680837261
3.79468897776 1.61188449245 -0.230710573563 -0.776190555856 2.51270942185 1.19596610872 -0.728606228391 1.30339389294 2.54772594692 1.00451183524 -1.90657746997
3.81301648837 1.61010942305 -0.230751159044 -0.775624005938 2.51384252168 1.19513759493 -0.729980294531 1.30324296499 2.54663685025 1.0025163761 -1.90634501352
3.83134569434 1.60833418937 -0.230790267872 -0.775057150806 2.51497623195 1.19430788824 -0.731355672617 1.30308701209 2.54554832249 1.00052424819 -1.90611100946
3.84967620097 1.60655882975 -0.230828892755 -0.774489989447 2.51611055466 1.19347781832 -0.732731770585 1.3029271178 2.54446000194 0.998534738987 -1.90587685814
3.86800897482 1.6047832507 -0.23086506769 -0.773922546117 2.51724544132 1.1926457425 -0.734109836522 1.30276108078 2.54337268376 0.99654941562 -1.90563961386
3.88634356991 1.60300749506 -0.230899764551 -0.773354800649 2.51838093226 1.19181256748 -0.735489109015 1.30259008994 2.54228592211 0.994567428973 -1.90540100644
3.90468005615 1.60123155633 -0.230932995878 -0.772786766873 2.51951699981 1.19097827081 -0.736869662261 1.3024140973 2.54119977028 0.992588870498 -1.90516087637
3.92301848018 1.59945542986 -0.230964764627 -0.772218448986 2.52065363559 1.19014287042 -0.738251488371 1.3022331089 2.54011423856 0.990613764154 -1.90491922975
3.94135889171 1.59767911101 -0.230995073772 -0.771649851171 2.52179083122 1.18930638438 -0.739634579243 1.30204713112 2.53902933699 0.988642133576 -1.90467607327
3.95970133737 1.59590259514 -0.231023926377 -0.771080977637 2.52292857828 1.18846883067 -0.741018926986 1.30185617031 2.53794507574 0.986674002481 -1.90443141314
3.97804533543 1.59412592889 -0.231052306655 -0.770511825363 2.52406688283 1.1876310132 -0.742403924202 1.3016612923 2.53686108805 0.984708622031 -1.9041866409
3.99639201716 1.5923490026 -0.231078266916 -0.769942422584 2.52520568839 1.18679134173 -0.743790848938 1.30146033512 2.53577817896 0.982747632538 -1.90393883058
4.0147408589 1.59057186731 -0.231102770465 -0.769372746856 2.52634503985 1.18595069808 -0.745178923564 1.30125446849 2.53469589631 0.980790141105 -1.9036897023
4.03309192278 1.58879451667 -0.231125830205 -0.768802812104 2.52748490935 1.18510905959 -0.746568222433 1.30104364604 2.53361429375 0.978836241991 -1.90343909715
4.05144525699 1.58701694616 -0.231147449489 -0.768232622467 2.52862528862 1.18426644454 -0.747958737313 1.30082787485 2.53253338127 0.976885958117 -1.90318702169
4.06980090815 1.58523915124 -0.231167631717 -0.767662182106 2.52976616935 1.18342287123 -0.74935046003 1.3006071621 2.53145316878 0.97493931231 -1.90293348245
4.08815892287 1.58346112743 -0.231186380304 -0.767091495131 2.5309075433 1.18257835816 -0.750743382022 1.30038151536 2.53037366595 0.972996326935 -1.90267848675
4.10651873552 1.58168292942 -0.231204669921 -0.766520556722 2.53204942011 1.18173368215 -0.752136881612 1.30015198142 2.5292945011 0.971056218458 -1.9024234152
4.12488164208 1.57990443184 -0.231220573303 -0.765949398723 2.53319173611 1.18088730746 -0.753532265404 1.2999164397 2.5282164892 0.969120697608 -1.90216536415
4.14324703187 1.57812569373 -0.231235044067 -0.765377996576 2.53433454041 1.18004009002 -0.754928740084 1.2996760399 2.52713917147 0.967188828753 -1.90190604321
4.16161496858 1.5763467089 -0.231248095497 -0.764806364312 2.53547780494 1.17919200677 -0.756326380446 1.299430737 2.52606260212 0.965260709198 -1.90164529343
4.17998549885 1.57456747297 -0.231259731312 -0.764234506 2.53662152156 1.17834307632 -0.757725177868 1.2991805391 2.52498679078 0.963336360715 -1.90138312186
4.19835866617 1.57278798153 -0.231269955264 -0.763662425715 2.53776568213 1.17749331737 -0.759125123674 1.29892545445 2.52391174692 0.961415804871 -1.9011195358
4.21673451717 1.57100823025 -0.231278771169 -0.763090127535 2.53891027849 1.17664274857 -0.760526209257 1.2986654914 2.52283748002 0.959499063173 -1.90085454234
4.23511240541 1.56922828166 -0.231287143068 -0.762517604963 2.54005532363 1.1757921188 -0.761927799031 1.29840167695 2.52176361329 0.957585318443 -1.9005895107
4.25349378227 1.56744799517 -0.231293166129 -0.761944893072 2.54120074741 1.17493994878 -0.763331226629 1.29813193384 2.52069097153 0.955676348869 -1.90032156204
4.2718779578 1.56566743759 -0.231297783277 -0.761371965427 2.5423466027 1.17408706726 -0.76473568423 1.29785739052 2.51961908948 0.953771177754 -1.90005239351
4.29026499416 1.56388660291 -0.231301008117 -0.760798836102 2.54349286135 1.17323345094 -0.766141246694 1.29757800352 2.51854802167 0.951869905102 -1.89978184677
4.30865493642 1.56210548688 -0.231302844715 -0.760225509091 2.54463951538 1.17237911871 -0.767547905045 1.2972937819 2.51747777737 0.949972551501 -1.89950992932
4.32704782652 1.56032408527 -0.231303297186 -0.759651988413 2.54578655673 1.17152408942 -0.768955650449 1.29700473475 2.51640836575 0.948079137506 -1.89923664848
4.34544370799 1.55854239387 -0.231302369681 -0.759078278063 2.54693397743 1.170668382 -0.77036447392 1.29671087137 2.5153397959 0.946189683401 -1.89896201185
4.36384185822 1.55676048285 -0.231301014641 -0.758504370052 2.54808179345 1.16981271637 -0.771773726857 1.2964131979 2.514271686 0.944303339935 -1.89868737572
4.38224387936 1.55497819689 -0.231297351552 -0.757930302304 2.54922992895 1.16895567146 -0.773184768346 1.29610968227 2.51320487054 0.942421949661 -1.89840988851
4.40064900374 1.55319561034 -0.231292311668 -0.7573560467 2.55037844016 1.1680980479 -0.774596776891 1.29580143073 2.51213887769 0.940544496235 -1.89813123373
4.41905729197 1.55141271738 -0.231285908891 -0.756781617342 2.55152729888 1.16723982206 -0.77600982744 1.2954884013 2.51107376239 0.938671082371 -1.89785125354
4.43746878757 1.54962951392 -0.231278147618 -0.756207018146 2.55267649727 1.16638101302 -0.777423910757 1.29517060388 2.5100095335 0.936801727498 -1.89756995567
4.45588352937 1.54784599587 -0.231269032277 -0.755632253047 2.55382602746 1.16552163984 -0.778839017656 1.29484804851 2.5089461998 0.934936450918 -1.89728734789
4.47430156089 1.5460621592 -0.231258567347 -0.755057325967 2.55497588163 1.16466172158 -0.780255138937 1.29452074532 2.50788376999 0.933075271787 -1.89700343794
4.4927220834 1.54427808144 -0.231247692732 -0.754482227586 2.55612607839 1.1638019483 -0.781671613761 1.29418967868 2.50682185729 0.931217310292 -1.8967195681
4.51114684354 1.5424935931 -0.231234553996 -0.753906998292 2.55727653697 1.1629409589 -0.783089824876 1.29385286348 2.50576130559 0.929364469961 -1.89643291661
4.52957500063 1.54070877581 -0.231220069833 -0.753331608519 2.55842731652 1.16207952472 -0.784508938393 1.29351138269 2.50470163669 0.927515696731 -1.89614515143
4.54800661215 1.53892362395 -0.231204254383 -0.752756072336 2.55957838889 1.16121762197 -0.785929028978 1.29316519595 2.50364290575 0.925671095633 -1.89585611585
4.56644171852 1.53713813358 -0.23118711236 -0.752180393593 2.56072974637 1.16035526977 -0.787350087294 1.29281431389 2.50258512131 0.923830685049 -1.89556581757
4.58488036013 1.5353523008 -0.23116864848 -0.75160457613 2.5618813813 1.15949248732 -0.788772103813 1.29245874744 2.50152829166 0.921994482974 -1.89527426473
4.60332257738 1.53356612175 -0.231148867513 -0.751028623784 2.56303328599 1.15862929379 -0.790195069084 1.29209850756 2.50047242509 0.920162507343 -1.89498146532
4.62176749541 1.53177968103 -0.231128695966 -0.750452526078 2.5641854814 1.15776634856 -0.791618310921 1.29173455595 2.49941713001 0.91833384944 -1.89468874639
4.64021700693 1.52999279559 -0.23110630712 -0.749876325491 2.56533788258 1.15690235198 -0.793043234002 1.29136495608 2.49836325936 0.916510470376 -1.89439331821
4.65867019355 1.52820555405 -0.231082606235 -0.74929999119 2.56649055118 1.15603804526 -0.794468992865 1.29099076684 2.4973103286 0.914691279871 -1.89409683232
4.67712711431 1.52641795099 -0.2310576077 -0.748723537227 2.5676434591 1.15517340429 -0.795895662198 1.29061194925 2.49625839326 0.912876385579 -1.89379913248
4.69558780497 1.52462998266 -0.231031316481 -0.748146967348 2.56879659886 1.1543084483 -0.79732323227 1.29022851483 2.49520746137 0.911065804469 -1.89350022689
4.71405230593 1.52284164534 -0.231003737566 -0.747570285302 2.56994996295 1.15344319655 -0.798751693339 1.28984047526 2.49415754077 0.909259553311 -1.89320012386
4.73252065603 1.52105293533 -0.230974875987 -0.746993494832 2.57110354389 1.15257766825 -0.800181035688 1.2894478423 2.49310863929 0.907457648753 -1.89289883164
4.75099190891 1.51926394402 -0.230945644061 -0.746416584478 2.5722573646 1.15171249129 -0.801610576798 1.28905155412 2.49206036073 0.905659154996 -1.89259766071
4.76946809093 1.51747447542 -0.230914244276 -0.745839598432 2.57341133669 1.1508464289 -0.803041741273 1.28864972433 2.49101356665 0.903866087 -1.89229385591
4.78794821534 1.51568462487 -0.230881567696 -0.745262504818 2.57456552392 1.14998019124 -0.804473673382 1.2882433868 2.48996776639 0.902077320329 -1.89198905063
4.80643233807 1.51389438712 -0.230847628889 -0.744685317612 2.57571989834 1.14911375398 -0.80590644745 1.28783250405 2.4889230157 0.900292964821 -1.89168308979
4.82492049641 1.51210375862 -0.230812433075 -0.744108040472 2.57687445261 1.14824713632 -0.807340053604 1.28741708831 2.48787932215 0.898513036267 -1.89137598158
4.84341272456 1.51031273585 -0.230775985489 -0.743530677063 2.57802917943 1.14738035745 -0.808774481969 1.28699715195 2.48683669319 0.896737550251 -1.89106773436
4.86190905981 1.50852131529 -0.23073829137 -0.742953231 2.57918407156 1.14651343671 -0.810209722363 1.28657270758 2.48579513602 0.894966521856 -1.89075835701
4.88040849209 1.50672959479 -0.230700248122 -0.742375690016 2.58033915353 1.14564696978 -0.811645082946 1.28614466906 2.4847542501 0.893198990062 -1.89044914223
4.89891317208 1.5049373661 -0.230660088802 -0.741798099647 2.58149433426 1.14477978398 -0.813082006288 1.28571120151 2.48371490504 0.891437019927 -1.89013737165
4.91742204773 1.50314473089 -0.230618689564 -0.741220427177 2.5826496792 1.1439125576 -0.814519627542 1.28527331297 2.48267660436 0.889679454814 -1.88982465919
4.93593517345 1.50135168418 -0.230576065137 -0.7406426865 2.58380516056 1.14304526608 -0.815958020736 1.28483096739 2.48163940401 0.887926406801 -1.88951085071
4.95445258343 1.49955822258 -0.230532220955 -0.740064881175 2.58496077121 1.14217792852 -0.817397175806 1.28438417765 2.48060331112 0.8861778904 -1.88919595457
4.97297431028 1.49776434278 -0.230487162443 -0.739487014742 2.58611650408 1.14131056416 -0.818837082486 1.28393295693 2.47956833251 0.88443391967 -1.88887997961
4.99150038821 1.49597004145 -0.230440895067 -0.738909090737 2.58727235208 1.14044319212 -0.820277730594 1.28347731839 2.47853447499 0.882694508614 -1.88856293447
5.01002974653 1.49417542257 -0.230394300619 -0.738331096208 2.58842834114 1.13957637549 -0.821718419666 1.28301815107 2.47750133379 0.880958672501 -1.88824609359
5.02856465402 1.49238026629 -0.230345643955 -0.737753077695 2.58958437817 1.13870900665 -0.82316060825 1.28255367277 2.476469786 0.879228522679 -1.88792677741
5.04710399649 1.49058468034 -0.230295785685 -0.737175001847 2.59074052986 1.13784173132 -0.82460342367 1.28208486495 2.47543932963 0.877502872458 -1.88760657895
5.06564782523 1.48878865994 -0.23024474066 -0.736596882447 2.59189676866 1.13697452466 -0.826046939548 1.28161169293 2.47441002083 0.875781836016 -1.88728534517
5.08419617131 1.48699220193 -0.230192514488 -0.736018722939 2.59305308768 1.13610740574 -0.827491145539 1.28113417031 2.47338186615 0.874065426429 -1.88696308472
5.10274906892 1.48519530317 -0.230139112765 -0.735440526745 2.59420948007 1.13524039367 -0.828936031118 1.28065231093 2.47235487186 0.872353656336 -1.88663980672
5.1213065507 1.48339796055 -0.230084541148 -0.734862297317 2.59536593892 1.13437350736 -0.830381586066 1.28016612847 2.47132904435 0.870646538599 -1.88631551964
5.1398674807 1.48160028382 -0.230029665233 -0.734284021176 2.59652249121 1.13350727678 -0.831827102393 1.27967648649 2.47030397492 0.868943066748 -1.88599147853
5.15843424269 1.47980204226 -0.229972782756 -0.73370574553 2.5976790425 1.13264066019 -0.83327405253 1.27918165655 2.46928054747 0.867245394473 -1.88566504462
5.17700566498 1.47800334929 -0.229914738202 -0.733127436575 2.59883566041 1.13177427015 -0.83472155715 1.27868259291 2.46825825485 0.865552307088 -1.88533778894
5.19558179576 1.47620420035 -0.229855546505 -0.732549107956 2.59999231765 1.13090808164 -0.836169689314 1.27817926228 2.4672371533 0.863863920652 -1.88500955977
5.21416266454 1.47440459249 -0.229795213416 -0.731970762996 2.60114900757 1.13004211357 -0.837618438439 1.27767167889 2.46621724879 0.862180246819 -1.88468036599
5.2327483024 1.47260452278 -0.229733744709 -0.73139240504 2.60230572348 1.12917638471 -0.839067794083 1.27715985698 2.46519854722 0.860501297205 -1.88435021632
5.25133873732 1.47080398832 -0.229671146157 -0.730814037398 2.60346245876 1.12831091392 -0.840517745608 1.27664381097 2.46418105428 0.85882708301 -1.88401911984
5.26993278363 1.46900310427 -0.229608266656 -0.730235646235 2.60461924109 1.12744619757 -0.841967578693 1.2761243783 2.46316435783 0.857156578154 -1.88368831096
5.2885329261 1.46720162976 -0.229543437759 -0.729657279099 2.60577597536 1.12658126047 -0.843418777501 1.2755998852 2.46214934778 0.85549197463 -1.88335519363
5.3071379371 1.46539968356 -0.229477487328 -0.729078901925 2.60693272971 1.12571668147 -0.844870457346 1.27507125812 2.46113551223 0.853832031984 -1.88302131564
5.32574786481 1.46359726133 -0.229410430332 -0.728500528179 2.6080894772 1.12485243545 -0.846322690531 1.27453846521 2.46012290741 0.852176867872 -1.88268652691
5.34436273566 1.46179436032 -0.229342272667 -0.727922161098 2.60924621136 1.12398854095 -0.847775466521 1.27400152111 2.45911153888 0.850526492863 -1.88235083602
5.3629825776 1.45999097782 -0.229273020216 -0.727343803905 2.61040292575 1.12312501655 -0.849228774646 1.27346044062 2.45810141194 0.848880917127 -1.88201425191
5.3816074186 1.45818711114 -0.22920267886 -0.726765459786 2.61155961399 1.12226188087 -0.850682604054 1.27291523869 2.4570925317 0.847240150428 -1.88167678387
5.40023601707 1.4563828805 -0.229132080347 -0.72618711469 2.61271630418 1.12139959641 -0.852136235173 1.27236672619 2.4560844829 0.845603149056 -1.88133964475
5.41887095878 1.4545780356 -0.229059590833 -0.7256088162 2.61387290116 1.12053725498 -0.853591161657 1.27181328483 2.45507816068 0.843972139155 -1.88100028316
5.43751096482 1.4527727002 -0.22898602113 -0.725030530154 2.61502947325 1.11967540135 -0.855046494703 1.27125581273 2.45407304879 0.842345856696 -1.88066022257
5.45615607716 1.45096687018 -0.228911386236 -0.724452269861 2.61618599384 1.11881401013 -0.856502306087 1.2706942793 2.4530692036 0.840724421202 -1.88031931404
5.4748063222 1.44916054301 -0.228835692127 -0.723874038426 2.61734245671 1.11795309964 -0.857958585006 1.27012869971 2.45206663004 0.839107841719 -1.87997756647
5.49346172637 1.44735371619 -0.228758944755 -0.723295838932 2.6184988557 1.11709268824 -0.859415320466 1.26955908932 2.45106533271 0.837496126803 -1.87963498925
5.51212231453 1.44554638724 -0.228681150122 -0.722717674491 2.61965518458 1.11623279405 -0.860872501821 1.26898546332 2.4500653164 0.835889285324 -1.87929159103
5.53078679846 1.44373868108 -0.228603122423 -0.722139530938 2.62081147168 1.11537384567 -0.862329405099 1.26840860581 2.44906616302 0.834286257614 -1.87894856279
5.54945785094 1.44193033871 -0.228523263078 -0.721561455612 2.62196762233 1.11451500211 -0.863787531271 1.26782695447 2.44806877203 0.83268929991 -1.87860339934
5.56813414647 1.44012148851 -0.228442365495 -0.720983414425 2.62312370471 1.11365677371 -0.865245988769 1.26724137869 2.4470726234 0.831097126965 -1.87825759868
5.58681572543 1.43831212659 -0.228360444654 -0.720405420491 2.62427969258 1.11279913493 -0.866704848609 1.26665184918 2.44607777349 0.829509859831 -1.87791101341
5.60550261271 1.43650225064 -0.228277506581 -0.719827476782 2.62543557999 1.11194210378 -0.868164099759 1.26605838156 2.44508422659 0.827927506044 -1.8775636527
5.62419483004 1.43469185837 -0.228193557317 -0.719249586298 2.62659136096 1.11108569813 -0.869623731363 1.26546099144 2.4440919869 0.826350073164 -1.87721552546
5.6428924023 1.43288094752 -0.228108602895 -0.718671752002 2.62774702956 1.11022993586 -0.871083732421 1.26485969454 2.44310105851 0.824777568372 -1.87686664085
5.66159399308 1.43106964731 -0.228023439677 -0.718093959768 2.62890261402 1.10937521144 -0.872543375937 1.26425524772 2.44211102108 0.823208918432 -1.87651816668
5.68030236221 1.42925769081 -0.227936504867 -0.717516256435 2.63005802069 1.10852075109 -0.874004167987 1.26364614504 2.44112277754 0.821646405575 -1.87616764542
5.69901613599 1.42744521066 -0.227848574167 -0.716938608125 2.63121331731 1.10766703061 -0.875465215401 1.2630332269 2.44013580448 0.820088725455 -1.87581654891
5.71773535638 1.42563220318 -0.227759662507 -0.716361027741 2.63236847808 1.10681402429 -0.87692658839 1.26241646524 2.43915015823 0.818536000548 -1.87546473131
5.73646004203 1.42381866628 -0.227669775959 -0.71578351815 2.63352349726 1.1059617497 -0.878388275906 1.26179587599 2.43816584255 0.816988237164 -1.87511220166
5.75519021468 1.42200459788 -0.227578920592 -0.715206082226 2.63467836911 1.10511022431 -0.879850266963 1.2611714751 2.43718286109 0.815445441476 -1.87475896894
5.77392589766 1.42018999592 -0.227487102464 -0.71462872281 2.63583308794 1.10425946559 -0.88131255043 1.26054327864 2.43620121733 0.813907619265 -1.8744050424
5.79266571415 1.41837499359 -0.227395099861 -0.714051425925 2.63698768171 1.10340983395 -0.882774397354 1.25991201607 2.43522048914 0.812373685676 -1.87405156607
5.81141249391 1.41655931677 -0.227301386145 -0.713474237656 2.63814205825 1.10256062267 -0.88423731659 1.25927623808 2.43424158189 0.810845944703 -1.87369613162
5.83016482905 1.41474310193 -0.22720671911 -0.712897124497 2.63929628456 1.10171227286 -0.885700414833 1.25863675576 2.43326396946 0.809323075464 -1.8733401835
5.84892275376 1.41292634566 -0.227111113596 -0.712320099118 2.64045033532 1.10086475868 -0.887163761334 1.25799354229 2.43228770805 0.807805201594 -1.8729835777
5.8676862898 1.41110904606 -0.227014575686 -0.711743164269 2.64160420502 1.10001809725 -0.888627344995 1.25734661388 2.43131280089 0.806292328115 -1.87262632319
5.88645545427 1.40929120127 -0.226917111461 -0.711166322711 2.64275788814 1.09917230553 -0.890091154798 1.25669598672 2.43033925108 0.804784459939 -1.87226842886
5.90523026735 1.40747280945 -0.226818726974 -0.710589577161 2.64391137924 1.09832740056 -0.891555179489 1.25604167718 2.4293670615 0.803281601446 -1.87190990404
5.92400931496 1.40565400734 -0.22672018226 -0.710012913884 2.64506470579 1.09748370884 -0.893018689233 1.2553843872 2.4283958087 0.801782658103 -1.87155186847
5.94279549677 1.40383451437 -0.226619987096 -0.709436378004 2.64621777755 1.09664059032 -0.894483193463 1.25472272417 2.42742639952 0.800289951642 -1.87119196414
5.96196508403 1.40201447053 -0.226518881202 -0.708859936502 2.64737066055 1.09579845146 -0.895947799918 1.25405746975 2.42645830564 0.798802146806 -1.87083160751
5.98133225961 1.40019387262 -0.226416879314 -0.708283601819 2.64852332992 1.09495726628 -0.897412576976 1.25338859827 2.42549158319 0.797319368476 -1.8704706562
6.00089907785 1.39837271895 -0.226313987508 -0.707707376594 2.64967578037 1.09411705132 -0.898877513562 1.2527161261 2.42452623488 0.795841620485 -1.870109119
6.02066761482 1.39655100787 -0.226210211814 -0.707131263439 2.65082800668 1.09327782321 -0.900342598344 1.2520400698 2.4235622631 0.794368906037 -1.86974700526
6.0406399637 1.39472873774 -0.226105558297 -0.706555264986 2.65198000359 1.09243959828 -0.901807820305 1.25136044577 2.42259967036 0.792901228655 -1.86938432372
6.0608166746 1.39290604853 -0.226000768613 -0.70597936782 2.65313179792 1.09160266949 -0.903272449685 1.25067792852 2.42163803226 0.79143748588 -1.86902216955
6.08120303871 1.39108265391 -0.225894389082 -0.705403615909 2.65428330174 1.09076646282 -0.904737994266 1.24999118199 2.42067825612 0.789980013141 -1.86865823618
6.10179961702 1.38925869703 -0.22578714128 -0.704827976857 2.65543457984 1.08993135015 -0.906203564273 1.24930095829 2.41971981213 0.788527463381 -1.86829391101
6.12260860838 1.3874341749 -0.225679039783 -0.704252462832 2.65658560789 1.08909730551 -0.907669226895 1.24860723297 2.41876275612 0.787079962179 -1.86792905388
6.14363221629 1.38560908603 -0.225570090624 -0.703677076355 2.65773638085 1.08826434491 -0.909134971022 1.24791002257 2.41780709026 0.785637512091 -1.86756367349
6.16487267222 1.38378342898 -0.225460299813 -0.703101819944 2.65888689367 1.08743248427 -0.910600785491 1.24720934369 2.41685281652 0.784200115354 -1.86719777878
6.18633222476 1.38195720233 -0.225349673352 -0.7025266961 2.66003714136 1.08660173944 -0.912066659134 1.24650521296 2.41589993681 0.782767774026 -1.86683137865
6.20801143953 1.38013054887 -0.225238934497 -0.701951691826 2.66118714991 1.0857723701 -0.913531863545 1.24579827741 2.41494802637 0.781339379941 -1.86646554293
6.22991605374 1.37830317727 -0.225126666114 -0.701376849764 2.66233683403 1.08494386748 -0.914997902595 1.24508725722 2.41399799196 0.779917278189 -1.86609801745
6.25204664234 1.37647523345 -0.225013571596 -0.700802138234 2.66348625709 1.08411656917 -0.916463890185 1.24437287508 2.41304930286 0.778500112099 -1.86573016009
6.27440556736 1.37464671463 -0.22489966535 -0.70022756914 2.66463539528 1.08329044914 -0.917929892429 1.2436551076 2.41210201465 0.777088008068 -1.8653618326
6.29699520011 1.37281761953 -0.22478495334 -0.69965314488 2.6657842438 1.08246552282 -0.91939589815 1.24293397147 2.41115612894 0.775680967311 -1.86499304377
6.32027666861 1.37098794691 -0.224669441519 -0.699078867868 2.66693279782 1.0816418055 -0.920861896265 1.24220948334 2.41021164724 0.774278990972 -1.86462380223
6.34403360655 1.36915769554 -0.224553135829 -0.698504740497 2.66808105257 1.08081931238 -0.922327875684 1.24148165988 2.40926857098 0.772882080003 -1.86425411667
6.36827380079 1.36732701069 -0.224436741118 -0.697930750239 2.66922903308 1.07999827037 -0.923793110258 1.2407511209 2.40832647543 0.771489122145 -1.86388503152
6.39301106908 1.36549559675 -0.224318876698 -0.697356938271 2.67037665702 1.07917823499 -0.925259097827 1.24001664237 2.40738626585 0.770102468357 -1.86351434568
6.41825355882 1.36366360202 -0.224200227812 -0.696783273719 2.67152398612 1.07835950987 -0.92672495721 1.23927891759 2.40644741117 0.768720754631 -1.86314338694
6.44401162244 1.36183102394 -0.224080808672 -0.696209768216 2.67267099713 1.07754206892 -0.928190753391 1.23853792427 2.40550996674 0.767344108035 -1.86277201909
6.47029580351 1.35999786145 -0.223960625158 -0.695636424049 2.67381768546 1.07672592695 -0.929656475221 1.23779367914 2.40457393363 0.765972528601 -1.86240025074
6.4971168585 1.35816411347 -0.223839683135 -0.69506324351 2.67496404654 1.07591109861 -0.931122111606 1.23704619889 2.40363931284 0.764606016222 -1.86202809051
6.52475945775 1.356329779 -0.223717988459 -0.694490228888 2.67611007578 1.07509759844 -0.932587651535 1.23629550019 2.40270610533 0.763244570762 -1.86165554684
6.55324647235 1.35449500542 -0.223596227657 -0.693917368198 2.67725579716 1.0742856211 -0.934052372308 1.23554217581 2.40177388699 0.761887077919 -1.86128363824
6.58260848412 1.35265949349 -0.223473056263 -0.693344701019 2.67840113152 1.07347478522 -0.935517763513 1.23478505689 2.40084356049 0.760535890609 -1.86091021745
6.6128698839 1.35082339359 -0.22334914146 -0.692772197367 2.67954613882 1.07266536091 -0.936982950129 1.2340248076 2.3999145951 0.759189639775 -1.86053658165
6.64437014222 1.34898670336 -0.22322449724 -0.692199868595 2.68069079637 1.07185732209 -0.938447995955 1.23326140668 2.39898704583 0.757848452997 -1.8601625967
6.67715998789 1.34714942192 -0.223099129384 -0.691627716879 2.6818350998 1.07105068287 -0.939912889912 1.23249487082 2.39806091331 0.756512329196 -1.85978827106
6.71163355177 1.34531154841 -0.222973043649 -0.691055744402 2.68297904475 1.07024545723 -0.941377620944 1.23172521671 2.39713619804 0.755181267106 -1.85941361318
6.74823974154 1.34347308198 -0.222846245777 -0.690483953333 2.68412262689 1.06944165906 -0.942842178022 1.23095246104 2.39621290044 0.75385526533 -1.85903863151
6.78749600206 1.34163417182 -0.222719404106 -0.689912332293 2.68526586897 1.06863945136 -0.944305843075 1.23017716975 2.39529059761 0.752533209571 -1.85866431815
6.83002215108 1.33979451573 -0.222591210076 -0.68934091916 2.68640869524 1.06783851457 -0.945770095256 1.22939822844 2.39437018858 0.751217450877 -1.8582885803
6.87701263979 1.3379542658 -0.222462312958 -0.688769684915 2.68755116373 1.06703908578 -0.947234067016 1.22861627238 2.39345114368 0.749906617555 -1.8579126839
6.92997984747 1.33611341989 -0.22233272649 -0.688198640611 2.68869325234 1.06624113898 -0.948697820796 1.22783128135 2.39253351746 0.748600837326 -1.85753649722
6.99265808498 1.3342719773 -0.222202456324 -0.687627788308 2.68983495694 1.06544468761 -0.950161345515 1.22704327203 2.39161731002 0.747300107875 -1.85716002867
7.07460290133 1.33242993732 -0.222071508121 -0.68705713011 2.69097627334 1.06464974484 -0.951624630432 1.22625226092 2.39070252159 0.74600442728 -1.8567832861
7.22591223273 1.33058729933 -0.22193988748 -0.686486668056 2.69211719745 1.06385632391 -0.953087664425 1.22545826469 2.38978915201 0.744713792752 -1.85640627806
7.38754782601 1.33031012356 -0.226918411196 -0.68698448003 2.6911215735 1.06395807227 -0.953080513903 1.22511263968 2.3893574015 0.741358052392 -1.85464433784
7.47734962514 1.33003170772 -0.23191006244 -0.687482533887 2.69012546578 1.06411927985 -0.953096874869 1.22478020671 2.3889354016 0.737991862902 -1.85288165639
7.54793026438 1.32975191331 -0.236914362897 -0.687980939926 2.68912865371 1.06433694446 -0.953135676783 1.22445911424 2.38852415306 0.734617056159 -1.85111624379
7.60840391395 1.32947060634 -0.241930817793 -0.688479809627 2.68813091431 1.06460803091 -0.953195839344 1.22414756619 2.38812457285 0.731235428578 -1.84934624807
7.66238007892 1.3291876579 -0.24695892035 -0.688979254736 2.68713202409 1.06492949431 -0.953276280627 1.22384383174 2.38773749346 0.72784873088 -1.84756995914
7.71170560068 1.32890294465 -0.251998155986 -0.689479386478 2.6861317606 1.06529830137 -0.953375924575 1.22354625306 2.38736366368 0.724458659525 -1.84578581
7.75767353034 1.32861634909 -0.257048006166 -0.689980314836 2.68512990389 1.06571144979 -0.953493707739 1.22325325168 2.38700374996 0.72106684932 -1.84399237662
7.80056910389 1.32826723565 -0.262100265612 -0.690463349973 2.68416383361 1.06614265815 -0.95367746207 1.22293752842 2.38662761895 0.717631613312 -1.84217905106
7.84065556419 1.32791607552 -0.26716224635 -0.690947336762 2.68319586003 1.06661272852 -0.953877579794 1.22262363616 2.38626631334 0.714197282644 -1.8403543299
7.8788658802 1.32756277043 -0.272233441154 -0.691432377007 2.68222577955 1.06711885577 -0.954093066867 1.22231025096 2.38592027761 0.710765274935 -1.83851719163
7.91564834583 1.3272072284 -0.277313350702 -0.691918569307 2.68125339494 1.06765832061 -0.954322961224 1.22199613927 2.38558988629 0.707336930969 -1.8366667428
7.95105280724 1.32684936373 -0.282401485814 -0.692406008712 2.68027851613 1.06822849911 -0.954566336112 1.22168015816 2.38527544801 0.703913513241 -1.83480221219
7.98546835735 1.32648909692 -0.287497369294 -0.692894786448 2.67930096066 1.06882686997 -0.954822302602 1.22136125451 2.38497720967 0.70049620536 -1.83292294443
8.01891950358 1.32612635444 -0.292600537532 -0.693384989747 2.67832055406 1.06945102033 -0.955090011815 1.22103846338 2.38469536097 0.697086112664 -1.83102839265
8.05134186251 1.32570074056 -0.297696633727 -0.693858098886 2.67737433579 1.07006267581 -0.955410399899 1.22068009648 2.38439934843 0.693644580692 -1.82910994951
8.08255562304 1.32527256611 -0.302801972774 -0.694332366196 2.67642580117 1.07071208829 -0.955749341436 1.22032174298 2.38411935849 0.690207400481 -1.82717734207
8.11319085592 1.32484177708 -0.307913402928 -0.694808231809 2.67547406994 1.07138092334 -0.956097917043 1.21995714446 2.38385590021 0.686779956937 -1.82522862023
8.14325610634 1.32440832595 -0.313030561051 -0.695285763901 2.67451900576 1.07206737502 -0.956455500573 1.21958570657 2.38360897702 0.683363002148 -1.82326361883
8.17275975166 1.32397216604 -0.318153066225 -0.695765027972 2.67356047762 1.07276960697 -0.956821449344 1.2192068549 2.38337856455 0.679957277061 -1.82128222023
8.20171019567 1.32353325525 -0.32328055508 -0.696246085345 2.67259836287 1.0734858976 -0.957195162505 1.21882008407 2.3831646062 0.676563457097 -1.81928437339
8.23011586857 1.32309155577 -0.328412681401 -0.696728993286 2.67163254699 1.07421463622 -0.957576079509 1.21842495313 2.38296701678 0.673182155901 -1.81727008719
8.25789569903 1.3225870603 -0.333532617769 -0.697194860027 2.6707008135 1.07492675459 -0.958008258022 1.21799256109 2.38275434797 0.669771432847 -1.81523505062
8.2851592843 1.3220795939 -0.338658406587 -0.697662433015 2.66976566753 1.07565939059 -0.958453150568 1.2175542915 2.38255780684 0.666371986403 -1.81318385849
8.31217303422 1.32156929728 -0.343788012321 -0.698131935417 2.66882666272 1.07640053536 -0.958903984571 1.21710671638 2.38237712834 0.662986210521 -1.81111678473
8.33893788892 1.32105614917 -0.34892117901 -0.698603408166 2.66788371723 1.07714908202 -0.959360381019 1.21664963478 2.3822121517 0.659614474237 -1.80903402166
8.36545476679 1.32054012885 -0.354057643057 -0.699076889786 2.66693675399 1.07790392178 -0.959821957375 1.21618286047 2.38206270349 0.656257136391 -1.80693578434
8.39225270983 1.32002121833 -0.359197155789 -0.699552415576 2.66598570241 1.0786640345 -0.960288363074 1.21570624856 2.38192859871 0.65291451373 -1.80482231629
8.41933345224 1.3194994021 -0.364339482643 -0.700030017788 2.66503049798 1.07942848337 -0.960759277481 1.21521969163 2.38180964291 0.64958688431 -1.80269388534
8.44659340437 1.31891511795 -0.369464588056 -0.700490520985 2.66410949159 1.08017273939 -0.961279392345 1.21469517932 2.3816739962 0.646230440191 -1.80054935337
8.47414523408 1.31832768867 -0.374593282286 -0.700953030671 2.66318447222 1.08092709489 -0.961808807593 1.21416240832 2.38155328438 0.642888717639 -1.7983897018
8.50226357626 1.31773737028 -0.379724297774 -0.701417621599 2.66225529036 1.08168375961 -0.96234212962 1.21361960115 2.38144700198 0.639562248738 -1.79621623166
8.53095912524 1.31714415619 -0.384857465117 -0.701884314964 2.66132190363 1.08244213747 -0.962879157639 1.21306677695 2.38135494247 0.636251170434 -1.79402926934
8.5602427447 1.31654803999 -0.389992612019 -0.702353129922 2.66038427371 1.08320164014 -0.963419692489 1.21250396332 2.38127689602 0.632955613814 -1.79182914824
8.5901255392 1.31594901665 -0.395129576662 -0.702824083487 2.65944236658 1.08396173763 -0.963963555704 1.21193120879 2.38121265188 0.629675686628 -1.78961620889
8.62061886192 1.31534708243 -0.400268206985 -0.703297190678 2.6584961522 1.08472195399 -0.964510587895 1.21134858044 2.38116199928 0.626411475543 -1.78739079699
8.65159471213 1.31468311796 -0.405385297532 -0.703752999493 2.65758453457 1.08546254805 -0.965106474385 1.21072869238 2.38109307738 0.623117691501 -1.78515414424
8.68320663446 1.31401596607 -0.410504567494 -0.704210932676 2.65666866821 1.08620767373 -0.965709935621 1.21010013739 2.38103756073 0.61983997335 -1.78290458347
8.71578531958 1.31334594784 -0.41562523498 -0.70467097493 2.6557485837 1.0869521167 -0.966316372499 1.20946202204 2.3809949343 0.616577762974 -1.78064381634
8.74935961508 1.31267306379 -0.420747190284 -0.705133134709 2.65482426414 1.08769560704 -0.966925695203 1.20881446848 2.38096500223 0.613331075119 -1.77837218696
8.78395919372 1.31199731433 -0.425870322704 -0.705597418735 2.65389569609 1.08843788425 -0.967537817108 1.20815760299 2.38094757017 0.610099922506 -1.77609003829
8.81961464197 1.31131870055 -0.430994528199 -0.706063832417 2.65296286872 1.08917872291 -0.968152663698 1.20749156076 2.38094244698 0.606884306331 -1.77379771087
8.85672490481 1.31063722408 -0.436119708884 -0.706532379942 2.65202577367 1.08991792983 -0.968770171513 1.20681648459 2.38094944507 0.60368421756 -1.77149554204
8.89516744523 1.30989423992 -0.441219278362 -0.706983373309 2.65112378694 1.09063928471 -0.969436512505 1.2061050877 2.38093683879 0.600453433565 -1.76918666284
8.93210196989 1.30914809184 -0.446320188418 -0.7074364875 2.65021755856 1.09136268085 -0.970109735362 1.20538557451 2.3809362125 0.597238928888 -1.76686731097
8.96760123335 1.30839913716 -0.451421948006 -0.707891659625 2.64930721431 1.09208437115 -0.970785653645 1.20465749332 2.38094710956 0.594039525173 -1.76453930658
9.0020617207 1.30764737931 -0.456524485274 -0.708348890394 2.64839275277 1.09280427756 -0.971464239883 1.20392100324 2.38096936498 0.590855181079 -1.76220296258
9.03551335487 1.30689282149 -0.461627727908 -0.70880817899 2.64747417558 1.09352233019 -0.972145469878 1.20317626516 2.38100281716 0.587685855829 -1.75985858734
9.06798523364 1.30613546715 -0.466731607574 -0.709269523822 2.64655148592 1.09423847905 -0.972829325985 1.20242344263 2.38104730874 0.584531503671 -1.75750648352
9.09950565451 1.30537531999 -0.471836059602 -0.709732922582 2.6456246884 1.09495269224 -0.973515796478 1.20166270126 2.38110268657 0.581392074564 -1.75514694792
9.13022624607 1.30455425418 -0.476910982503 -0.710178480765 2.64473357203 1.0956514356 -0.974251196433 1.20086656054 2.38113742225 0.578220743755 -1.75278475555
9.16034658415 1.30373007714 -0.481986758905 -0.710626078932 2.64383837569 1.09635153917 -0.974993353296 1.20006323617 2.38118296741 0.575065359127 -1.75041434679
9.18987652393 1.30290316675 -0.487063066327 -0.711075635513 2.64293926253 1.09705003387 -0.975738268212 1.19925248159 2.38123892079 0.57192439025 -1.74803755322
9.21882735332 1.30207352731 -0.492139855694 -0.711527146626 2.64203624031 1.09774694774 -0.976485945261 1.19843446007 2.38130515111 0.568797775084 -1.74565464235
9.24721015512 1.30124116286 -0.497217077399 -0.711980606986 2.64112931959 1.09844231498 -0.977236391366 1.19760933557 2.38138153087 0.565685453692 -1.74326587626
9.27503581323 1.30040607749 -0.502294684098 -0.712436010863 2.64021851183 1.09913618048 -0.977989616677 1.19677727185 2.38146793648 0.562587364486 -1.7408715109
9.3023150204 1.29956827539 -0.507372630522 -0.712893352114 2.63930382933 1.09982859879 -0.978745634218 1.19593843218 2.38156424811 0.559503444564 -1.73847179617
9.32914672308 1.29867020237 -0.512417221444 -0.713332551031 2.6384254315 1.10050818414 -0.979550668397 1.19506498462 2.38163915681 0.556386465223 -1.7360730027
9.35571577184 1.29776908204 -0.517462383583 -0.713773660221 2.63754321312 1.1011894531 -0.980362610104 1.19418537476 2.38172397443 0.553284868393 -1.73366794756
9.38202356213 1.29686530444 -0.522507890933 -0.714216598716 2.63665733613 1.10186980618 -0.981177526633 1.19329944152 2.38181832847 0.550196919862 -1.73125844492
9.4080724746 1.2959588739 -0.52755370755 -0.714661359895 2.63576781377 1.10254932643 -0.981995435497 1.19240733803 2.38192211738 0.547122554041 -1.72884471783
9.43438329821 1.2950497945 -0.532599796661 -0.715107935819 2.63487466192 1.10322810108 -0.982816356462 1.19150921776 2.38203524314 0.544061708269 -1.72642698422
9.46095847732 1.29413807033 -0.537646122705 -0.715556318288 2.63397789698 1.10390622273 -0.983640310637 1.19060523283 2.38215761086 0.541014319772 -1.72400545658
9.48780048427 1.29322370547 -0.54269265122 -0.716006498873 2.63307753581 1.10458378879 -0.984467320287 1.18969553391 2.38228912865 0.53798032581 -1.72158034209
9.51471145879 1.29224977389 -0.547702052029 -0.716438228525 2.63221407651 1.10525121367 -0.985343353497 1.188751854 2.38239871499 0.534912213958 -1.71915930869
9.541893721 1.2912728626 -0.552711854269 -0.716871707154 2.63134711925 1.1059211711 -0.986226548202 1.18780298747 2.38251754407 0.531858846828 -1.71673366722
9.56962362915 1.29029336914 -0.557721888275 -0.71730686728 2.630476799 1.10659119703 -0.987112979909 1.18684880158 2.38264524234 0.528818367951 -1.7143052155
9.59791205468 1.28931129766 -0.562732125311 -0.7177437006 2.62960313236 1.1072614004 -0.988002669379 1.18588943439 2.38278173224 0.52579071544 -1.71187413849
9.62677007574 1.28832665208 -0.567742535447 -0.718182197532 2.6287261385 1.10793189264 -0.98889563903 1.18492502432 2.38292693918 0.522775830721 -1.70944061684
9.65620898646 1.2873394363 -0.572753089338 -0.718622348351 2.62784583686 1.10860278756 -0.989791911593 1.18395570811 2.3830807909 0.519773655709 -1.70700482672
9.68624030785 1.28634965427 -0.577763758157 -0.719064143198 2.62696224716 1.10927420105 -0.990691510023 1.18298162087 2.38324321739 0.516784132868 -1.70456693998
9.71662540235 1.28530106664 -0.582733560265 -0.719487176182 2.62611618119 1.10993811575 -0.991640020872 1.18197401602 2.38338336928 0.513759541798 -1.70213594598
9.74762303589 1.28424956846 -0.587703650574 -0.719911775472 2.62526698261 1.11060566401 -0.992595953003 1.18096210183 2.38353228445 0.510749052666 -1.6997017409
9.77956091866 1.28319556187 -0.592673895153 -0.720337895814 2.62441474193 1.11127438695 -0.993555369597 1.17994574894 2.38368956264 0.507750732568 -1.69726611583
9.81246740721 1.28213905088 -0.597644268918 -0.720765527791 2.62355947798 1.11194440339 -0.994518289145 1.17892507977 2.38385514475 0.50476452553 -1.6948292251
9.84637169412 1.28108003935 -0.602614745231 -0.721194660736 2.62270121209 1.11261583323 -0.995484731236 1.17790021727 2.38402897396 0.501790379008 -1.69239121966
9.88130384993 1.28001853114 -0.607585297671 -0.721625283901 2.62183996576 1.11328879718 -0.996454715235 1.17687128278 2.38421099515 0.49882824109 -1.6899522469
9.91765475619 1.27895453012 -0.612555899997 -0.722057386463 2.62097576063 1.11396341652 -0.997428260235 1.17583839608 2.3844011548 0.495878060515 -1.68751245081
9.95531785206 1.27783254316 -0.617481919037 -0.722470416215 2.62014970113 1.1146330801 -0.998450469381 1.17477230663 2.38456884132 0.492891959564 -1.68508207576
9.9913441638 1.27670771689 -0.622408136385 -0.722884814184 2.61932090519 1.11530757912 -0.999480311635 1.173702673 2.38474495396 0.489919336805 -1.6826496837
10.0259653812 1.27558045584 -0.627334444909 -0.723300563364 2.61848940683 1.11598439021 -1.00051383892 1.17262936032 2.38492904584 0.486958210286 -1.68021706872
10.0595688553 1.27445076411 -0.632260821081 -0.723717653515 2.61765522653 1.11666363361 -1.00155106457 1.17155247663 2.38512107158 0.484008529757 -1.67778436132
10.0921843365 1.27331864567 -0.637187239487 -0.724136073173 2.61681838721 1.11734542956 -1.00259200251 1.17047213069 2.38532098755 0.481070248338 -1.6753516895
10.1238407081 1.27218410455 -0.642113674716 -0.724555810825 2.61597891191 1.1180298982 -1.00363666617 1.16938842986 2.38552875122 0.47814331972 -1.67291917853
10.1545660175 1.27104714482 -0.647040101348 -0.724976854916 2.61513682373 1.11871715952 -1.00468506845 1.16830148012 2.38574432119 0.475227698164 -1.67048695101
10.1843907237 1.26985307927 -0.651918245895 -0.725378516442 2.61433350067 1.1194018882 -1.00578174036 1.16718151244 2.38593733151 0.472275385298 -1.66806644359
10.2136284362 1.26865624948 -0.656796502727 -0.725781336154 2.61352786125 1.12009267433 -1.00688618011 1.16605865694 2.38613853668 0.469335947906 -1.66564495943
10.2422902287 1.26745706035 -0.661674789486 -0.726185329484 2.61271987459 1.12078689532 -1.00799444185 1.16493277219 2.38634742833 0.466407373283 -1.66322430277
10.2703873081 1.26625551627 -0.666553082985 -0.726590485509 2.61190956254 1.12148466866 -1.0091065323 1.16380395369 2.38656397113 0.463489615659 -1.66080458595
10.2979306579 1.26505162161 -0.671431357848 -0.726996792099 2.61109694936 1.12218611089 -1.01022245832 1.16267229778 2.38678813098 0.460582632481 -1.65838591961
10.3249310516 1.26384538083 -0.676309588594 -0.727404237102 2.61028205935 1.1228913381 -1.01134222612 1.16153789966 2.38701987446 0.457686381615 -1.65596841225
10.3513990529 1.26263679844 -0.681187749616 -0.727812808338 2.60946491688 1.12360046578 -1.01246584129 1.16040085339 2.3872591689 0.454800821346 -1.65355217033
10.3778469663 1.26137205271 -0.686013946431 -0.728201689148 2.60868715526 1.12430935841 -1.0136371812 1.15923086157 2.38747590438 0.4518778618 -1.65114976103
10.4040331224 1.26010462399 -0.690840162097 -0.728591508236 2.60790751709 1.12502550946 -1.01481633088 1.15805853908 2.3877006812 0.448967188103 -1.64874730185
10.4299598118 1.25883491529 -0.695666341076 -0.728982316371 2.60712590082 1.12574618248 -1.01599936739 1.15688374063 2.38793291862 0.446066770918 -1.64634661153
10.4556294803 1.25756293158 -0.700492459828 -0.729374101994 2.60634232957 1.12647149026 -1.01718629016 1.15570655095 2.38817258856 0.443176567353 -1.64394778872
10.4815553834 1.2562886779 -0.705318492367 -0.729766852368 2.60555682882 1.127201544 -1.01837709828 1.1545270558 2.38841966368 0.440296537516 -1.64155093104
10.5077399342 1.25501215938 -0.710144412534 -0.730160554744 2.60476942407 1.12793645422 -1.01957179015 1.15334533998 2.38867411706 0.437426641765 -1.63915613448
10.5341855711 1.25373338127 -0.714970193992 -0.730555196356 2.60398014085 1.12867633069 -1.02077036353 1.15216148735 2.38893592219 0.434566840699 -1.63676349342
10.5605877672 1.25239944639 -0.719740346683 -0.730929842149 2.60323084926 1.12941814534 -1.02201596447 1.15094466434 2.38917523806 0.431668978498 -1.63438664345
10.5875201474 1.25106291843 -0.724510410924 -0.731305197699 2.60248013816 1.13016837898 -1.02326931564 1.14972597954 2.38942249867 0.428782813911 -1.63201058847
10.6149932181 1.24972419598 -0.729280362427 -0.731681351059 2.60172783144 1.13092417794 -1.02452654201 1.14850528814 2.38967704288 0.425906313475 -1.62963716376
10.6430176937 1.24838328485 -0.734050176923 -0.732058290039 2.60097395348 1.13168564968 -1.02578763533 1.14728266575 2.38993884773 0.423039435539 -1.6272664577
10.6716044784 1.24704019101 -0.738819827465 -0.732436001309 2.60021853094 1.13245289954 -1.02705258664 1.14605818907 2.39020789063 0.420182141197 -1.62489855827
10.700764689 1.24569492056 -0.743589286904 -0.732814471525 2.59946159051 1.13322603207 -1.02832138627 1.14483193405 2.3904841492 0.417334391627 -1.62253355213
10.7305096587 1.2443474797 -0.748358527889 -0.733193687338 2.59870315888 1.13400515107 -1.02959402386 1.1436039759 2.39076760125 0.414496148086 -1.62017152468
10.7604753893 1.24294595424 -0.753068495058 -0.733552605031 2.5979853235 1.13478826064 -1.03091283841 1.14234293777 2.39102868986 0.411619213285 -1.6178271168
10.7910420462 1.2415419368 -0.757778248956 -0.73391199619 2.59726654118 1.1355809014 -1.032239237 1.14108042872 2.39129766864 0.408753376856 -1.61548429016
10.8225335635 1.24013581866 -0.762487802374 -0.734271987349 2.59654655886 1.13638010559 -1.03356942015 1.13981630939 2.39157378978 0.405896613362 -1.61314489717
10.8549777508 1.2387276067 -0.767197130118 -0.734632565675 2.59582540221 1.13718597529 -1.03490337178 1.1385506476 2.3918570339 0.403048880863 -1.61080901856
10.8884032288 1.23731730807 -0.771906204111 -0.73499371723 2.5951030991 1.13799861004 -1.03624107469 1.13728351232 2.39214738171 0.400210139899 -1.60847673512
10.9231838306 1.23590493009 -0.776614996065 -0.735355428067 2.59437967742 1.13881810856 -1.03758251097 1.13601497195 2.39244481396 0.397380350941 -1.60614812659
10.9593742787 1.23449048022 -0.781323477481 -0.735717684237 2.59365516508 1.13964456879 -1.03892766201 1.13474509423 2.39274931145 0.394559474394 -1.6038232717
10.9968421763 1.23302308469 -0.785969061993 -0.736059343874 2.59297184581 1.14047695467 -1.04031798495 1.13344195228 2.39303161895 0.391699296691 -1.60151775188
11.0325464342 1.23155331203 -0.790614288843 -0.736401233542 2.59228806647 1.14131993308 -1.0417156154 1.1321376611 2.39332179377 0.388849595492 -1.59921455774
11.0668553007 1.2300815428 -0.795259214546 -0.736743518847 2.59160349586 1.14217042914 -1.04311685892 1.13083209192 2.39361899624 0.386008365746 -1.59691555863
11.0998231238 1.22860778521 -0.799903812895 -0.737086186287 2.59091816098 1.14302853975 -1.04452169148 1.12952530587 2.39392320947 0.383175563876 -1.59462082956
11.1318189116 1.22713204785 -0.804548054611 -0.737429221298 2.59023209096 1.14389435889 -1.04593008748 1.12821736526 2.39423441645 0.380351148507 -1.59233044592
11.1628711246 1.22565433949 -0.809191910208 -0.737772609309 2.58954531494 1.14476797978 -1.04734202063 1.12690833192 2.39455260011 0.377535078073 -1.59004448227
11.1930073985 1.22417466909 -0.813835349994 -0.738116335752 2.58885786205 1.14564949484 -1.04875746398 1.12559826715 2.3948777433 0.374727310812 -1.58776301231
11.222712113 1.22264325969 -0.818412294365 -0.738439172185 2.58821218919 1.14653875531 -1.05021691842 1.12425468745 2.39518091241 0.371879644162 -1.58550249134
11.2518282007 1.2211096042 -0.822988715948 -0.738761988616 2.58756655633 1.14743961864 -1.0516832903 1.12291021849 2.39549195108 0.369041799371 -1.58324501
11.2803679954 1.21957406863 -0.827564722108 -0.739084989785 2.58692055399 1.14834891198 -1.05315302114 1.12156474711 2.395809923 0.366211804533 -1.58099245434
11.3083427367 1.21803666272 -0.832140285586 -0.739408161503 2.58627421055 1.1492667273 -1.05462607875 1.12021832862 2.39613481308 0.363389613276 -1.57874489498
11.3357634298 1.21649739675 -0.836715375884 -0.739731488558 2.58562755644 1.15019315335 -1.056102429 1.1188710195 2.39646660588 0.360575181167 -1.5765024032
11.3626408653 1.21495628118 -0.841289962309 -0.740054955741 2.58498062208 1.15112827813 -1.05758203707 1.11752287585 2.39680528588 0.357768463473 -1.57426504954
11.3889856304 1.2134133267 -0.845864013967 -0.740378547841 2.58433343788 1.15207218885 -1.05906486747 1.11617395332 2.39715083741 0.354969415168 -1.5720329038
11.4154482551 1.21181990824 -0.850367998875 -0.740680962739 2.58372860808 1.1530255495 -1.0605903909 1.11479120561 2.39747467084 0.352129875242 -1.56982322608
11.4413853777 1.2102243933 -0.854871274417 -0.740983101537 2.58312433048 1.15399147231 -1.06212232494 1.11340777317 2.39780639725 0.349299461389 -1.56761727835
11.4665566513 1.20862712899 -0.859374006221 -0.74128520773 2.5825201181 1.15496669726 -1.06365727912 1.11202356321 2.39814497906 0.346476247977 -1.56541696355
11.4912288182 1.20702812682 -0.863876165961 -0.741587266417 2.58191600072 1.15595131153 -1.06519521292 1.11063862588 2.39849040243 0.343660184891 -1.56322234881
11.5161443654 1.20542739897 -0.868377721928 -0.741889261732 2.5813120101 1.15694539889 -1.06673608348 1.10925301255 2.39884265316 0.340851223697 -1.56103350208
11.5413055135 1.20382495785 -0.872878642229 -0.74219117781 2.58070817794 1.15794904229 -1.06827984723 1.10786677421 2.39920171688 0.338049315591 -1.55885049066
11.5667145031 1.20222081606 -0.87737889478 -0.742492998792 2.58010453598 1.15896232393 -1.06982645994 1.10647996153 2.39956757902 0.335254411393 -1.55667338115
11.5919578227 1.20056755395 -0.88180553888 -0.742773363341 2.57954380688 1.1599866424 -1.07141428857 1.10505896002 2.39991201887 0.332418426547 -1.55452016645
11.6177031952 1.19891236582 -0.886231265068 -0.743053190232 2.5789841531 1.16102443053 -1.07300790085 1.10363742837 2.40026439467 0.329590824436 -1.55237135172
11.6439619753 1.19725557502 -0.890656304813 -0.743332760908 2.57842501174 1.1620723531 -1.0746041074 1.10221529845 2.40062356252 0.326769739051 -1.55022885786
11.670744225 1.19559719507 -0.895080628718 -0.743612059756 2.57786641405 1.1631304926 -1.07620285914 1.10079261586 2.40098950966 0.323955115779 -1.54809274898
11.6980601722 1.19393724027 -0.89950420387 -0.743891070251 2.57730839306 1.16419892782 -1.07780410419 1.09936942736 2.40136222287 0.321146901474 -1.54596309013
11.7259202458 1.19227572514 -0.903926997188 -0.744169775874 2.57675098181 1.16527773674 -1.07940779 1.09794577946 2.40174168878 0.31834504256 -1.54383994575
11.7543350699 1.19061266445 -0.908348975412 -0.744448160113 2.57619421333 1.16636699658 -1.08101386333 1.09652171836 2.4021278938 0.315549485034 -1.54172337959
11.7828155237 1.18890189568 -0.912693835386 -0.744704818724 2.57568089611 1.16746875758 -1.08265951467 1.09506305717 2.40249301365 0.312712261098 -1.53963204209
11.8118607511 1.18718939428 -0.917037546469 -0.744960673337 2.57516918688 1.1685848416 -1.08431019901 1.09360397561 2.40286613188 0.309882624654 -1.53754575423
11.8417802656 1.1854754546 -0.921380413639 -0.745216042186 2.57465844919 1.16971185149 -1.08596296207 1.09214443387 2.40324599284 0.307058782647 -1.53546645708
11.8726001641 1.1837600923 -0.925722406417 -0.745470908955 2.57414871565 1.17084986486 -1.08761774589 1.09068447349 2.40363258474 0.30424067543 -1.53339421192
11.9043472913 1.18204332401 -0.930063490694 -0.745725256472 2.57364002062 1.17199895539 -1.08927448933 1.08922413717 2.40402589535 0.301428244642 -1.53132908101
11.9370492857 1.18032516658 -0.934403632204 -0.745979067576 2.57313239841 1.17315919596 -1.09093313056 1.08776346737 2.40442591224 0.298621431463 -1.52927112595
11.9710714509 1.17860563714 -0.938742796516 -0.746232325118 2.57262588332 1.1743306586 -1.09259360703 1.08630250633 2.40483262282 0.295820176614 -1.52722040771
12.0057369249 1.17683987993 -0.943001366746 -0.74646360035 2.57216333286 1.17551595666 -1.09429186124 1.08480649232 2.40521862952 0.292976675803 -1.52519615525
12.0391161744 1.17507260836 -0.947258534159 -0.74669380129 2.57170293098 1.17671637273 -1.09599427049 1.08331012794 2.4056127177 0.290139913147 -1.52317757912
12.0711853181 1.173304082 -0.951514684977 -0.746923281465 2.57124397063 1.1779284623 -1.09769815044 1.0818134046 2.40601351388 0.287308181576 -1.52116664425
12.1023036456 1.17153431887 -0.955769787612 -0.747152023887 2.57078648578 1.17915229776 -1.09940343397 1.08031636022 2.4064210073 0.284481416084 -1.51916340893
12.1324990987 1.16976333806 -0.960023806753 -0.747380010768 2.57033051202 1.18038794734 -1.10111005037 1.0788190339 2.40683518678 0.281659552827 -1.51716793242
12.1617987985 1.16799115896 -0.96427670694 -0.747607224339 2.56987608488 1.18163547838 -1.1028179282 1.07732146456 2.407256041 0.278842527491 -1.5151802733
12.1902290783 1.1662178012 -0.968528452564 -0.747833646847 2.56942323986 1.18289495736 -1.10452699533 1.07582369092 2.40768355842 0.276030275307 -1.51320048943
12.2183761297 1.16439976308 -0.972696164109 -0.748037845827 2.5690148419 1.18416946576 -1.10627187651 1.07429037626 2.40809080129 0.273175209709 -1.51124830529
12.2456843648 1.16258045539 -0.976862195394 -0.748240697242 2.56860913907 1.18545982242 -1.10801990411 1.07275674689 2.40850623141 0.270325978934 -1.50930239609
12.2724467767 1.16076009678 -0.981027021632 -0.748442588133 2.56820535729 1.18676255155 -1.10976869923 1.07122282724 2.40892835079 0.267480974291 -1.50736475588
12.2986740659 1.15893870774 -0.985190610088 -0.748643500894 2.56780353177 1.18807771978 -1.11151818529 1.06968865206 2.40935714986 0.264640125324 -1.50543543958
12.3243767062 1.15711631 -0.989352924225 -0.748843417177 2.56740369921 1.18940538926 -1.1132682817 1.06815425736 2.40979261867 0.26180336267 -1.50351450298
12.3495649661 1.15529292561 -0.993513927372 -0.749042318656 2.56700589625 1.19074562118 -1.11501890715 1.06661967899 2.41023474714 0.25897061652 -1.50160200113
12.3740045248 1.15346857684 -0.99767358272 -0.749240187035 2.56661015949 1.19209847579 -1.11676997962 1.06508495267 2.41068352504 0.256141816632 -1.49969798828
12.3986553358 1.15160116069 -1.00174580154 -0.749415609577 2.5662593144 1.19346740092 -1.1185547389 1.06351416942 2.41111251023 0.253269656927 -1.497822597
12.4228086687 1.14973274757 -1.00581603851 -0.749589409481 2.5659117146 1.19485283104 -1.12034150248 1.0619430788 2.41154981372 0.250402377226 -1.49595404378
12.4464778844 1.14786350872 -1.00988486555 -0.749762005272 2.56556652301 1.19625127711 -1.12212823288 1.06037173876 2.41199380563 0.247538478625 -1.49409435894
12.4703753091 1.1459934672 -1.01395224874 -0.74993337881 2.56522377594 1.19766279911 -1.12391484379 1.05880018137 2.4124444778 0.244677885363 -1.49224359334
12.4945029147 1.1441226475 -1.01801815028 -0.750103511264 2.56488351103 1.1990874523 -1.1257012445 1.05722844006 2.41290182174 0.241820522783 -1.49040179859
12.5188626888 1.1422510744 -1.02208253225 -0.750272383841 2.56454576588 1.20052529083 -1.12748734358 1.05565654817 2.41336582886 0.238966315829 -1.48856902544
12.5437025724 1.14037877296 -1.0261453566 -0.750439977783 2.56421057799 1.20197636781 -1.1292730489 1.05408453895 2.41383649044 0.236115189063 -1.48674532377
12.568475434 1.13846508043 -1.03011738117 -0.750584926478 2.5639206806 1.2034443883 -1.1310901514 1.05247593748 2.41428789862 0.233220189224 -1.48495114219
12.5937315442 1.13655069218 -1.03408709748 -0.750727977065 2.56363457943 1.204929486 -1.13290798073 1.05086701461 2.41474778407 0.230329068146 -1.48316431698
12.6194847113 1.1346357253 -1.03805518185 -0.750869577315 2.56335137893 1.20642817858 -1.13472487695 1.04925786064 2.41521437723 0.227440446743 -1.48138692368
12.6457444782 1.13272020546 -1.04202159909 -0.751009708674 2.56307111621 1.20794051838 -1.13654074386 1.04764850552 2.41568767156 0.224554244358 -1.47961900816
12.6725205446 1.13080415995 -1.0459863101 -0.751148351944 2.56279382967 1.20946655261 -1.13835548048 1.0460389807 2.41616766028 0.221670381527 -1.47786061689
12.6998227845 1.12888761637 -1.04994927569 -0.751285487977 2.56251955761 1.21100632728 -1.14016898512 1.04442931761 2.41665433653 0.218788778468 -1.47611179535
12.7276612565 1.12697060256 -1.05391045653 -0.751421097674 2.56224833821 1.21255988718 -1.14198115537 1.04281954768 2.41714769334 0.215909355099 -1.47437258803
12.7554385105 1.12501393428 -1.05777751514 -0.75153389017 2.56202275322 1.21413107814 -1.14382227378 1.04117264055 2.41762239846 0.212985593883 -1.47266366286
12.784062789 1.12305690047 -1.06164191367 -0.751644510354 2.56180151285 1.21571982055 -1.14566270577 1.03952538458 2.41810577029 0.210064671498 -1.47096255636
12.8135590779 1.12109955709 -1.06550444041 -0.751753432847 2.56158366786 1.21732266123 -1.14750120489 1.03787789937 2.41859589138 0.207145336936 -1.46927140011
12.8439534992 1.11914193244 -1.0693650588 -0.751860638837 2.56136925589 1.21893964359 -1.149337665 1.03623021335 2.41909275708 0.204227505322 -1.46759023386
12.8755861155 1.11718405662 -1.07322372842 -0.751966108906 2.56115831575 1.22057080545 -1.15117197482 1.0345823567 2.41959636256 0.201311093158 -1.46591909775
12.9085068539 1.11522596 -1.07708040874 -0.752069823706 2.56095088615 1.22221618325 -1.15300402242 1.03293435965 2.4201067029 0.198396016741 -1.4642580308
12.9431102412 1.11326767321 -1.08093505914 -0.752171763955 2.56074700565 1.22387581208 -1.15483369518 1.03128625249 2.42062377312 0.19548219218 -1.46260707089
12.9784557177 1.11127152499 -1.08469230751 -0.752250747669 2.56058903822 1.22555355478 -1.15668971296 1.02960046482 2.42112286035 0.192523632104 -1.46098700393
13.0120163197 1.10927536985 -1.08844651813 -0.752327288074 2.56043595741 1.22724920957 -1.15854349691 1.02791429664 2.42163083615 0.189566842734 -1.45937514912
13.0442677049 1.10727919571 -1.09219859861 -0.752401884141 2.56028676528 1.22895937754 -1.16039424928 1.02622789154 2.42214562696 0.186610707233 -1.45777370681
13.0752604699 1.1052830334 -1.09594851096 -0.752474516995 2.56014149957 1.23068409163 -1.16224185415 1.02454127713 2.42266723022 0.183655137468 -1.45618270923
13.1050432411 1.10328691574 -1.09969621339 -0.752545167192 2.56000019917 1.23242337869 -1.16408619017 1.02285448313 2.42319564319 0.180700046974 -1.45460218886
13.1339489809 1.10129087579 -1.10344166404 -0.752613815376 2.55986290281 1.234177264 -1.16592713535 1.02116753936 2.4237308631 0.177745349219 -1.45303217684
13.1634340845 1.09929494684 -1.10718482096 -0.752680442282 2.55972964899 1.23594577131 -1.1677645671 1.01948047579 2.4242728871 0.174790957631 -1.45147270303
13.1931540541 1.09726300097 -1.11082734077 -0.752724011699 2.55964251016 1.2377326498 -1.16962559485 1.01775520279 2.42479766781 0.17179152185 -1.44994456562
13.2240750078 1.09523143389 -1.11446641923 -0.752764872273 2.55956078901 1.23953766986 -1.17148271146 1.01602952374 2.42533159242 0.168792773711 -1.44842495102
13.2562468539 1.09320015865 -1.11810309024 -0.752803544759 2.55948344404 1.24135751485 -1.17333560176 1.01430359839 2.42587242331 0.165793734099 -1.44691614271
13.2900543776 1.09116920847 -1.12173731435 -0.752840010465 2.55941051263 1.24319220561 -1.17518414048 1.01257745433 2.42642016013 0.162794312871 -1.44541816392
13.3255801189 1.08913861868 -1.12536904843 -0.752874250153 2.55934203325 1.24504175618 -1.17702819664 1.01085112168 2.42697480236 0.159794421947 -1.44393103788
13.3632840558 1.08710842483 -1.12899824926 -0.752906244699 2.55927804416 1.24690617889 -1.17886763871 1.00912463076 2.42753634943 0.156793973355 -1.44245478635
13.4036991835 1.08507866269 -1.13262487357 -0.752935975098 2.55921858336 1.24878548431 -1.18070233466 1.00739801213 2.42810480072 0.153792879256 -1.44098942958
13.4465667828 1.08301477356 -1.13614767306 -0.75294259179 2.55920534998 1.25068317112 -1.18255774343 1.00563268382 2.42865682231 0.150746546267 -1.43955566849
13.4860428237 1.08095167361 -1.13966660202 -0.752946242133 2.55919804929 1.25259907883 -1.18440744133 1.00386694146 2.42921827642 0.147699818861 -1.43813064315
13.5228517562 1.0788891946 -1.14318282719 -0.752947466098 2.55919560136 1.25453000415 -1.18625162769 1.00210095039 2.42978675409 0.144651856297 -1.43671673608
13.5589239283 1.07682737183 -1.14669630764 -0.752946245466 2.55919804263 1.25647595393 -1.18809016859 1.00033473903 2.43036225722 0.141602567951 -1.43531395983
13.5972023789 1.07476624286 -1.15020699893 -0.752942561485 2.55920541059 1.25843692755 -1.18992292422 0.998568338881 2.43094478748 0.138551865761 -1.43392232676
13.6386377457 1.07270584543 -1.15371485657 -0.752936395545 2.55921774247 1.26041292242 -1.19174975436 0.996801781762 2.43153434647 0.135499661976 -1.43254184754
13.6839380719 1.07064621746 -1.15721983602 -0.752927729187 2.55923507518 1.26240393401 -1.19357051841 0.995035099784 2.4321309357 0.132445869182 -1.43117253118
13.7336123864 1.06855439055 -1.16061785364 -0.752895944543 2.55929864447 1.26441306842 -1.19540899368 0.993229252058 2.43271198435 0.129346784597 -1.4298348688
13.7786880405 1.06646378431 -1.16401154705 -0.752860946953 2.55936863965 1.26644033309 -1.19723984744 0.991423012065 2.43330278563 0.126246242934 -1.42850604209
13.8202954314 1.06437414337 -1.16740222171 -0.75282329308 2.5594439474 1.26848267225 -1.19906382246 0.989616537264 2.43390075315 0.123143539301 -1.42718854982
13.8598644469 1.0622855047 -1.17078983525 -0.752782965513 2.55952460253 1.27054007691 -1.20088077728 0.987809857817 2.43450589097 0.120038584377 -1.42588239214
13.9022666308 1.06019790769 -1.17417434204 -0.752739946306 2.55961064095 1.27261252977 -1.20269056445 0.986003007643 2.43511820278 0.116931292001 -1.4245875688
13.9481583406 1.05811139182 -1.17755569642 -0.752694217693 2.55970209817 1.27470001137 -1.20449303632 0.984196021055 2.43573769214 0.113821576551 -1.42330407772
13.9987588394 1.05602599669 -1.18093385275 -0.752645762094 2.55979900937 1.27680250009 -1.20628804502 0.982388932766 2.43636436254 0.110709352971 -1.42203191492
14.045276272 1.05391036027 -1.18420196527 -0.752574242629 2.5599420483 1.27892256361 -1.2080976652 0.980542283343 2.43697645684 0.107551956655 -1.42079124731
14.0882140913 1.05179639222 -1.18746527743 -0.752499277698 2.56009197816 1.28106047706 -1.20989765825 0.978695305912 2.43759865176 0.104392080446 -1.41955938735
14.1315541904 1.04968374505 -1.19072523835 -0.752421438224 2.56024765711 1.28321336939 -1.21168933548 0.976848133587 2.43822817908 0.101229149408 -1.41833896817
14.1789241267 1.04757245691 -1.19398180433 -0.75234070798 2.5604091176 1.28538121391 -1.21347254943 0.975000799219 2.43886504478 0.0980630775139 -1.41712997575
14.2312153179 1.04546256844 -1.19723492877 -0.75225707019 2.56057639318 1.28756397474 -1.21524714667 0.973153340168 2.43950925422 0.0948937825916 -1.41593239557
14.2908782169 1.0433541203 -1.20048456509 -0.752170508296 2.56074951697 1.28976161362 -1.2170129738 0.971305794284 2.4401608126 0.0917211832518 -1.41474621111
14.3430970048 1.04124715319 -1.20373066675 -0.752081005964 2.56092852163 1.29197408995 -1.21876987744 0.969458199899 2.44081972495 0.0885451989145 -1.41357140376
14.4003139729 1.03911192213 -1.20686370314 -0.751968560891 2.56115341178 1.29420328513 -1.2205382198 0.967570726687 2.44146509901 0.0853243646695 -1.41242770138
14.4506147156 1.03697881713 -1.20999144373 -0.751852455317 2.56138562292 1.29644984172 -1.22229485533 0.965683044749 2.44212094393 0.0821000894874 -1.41129263689
14.4999122553 1.03484739476 -1.21311548501 -0.75173327213 2.5616239893 1.2987111133 -1.22404168406 0.963795243547 2.4427843075 0.0788719190337 -1.41016899627
14.5449260574 1.03271769366 -1.21623578221 -0.751610996691 2.56186854018 1.30098705385 -1.22577855449 0.961907359516 2.44345519722 0.0756397727192 -1.40905674969
14.59411625 1.03058975503 -1.21935228807 -0.751485613788 2.56211930598 1.30327760714 -1.22750530939 0.960019434448 2.44413361962 0.0724035745794 -1.40795586682
14.6489351613 1.02846418275 -1.22246320232 -0.751356497907 2.56237753774 1.30558510424 -1.22921937588 0.958131549985 2.44482261766 0.0691635968341 -1.4068634174
14.7126126408 1.02633990715 -1.22557196864 -0.751224849287 2.56264083498 1.30790468109 -1.23092537796 0.956243684538 2.44551613011 0.0659190464687 -1.4057851529
14.7679988634 1.0241898665 -1.2285631705 -0.751069926161 2.56295068124 1.31024175246 -1.23263728192 0.954315749674 2.44619990721 0.0626304219111 -1.40473478935
14.8171621244 1.0220418251 -1.2315503627 -0.750911756644 2.56326702027 1.31259317567 -1.23433802052 0.952387762593 2.44689139947 0.0593372003016 -1.40369573771
14.8620004634 1.01989582417 -1.23453349749 -0.75075032692 2.56358987972 1.31495887794 -1.23602743428 0.95045976915 2.44759061439 0.0560393116605 -1.40266795521
14.9077679299 1.0177519048 -1.23751252725 -0.750585623464 2.56391928663 1.31733878385 -1.23770536422 0.948531815817 2.44829755919 0.0527366872257 -1.40165139675
14.958273636 1.01561010795 -1.24048740452 -0.750417633033 2.56425526749 1.31973281544 -1.23937165189 0.94660394969 2.44901224086 0.0494292594812 -1.40064601485
15.0155765347 1.01347047441 -1.24345808199 -0.750246342696 2.56459784817 1.32214089211 -1.24102613945 0.944676218479 2.44973466603 0.0461169621909 -1.39965175977
15.0659792571 1.01133304481 -1.24642451252 -0.750071739825 2.56494705391 1.32456293063 -1.24266866975 0.942748670505 2.45046484102 0.0427997304232 -1.39866857939
15.1191313542 1.00917199994 -1.24927011832 -0.749874050521 2.56534243252 1.32700098492 -1.24431299701 0.940781039793 2.45118703925 0.0394392457187 -1.39771181658
15.1670852881 1.00701330978 -1.25211134449 -0.749672951192 2.56574463117 1.32945277691 -1.24594462275 0.93881352319 2.45191716365 0.0360734749277 -1.39676608676
15.2108828323 1.00485701461 -1.2549481435 -0.749468430325 2.56615367291 1.33191821125 -1.24756338856 0.93684617246 2.45265522158 0.0327023582502 -1.39583132915
15.2568625114 1.00270315445 -1.25778046802 -0.749260476752 2.56656958006 1.33439718989 -1.24916913696 0.934879040006 2.45340121996 0.0293258373444 -1.39490748064
15.3075087105 1.00055176908 -1.26060827095 -0.749049079621 2.56699237432 1.33688961218 -1.25076171134 0.9329121789 2.45415516538 0.0259438553407 -1.3939944756
15.3533818831 0.998402898022 -1.26343150544 -0.74883422845 2.56742207666 1.33939537477 -1.25234095615 0.930945642837 2.45491706393 0.0225563568882 -1.39309224611
15.3952757113 0.996256580477 -1.26625012492 -0.748615913086 2.56785870739 1.34191437171 -1.25390671685 0.928979486164 2.45568692133 0.0191632881577 -1.39220072177
15.4406856643 0.994088710175 -1.2689449828 -0.748374875465 2.56834078263 1.34444716033 -1.25547047882 0.926973381525 2.45645019573 0.0157280323868 -1.39133425753
15.4829475511 0.991923536137 -1.27163508718 -0.748130290276 2.56882995301 1.3469928748 -1.257020017 0.924967616006 2.45722160965 0.0122869083152 -1.39047839687
15.5227098753 0.989761096715 -1.2743203914 -0.747882148726 2.56932623611 1.34955139675 -1.25855517745 0.922962247748 2.45800116931 0.00883986838711 -1.38963306041
15.5601197559 0.98760142989 -1.27700084912 -0.747630442402 2.56982964875 1.35212260516 -1.26007580761 0.92095733554 2.45878888036 0.00538686670821 -1.3887981664
15.5956676597 0.985444573268 -1.27967641436 -0.747375163261 2.57034020704 1.35470637639 -1.26158175618 0.918952938823 2.45958474802 0.00192785906464 -1.38797363058
15.6308171375 0.983290564056 -1.28234704145 -0.747116303648 2.57085792626 1.35730258418 -1.26307287332 0.916949117669 2.46038877693 -0.00153719705154 -1.38715936632
15.6677101281 0.98113943905 -1.28501268508 -0.746853856293 2.57138282097 1.35991109971 -1.26454901063 0.914945932769 2.46120097117 -0.00500834242413 -1.38635528455
15.7068369598 0.978968789986 -1.28755173357 -0.746569149552 2.57195223445 1.36253080836 -1.26601943998 0.912903098838 2.46200800755 -0.00852026006356 -1.38557464347
15.7486196461 0.976801156616 -1.29008565708 -0.746280787339 2.57252895888 1.36516243237 -1.26747416705 0.910860892056 2.46282339062 -0.0120385049131 -1.38480402339
15.787637123 0.974636574326 -1.29261441067 -0.745988763962 2.57311300564 1.36780583065 -1.26891304613 0.908819377099 2.46364712438 -0.0155631105022 -1.38404332626
15.8247079853 0.972475078019 -1.29513794982 -0.745693074131 2.5737043853 1.37046085958 -1.27033593316 0.906778619267 2.46447921225 -0.0190941085492 -1.38329245161
15.8599287212 0.97031670209 -1.29765623044 -0.745393712977 2.5743031076 1.37312737307 -1.27174268591 0.904738684443 2.465319657 -0.0226315289225 -1.38255129661
15.8937256921 0.968161480416 -1.30016920891 -0.745090676043 2.57490918147 1.37580522255 -1.27313316396 0.902699639099 2.46616846074 -0.0261753996389 -1.38181975601
15.9284952453 0.966009446347 -1.30267684207 -0.74478395928 2.575522615 1.37849425703 -1.27450722873 0.900661550285 2.46702562499 -0.0297257468552 -1.3810977222
15.9645167258 0.96383986782 -1.30505516611 -0.74445555035 2.57617943286 1.38119152863 -1.27587201657 0.898584284193 2.46787907204 -0.0333150789289 -1.38039726321
15.9988267143 0.961673593923 -1.30742800344 -0.744123410826 2.57684371191 1.38389951206 -1.27721969918 0.896507997873 2.4687410577 -0.0369110601895 -1.37970609157
16.0317471635 0.959510656062 -1.30979531173 -0.743787538436 2.57751545669 1.38661804469 -1.27855014278 0.894432762333 2.46961158275 -0.0405137087708 -1.37902409105
16.0636496908 0.957351085036 -1.31215704919 -0.743447931344 2.57819467087 1.38934696156 -1.27986321572 0.89235864911 2.47049064726 -0.0441230408852 -1.37835114309
16.0955020346 0.955194911027 -1.31451317458 -0.743104588147 2.57888135726 1.39208609551 -1.28115878851 0.890285730249 2.47137825056 -0.0477390708046 -1.37768712685
16.1282673837 0.95304216358 -1.31686364723 -0.742757507889 2.57957551778 1.39483527712 -1.28243673397 0.88821407827 2.47227439123 -0.0513618108475 -1.37703191928
16.1623084093 0.950892871596 -1.31920842705 -0.742406690051 2.58027715346 1.39759433486 -1.28369692717 0.886143766163 2.47317906709 -0.0549912713859 -1.37638539509
16.1979892149 0.948727951139 -1.32142132097 -0.742034855961 2.58102082164 1.40035834479 -1.2849444688 0.884034925342 2.47408146532 -0.0586575399539 -1.37575835775
16.2354285197 0.946566585734 -1.32362838426 -0.741659251497 2.58177203056 1.4031316828 -1.28617360983 0.881927479966 2.47499256979 -0.0623306328927 -1.37513973039
16.2751052397 0.944408801856 -1.32582957819 -0.741279878055 2.58253077745 1.40591416678 -1.28738423214 0.879821506771 2.47591237704 -0.0660105520655 -1.37452937976
16.3171524664 0.942254625265 -1.32802486464 -0.740896737485 2.58329705859 1.40870561264 -1.28857622015 0.87771708288 2.47684088281 -0.0696972973707 -1.37392717047
16.3623236902 0.940104081003 -1.33021420618 -0.74050983209 2.58407086938 1.41150583439 -1.28974946086 0.875614285787 2.47777808202 -0.0733908667303 -1.37333296504
16.4042286446 0.937957193374 -1.33239756605 -0.740119164627 2.5848522043 1.41431464421 -1.29090384393 0.873513193323 2.47872396876 -0.0770912560909 -1.372746624
16.4436373371 0.935813985943 -1.3345749082 -0.739724738308 2.58564105694 1.41713185247 -1.29203926163 0.871413883641 2.47967853627 -0.0807984594323 -1.37216800581
16.48099783 0.9336569894 -1.33661794333 -0.739310083138 2.58647036728 1.41995043921 -1.2931588994 0.86927686954 2.480632248 -0.0845398959506 -1.37160659782
16.5164860729 0.931503752627 -1.3386548302 -0.738891654958 2.58730722364 1.42277681022 -1.29425897962 0.867141724804 2.48159480074 -0.0882881798383 -1.37105259159
16.5505296997 0.92935429635 -1.34068553459 -0.738469458984 2.58815161559 1.42561076686 -1.29533940329 0.865008530897 2.48256618594 -0.0920432963802 -1.37050583864
16.5831871143 0.927208640493 -1.34271002304 -0.738043500897 2.58900353176 1.42845210898 -1.29640007429 0.862877369487 2.48354639418 -0.0958052289216 -1.36996618868
16.6148276527 0.925066804186 -1.34472826287 -0.737613786828 2.5898629599 1.43130063496 -1.2974408994 0.860748322441 2.48453541516 -0.0995739588697 -1.36943348957
16.6473685177 0.922928805741 -1.34674022218 -0.737180323371 2.59072988682 1.43415614179 -1.2984617884 0.858621471778 2.48553323768 -0.103349465697 -1.36890758743
16.6811696112 0.920794662653 -1.34874586984 -0.736743117573 2.59160429841 1.43701842516 -1.29946265403 0.856496899641 2.48653984963 -0.107131726955 -1.36838832667
16.716541553 0.91864848244 -1.35061496371 -0.736286582766 2.59251736803 1.43987827541 -1.30044490479 0.854335616999 2.48754699422 -0.110945248928 -1.36788385267
16.7536500381 0.916506215136 -1.35247762628 -0.735826310361 2.59343791284 1.44274423317 -1.30140660735 0.852176727943 2.48856307434 -0.114765488595 -1.36738565944
16.7925799311 0.914367875103 -1.35433382879 -0.735362309432 2.59436591469 1.44561608705 -1.30234768469 0.850020317331 2.48958807575 -0.118592414955 -1.36689358572
16.83382864 0.91223347583 -1.35618354331 -0.734894589525 2.59530135451 1.44849362467 -1.30326806309 0.847866469984 2.49062198318 -0.122425995152 -1.36640746881
16.8778596145 0.910103029961 -1.35802674279 -0.734423160624 2.59624421231 1.45137663271 -1.3041676719 0.84571527072 2.49166478051 -0.126266194496 -1.36592714448
16.9189552901 0.907976549276 -1.35986340101 -0.733948033159 2.59719446724 1.454264897 -1.3050464437 0.843566804297 2.49271645069 -0.130112976477 -1.36545244712
16.9575968888 0.905854044688 -1.36169349266 -0.733469218012 2.59815209753 1.4571582026 -1.30590431436 0.841421155369 2.49377697571 -0.133966302772 -1.36498320973
16.9943529528 0.903721159725 -1.36338497608 -0.732972085105 2.59914636335 1.46004508584 -1.30674106861 0.839239948646 2.49483937426 -0.137847529463 -1.36452623826
17.0294396742 0.901592285124 -1.36506978759 -0.732471287959 2.60014795764 1.46293629994 -1.30755647345 0.837061699365 2.49591075692 -0.141735196022 -1.36407433655
17.063093686 0.899467428484 -1.36674790462 -0.731966839449 2.60115685466 1.46583162515 -1.3083504762 0.834886494124 2.49699110324 -0.14562925601 -1.36362733357
17.0973591195 0.897346596514 -1.36841930556 -0.731458752892 2.60217302778 1.46873084132 -1.30912302759 0.83271441926 2.49808039182 -0.149529661301 -1.36318505719
17.132948102 0.895229795053 -1.37008396968 -0.730947042026 2.60319644951 1.47163372794 -1.30987408163 0.830545560869 2.49917860035 -0.153436362093 -1.36274733415
17.1702811739 0.893117029052 -1.37174187722 -0.730431721021 2.60422709152 1.47454006427 -1.31060359575 0.828380004734 2.50028570558 -0.157349306924 -1.36231399023
17.2098352108 0.891008302595 -1.37339300932 -0.729912804458 2.60526492464 1.47744962932 -1.31131153067 0.826217836333 2.50140168337 -0.16126844271 -1.36188485016
17.252419933 0.888890752809 -1.37490368784 -0.729376689676 2.60633715421 1.48034867228 -1.31199621168 0.824021406861 2.50252081629 -0.165211749636 -1.36146541283
17.2982631703 0.886777253093 -1.37640750291 -0.728837020846 2.60741649187 1.48325020698 -1.31265894867 0.821828525512 2.50364893216 -0.169161079702 -1.36104977076
17.3406849806 0.884667804168 -1.37790443883 -0.728293814459 2.60850290464 1.48615401018 -1.31329971474 0.819639278805 2.5047860042 -0.173116372407 -1.36063774648
