liuchen18/hilsys_old/sim_sys/data/fwx_planned_trajectory.txt
this is the FWX joint values,the following info is time,x,y,theta,joint1,joint2,joint3,joint4,joint5,joint6,joint7
0.0 -1.53911312491 -0.105762480478 -4.76767459256 -0.32800313613 -0.222095864604 -0.0188780542075 -0.90976186292 -2.05432966764 0.836199636701 -0.493854962364
0.11281637136 -1.53540854645 -0.112745052161 -4.7728187218 -0.317714877661 -0.24989625208 0.00460553605299 -0.91800616082 -2.08900512904 0.837453407728 -0.416737665063
0.239060974667 -1.5311717333 -0.1201672684 -4.77839596165 -0.306560397965 -0.279554199464 0.0296398229336 -0.925500453278 -2.11989805482 0.838513719718 -0.346552508217
0.3331617754 -1.52642515811 -0.127853218087 -4.78436879176 -0.294614737737 -0.31044741118 0.0557622025531 -0.931663337966 -2.14642110501 0.838959113728 -0.283152064496
0.425664714336 -1.52122389294 -0.135612396486 -4.79070446225 -0.281943396758 -0.341867067815 0.0824816985219 -0.935995767603 -2.16827189111 0.838555061006 -0.22607388638
0.498839595582 -1.51564544995 -0.143256387236 -4.79737326574 -0.268605789776 -0.373121842976 0.109340092271 -0.938147783553 -2.18545681922 0.83724992248 -0.174614196999
0.564315931578 -1.50977626066 -0.150614266418 -4.8043457267 -0.254660867863 -0.403630295897 0.135961558684 -0.937945670801 -2.19824968128 0.835131571974 -0.127937627735
0.631052241874 -1.5036996671 -0.157542745271 -4.81159056634 -0.240171188572 -0.432973291891 0.162077168653 -0.935375920274 -2.20710545313 0.83236643556 -0.0851885116561
0.696755325244 -1.49748851531 -0.16392968267 -4.819074192 -0.225203937251 -0.460900882479 0.187523366481 -0.930541656848 -2.21256470878 0.829144048121 -0.0455741344142
0.766044501212 -1.49120262994 -0.169692300124 -4.82676140737 -0.209829506517 -0.487307152136 0.212223476053 -0.923612779767 -2.21517646996 0.825639705516 -0.0084093098063
0.824738522275 -1.48488965666 -0.174772582159 -4.83461662357 -0.19411907412 -0.512191973192 0.236163334505 -0.914784546878 -2.21544986918 0.821996081318 0.0268717570332
0.885923402625 -1.47858746245 -0.179132007412 -4.84260498887 -0.178142343517 -0.535623697239 0.259368727181 -0.90424977949 -2.21383152559 0.818318442304 0.0607238104786
0.952906477536 -1.47232681474 -0.182746849289 -4.85069316892 -0.161965983415 -0.557709365602 0.281887897196 -0.892183479606 -2.21070031174 0.814677260494 0.0935078617688
1.03016631585 -1.46613370301 -0.185604503326 -4.8588497492 -0.145652822859 -0.578573661816 0.303779441742 -0.878736306948 -2.20637160491 0.811113705483 0.12551030241
1.12840924917 -1.46003110696 -0.18770084772 -4.86704534349 -0.129261634274 -0.598345283006 0.325104606092 -0.864033449261 -2.20110553153 0.807645483655 0.156960267364
1.32453742293 -1.45404023514 -0.189038459569 -4.87525251606 -0.112847289138 -0.617148735461 0.345922722237 -0.848176354983 -2.19511604994 0.804271909438 0.188044005658
1.43556823055 -1.45452317365 -0.193121657068 -4.87613664066 -0.111079039943 -0.611963518024 0.339741984138 -0.841374638076 -2.19420322438 0.807065277037 0.18756535389
1.48640197377 -1.45498249539 -0.197243569557 -4.87702000537 -0.109312310514 -0.607041082924 0.333701156382 -0.834862197464 -2.19325526338 0.809884961685 0.187042734866
1.52536362582 -1.45541881977 -0.201401041749 -4.87790193084 -0.107548459583 -0.602371625089 0.327797260501 -0.828627423988 -2.19227922589 0.812719539046 0.186479101362
1.5589478616 -1.45583282009 -0.205591092148 -4.8787818102 -0.105788700862 -0.597945204497 0.322027008754 -0.82265863595 -2.19128149204 0.81555868112 0.185877341879
1.58896393706 -1.4562252091 -0.209810914614 -4.87965910547 -0.104034110311 -0.593751858837 0.316386875112 -0.816944202183 -2.19026779822 0.818393112085 0.18524025591
1.61658536104 -1.45659672712 -0.214057879737 -4.88053334466 -0.102285631936 -0.589781691843 0.310873153116 -0.811472638621 -2.18924327344 0.821214558684 0.184570533975
1.64224156486 -1.45694813166 -0.218329533282 -4.88140411824 -0.100544084788 -0.586024947037 0.305482007793 -0.806232686919 -2.18821247881 0.824015693091 0.183870743001
1.66629708599 -1.45728018839 -0.222623592375 -4.88227107515 -0.0988101709651 -0.582472068102 0.300209521635 -0.801213377027 -2.18717944916 0.826790070528 0.183143316291
1.68906554597 -1.45759366355 -0.226937939882 -4.88313391861 -0.0970844840408 -0.579113746921 0.295051734617 -0.796404075273 -2.18614773483 0.829532064529 0.182390547501
1.71082099315 -1.45788931751 -0.231270617497 -4.88399240175 -0.0953675177616 -0.575940960708 0.290004678582 -0.791794519935 -2.18512044324 0.832236801416 0.181614587917
1.73222910295 -1.45816789953 -0.235619817952 -4.88484632321 -0.0936596748329 -0.572944999639 0.285064406407 -0.787374846123 -2.1841002792 0.834900095358 0.180817446385
1.75480610917 -1.45843014354 -0.239983876627 -4.88569552291 -0.091961275445 -0.570117486131 0.280227016262 -0.783135601458 -2.1830895834 0.837518385535 0.180000991438
1.77860723547 -1.45867676479 -0.244361262875 -4.88653987786 -0.0902725655317 -0.567450387138 0.275488671536 -0.779067754203 -2.18209036876 0.840088675939 0.179166955058
1.80394142346 -1.45890845731 -0.248750571267 -4.88737929831 -0.0885937246329 -0.564936020557 0.270845616864 -0.775162695205 -2.18110435448 0.842608478424 0.178316937684
1.83116890099 -1.45912589207 -0.253150512908 -4.88821372401 -0.086924873246 -0.562567056751 0.266294190711 -0.771412234755 -2.18013299749 0.845075759535 0.177452414129
1.8610111662 -1.45932971559 -0.257559907001 -4.88904312076 -0.0852660797425 -0.560336516178 0.261830835021 -0.767808595606 -2.17917752146 0.847488890937 0.176574740044
1.89436844742 -1.45952054925 -0.261977672691 -4.88986747728 -0.0836173667026 -0.558237763826 0.257452102273 -0.764344402858 -2.17823894328 0.84984660389 0.175685158765
1.93323346978 -1.45969898876 -0.266402821291 -4.89068680227 -0.0819787167199 -0.556264501203 0.253154660344 -0.761012671531 -2.17731809711 0.852147947565 0.174784808321
1.96710611339 -1.45986560414 -0.270834448903 -4.8915011218 -0.0803500776648 -0.554410756458 0.248935295523 -0.75780679242 -2.17641565609 0.85439225118 0.173874728485
2.00381075875 -1.45999166301 -0.275221827211 -4.89226921987 -0.0788138815163 -0.552962853251 0.245124546296 -0.755094866558 -2.17569857104 0.856097530564 0.17300658451
2.03598417469 -1.46010865414 -0.279611916227 -4.89303296705 -0.0772863871562 -0.551607339572 0.241374698339 -0.752479760829 -2.17499821745 0.857752684752 0.172132374942
2.06512504055 -1.46021699181 -0.284004219648 -4.89379244413 -0.0757674329931 -0.550339974644 0.237683357224 -0.749956791152 -2.17431475325 0.859357887063 0.17125267
2.09178038799 -1.46031706941 -0.28839828584 -4.89454773721 -0.0742568468423 -0.549156754815 0.234048230078 -0.747521537819 -2.17364827011 0.860913424381 0.170367985964
2.11664995606 -1.46040926027 -0.292793703111 -4.89529893629 -0.0727544486742 -0.548053901263 0.230467123644 -0.745169831675 -2.17299880309 0.862419679537 0.169478789682
2.14008341556 -1.46049391852 -0.297190096069 -4.89604613448 -0.0712600523006 -0.547027847786 0.22693794103 -0.742897739376 -2.17236633838 0.863877117311 0.168585503123
2.16238275944 -1.46057138004 -0.301587122445 -4.89678942709 -0.0697734670825 -0.546075228846 0.22345867851 -0.7407015501 -2.17175082045 0.865286270992 0.167688507085
2.18360137107 -1.46064196333 -0.305984470107 -4.89752891099 -0.0682944992789 -0.545192868163 0.220027422069 -0.738577762334 -2.17115215824 0.866647731131 0.166788144909
2.20399220905 -1.46070597038 -0.310381854351 -4.898264684 -0.0668229532494 -0.544377767772 0.21664234391 -0.736523071406 -2.17057023056 0.867962135501 0.165884725836
2.22520991976 -1.46076368749 -0.314779015414 -4.89899684439 -0.0653586324808 -0.543627097651 0.213301698929 -0.734534357533 -2.17000489086 0.869230160376 0.164978528173
2.24750761366 -1.4608153862 -0.319175716291 -4.89972549037 -0.0639013405244 -0.542938185675 0.210003821282 -0.732608674954 -2.16945597148 0.87045251247 0.164069801889
2.27093910725 -1.46086132394 -0.323571740616 -4.90045071977 -0.0624508817111 -0.542308508384 0.206747120864 -0.730743240927 -2.16892328728 0.871629922555 0.1631587715
2.29580716503 -1.46090174494 -0.327966890877 -4.90117262971 -0.0610070618429 -0.541735681923 0.203530079989 -0.72893542617 -2.16840663886 0.872763139188 0.162245638147
2.32246269153 -1.46093688083 -0.33236098665 -4.90189131627 -0.0595696887188 -0.541217453853 0.200351250044 -0.727182745038 -2.16790581537 0.873852923905 0.161330582073
2.35157472964 -1.46096695146 -0.336753863148 -4.90260687432 -0.0581385726193 -0.540751695001 0.197209248335 -0.725482847187 -2.16742059695 0.874900046381 0.160413764248
2.38440542956 -1.4609921655 -0.341145369796 -4.90331939729 -0.0567135266719 -0.540336392083 0.194102754965 -0.72383350912 -2.16695075682 0.875905280723 0.159495328284
2.42234615921 -1.46101272103 -0.345535368907 -4.90402897704 -0.0552943671864 -0.539969640906 0.191030509838 -0.722232626093 -2.16649606319 0.876869402303 0.15857540234
2.46936203096 -1.46102880626 -0.349923734612 -4.90473570368 -0.0538809139031 -0.539649639518 0.187991309818 -0.720678205302 -2.16605628079 0.877793184599 0.157654100252
2.54642738649 -1.46100253261 -0.354486484313 -4.90540001708 -0.0525522870994 -0.539746337616 0.185383573171 -0.719631347392 -2.16593260802 0.877728720122 0.156808658428
2.59548121714 -1.46097366183 -0.359046485467 -4.90606293058 -0.051226460095 -0.539872607645 0.182794342445 -0.718612130024 -2.16581772372 0.87764056741 0.155961632579
2.63480994537 -1.46094229087 -0.363603718626 -4.90672450694 -0.0499033073721 -0.540027530158 0.180222995447 -0.717619497939 -2.16571147821 0.8775292231 0.155113030113
2.66852167013 -1.46090851201 -0.368158166643 -4.90738480678 -0.0485827076957 -0.540210235009 0.177668938776 -0.716652451365 -2.16561372508 0.877395171302 0.154262855442
2.6987197101 -1.4608724129 -0.372709814219 -4.90804388848 -0.0472645442939 -0.540419899089 0.175131606671 -0.715710041635 -2.16552432196 0.877238883173 0.153411111369
2.72631390944 -1.46083407712 -0.377258647786 -4.90870180839 -0.0459487044868 -0.540655742515 0.172610459266 -0.714791368816 -2.16544313002 0.877060817158 0.152557798415
2.75203552648 -1.46079358427 -0.38180465526 -4.90935862078 -0.0446350796989 -0.54091702637 0.170104981412 -0.713895578224 -2.16537001435 0.876861418831 0.151702915626
2.77625133365 -1.46075101023 -0.38634782588 -4.91001437798 -0.0433235653 -0.541203050037 0.16761468136 -0.713021857752 -2.16530484392 0.876641121004 0.150846460679
2.80168644409 -1.46070642749 -0.390888150063 -4.9106691304 -0.0420140604657 -0.541513148783 0.165139089537 -0.7121694353 -2.16524749152 0.876400343863 0.14998843005
2.8289391766 -1.46065990523 -0.395425619259 -4.91132292659 -0.0407064680793 -0.541846691623 0.16267775744 -0.711337576287 -2.16519783381 0.87613949509 0.149128819281
2.85872628564 -1.46061150959 -0.399960225826 -4.91197581332 -0.0394006946108 -0.542203079265 0.160230256572 -0.710525581394 -2.16515575129 0.875858970039 0.148267623151
2.89193779126 -1.46056130384 -0.404491962924 -4.91262783562 -0.0380966500136 -0.542581742224 0.15779617745 -0.709732784433 -2.16512112829 0.875559151923 0.147404835864
2.93047085105 -1.46050934856 -0.409020824427 -4.91327903685 -0.0367942475514 -0.542982138884 0.155375128575 -0.708958550511 -2.16509385276 0.875240412156 0.146540451008
2.97839893692 -1.46045570179 -0.41354680482 -4.91392945874 -0.0354934037713 -0.543403754061 0.15296673565 -0.708202274009 -2.16507381641 0.874903110437 0.145674461934
3.05250377893 -1.46040041913 -0.418069899132 -4.91457914145 -0.0341940383674 -0.543846097365 0.150570640697 -0.70746337694 -2.16506091457 0.87454759506 0.14480686177
3.10509374439 -1.46030055097 -0.422189712897 -4.91506001187 -0.0332322975206 -0.5447375528 0.149191736602 -0.707512344782 -2.16554582253 0.872617058497 0.14421223145
3.14493268351 -1.46020141645 -0.426310809545 -4.91554353533 -0.0322652506027 -0.545627818393 0.147801234323 -0.707552132791 -2.16602499517 0.870705372546 0.143612173564
3.17868948925 -1.46010260183 -0.430432403188 -4.91602905996 -0.0312942013296 -0.546518761386 0.146403071945 -0.707586636643 -2.16650076976 0.868805301115 0.143007657085
3.20850644978 -1.46000409324 -0.434554439551 -4.91651655667 -0.0303192079215 -0.547410589849 0.144997445562 -0.707616100382 -2.1669732592 0.866916535434 0.142398726099
3.23557151504 -1.45990587549 -0.438676852684 -4.9170059896 -0.0293403420511 -0.548303525591 0.143584590178 -0.707640790046 -2.16744259798 0.865038700325 0.141785436709
3.26051391561 -1.45980793435 -0.442799578727 -4.91749732417 -0.0283576729278 -0.549197780423 0.142164732362 -0.707660959317 -2.16790891625 0.863171433288 0.141167842839
3.28527714537 -1.45971025653 -0.446922555695 -4.91799052686 -0.0273712675436 -0.550093556847 0.140738091012 -0.707676850449 -2.16837234019 0.861314383323 0.140545996443
3.3118279076 -1.45961282934 -0.451045723465 -4.91848556513 -0.0263811910034 -0.550991049317 0.139304878819 -0.707688694607 -2.16883299294 0.859467208511 0.139919948682
3.34086701853 -1.45951564104 -0.455169023629 -4.91898240747 -0.0253875063175 -0.551890443612 0.137865301104 -0.707696712664 -2.16929099376 0.857629578125 0.139289748619
3.37358961579 -1.45941868043 -0.459292399496 -4.91948102323 -0.024390274795 -0.552791918266 0.136419557531 -0.707701115405 -2.16974645912 0.855801169763 0.138655444666
3.4115797248 -1.45932193717 -0.463415795958 -4.91998138272 -0.0233895558127 -0.553695643894 0.134967840937 -0.707702104297 -2.17019950184 0.853981671468 0.138017083274
3.45985481149 -1.45922540149 -0.467539159474 -4.92048345707 -0.0223854071207 -0.554601784287 0.133510338613 -0.707699871714 -2.17065023192 0.852170779598 0.137374709988
3.54258488674 -1.4591290643 -0.471662437995 -4.92098721822 -0.0213778848154 -0.555510496408 0.132047232085 -0.707694601454 -2.17109875633 0.850368199289 0.136728369062
3.59481001756 -1.45898329486 -0.475073712346 -4.92122994289 -0.0208924354835 -0.556891662823 0.13207068271 -0.708692086412 -2.172213197 0.846393898409 0.136498504103
3.6330441181 -1.45883858613 -0.478496853764 -4.92147837311 -0.0203955750383 -0.558262786918 0.132068988239 -0.709667708939 -2.17331554163 0.842459225055 0.13625765373
3.66500548272 -1.45869493237 -0.481931551191 -4.92173241254 -0.019887496185 -0.559624145192 0.13204255968 -0.710622004463 -2.17440601012 0.838563366724 0.136006034682
3.69318075015 -1.45855232747 -0.485377502069 -4.92199196669 -0.0193683878739 -0.560976011608 0.131991803549 -0.711555497135 -2.17548481931 0.834705527139 0.135743858335
3.71876856986 -1.45841076495 -0.488834411876 -4.92225694261 -0.0188384360359 -0.562318657326 0.131917120845 -0.712468699674 -2.17655218349 0.830884926942 0.135471330243
3.74247144181 -1.45827023803 -0.492301993911 -4.922527249 -0.0182978232525 -0.563652350533 0.131818907426 -0.713362113598 -2.17760831397 0.827100803069 0.135188650573
3.76821518543 -1.45813073966 -0.495779969082 -4.92280279626 -0.0177467287317 -0.564977356303 0.131697554049 -0.714236229398 -2.17865341906 0.823352408358 0.134896014289
3.7970202497 -1.45799226255 -0.499268065681 -4.92308349637 -0.0171853285239 -0.566293936501 0.131553446058 -0.715091526593 -2.17968770415 0.819639011466 0.134593611149
3.83014319365 -1.4578547992 -0.502766019174 -4.92336926285 -0.0166137955512 -0.567602349688 0.131386963351 -0.715928473874 -2.18071137169 0.815959896589 0.134281625851
3.87088381327 -1.45771834195 -0.506273572022 -4.92366001095 -0.0160322993595 -0.568902850991 0.131198480779 -0.716747529409 -2.18172462098 0.812314362757 0.133960238398
3.92504876771 -1.45758288297 -0.509790473446 -4.92395565733 -0.0154410065947 -0.57019569209 0.130988367471 -0.717549140774 -2.18272764844 0.80870172415 0.133629623889
3.98746908924 -1.45741438921 -0.511871843525 -4.92389615063 -0.015560020005 -0.571749456306 0.132557456006 -0.719303381226 -2.18430239492 0.803252050002 0.13381640933
4.02779918012 -1.45724563258 -0.513980647686 -4.92384470693 -0.0156629074073 -0.57330081082 0.134100210363 -0.721037991148 -2.1858661317 0.797842390816 0.133985753595
4.06004124829 -1.45707667791 -0.516116500379 -4.92380129012 -0.0157497410091 -0.574849449214 0.135616576866 -0.722753037779 -2.18741876496 0.792472580372 0.134137843014
4.08783329788 -1.45690758838 -0.518279017392 -4.92376586157 -0.0158205981206 -0.576395078428 0.137106511742 -0.724448597782 -2.18896021144 0.787142437735 0.134272867626
4.1125139884 -1.45673842547 -0.520467815957 -4.92373838009 -0.0158755610849 -0.577937418435 0.138569980729 -0.726124756819 -2.19049039811 0.78185176826 0.134391020623
4.13872927342 -1.45656924901 -0.522682514979 -4.92371880209 -0.0159147170869 -0.579476202144 0.140006958906 -0.727781609132 -2.19200926191 0.776600364266 0.134492498027
4.16799339737 -1.45640011715 -0.524922735193 -4.9237070818 -0.0159381576596 -0.581011175189 0.14141743051 -0.729419257037 -2.19351674901 0.771388006121 0.134577498503
4.20233819174 -1.45623108634 -0.527188099432 -4.92370317122 -0.015945978818 -0.582542095868 0.142801388752 -0.731037810646 -2.19501281496 0.766214462401 0.134646222897
4.23306754826 -1.45606221134 -0.529478232765 -4.92370702036 -0.015938280546 -0.584068734882 0.144158835618 -0.732637387387 -2.19649742393 0.76107949097 0.134698874075
4.27027721176 -1.45589354525 -0.531792762704 -4.92371857724 -0.0159151667738 -0.58559087521 0.145489781669 -0.734218111662 -2.19797054859 0.755982839354 0.134735656563
4.3220974772 -1.45572513949 -0.534131319361 -4.92373778811 -0.0158767450331 -0.587108311859 0.146794245827 -0.73578011445 -2.19943216967 0.750924245545 0.134756776328
4.36713912515 -1.45554702096 -0.535068924736 -4.92348236365 -0.0163875939567 -0.588642594075 0.149334919019 -0.73785789383 -2.20113028404 0.745156359123 0.135137085447
4.40307379205 -1.45536725149 -0.536041194498 -4.9232352394 -0.0168818424495 -0.590186378118 0.151858739683 -0.739927726563 -2.20282264851 0.739411659014 0.135497420077
4.43388382315 -1.45518592436 -0.537047933092 -4.92299646646 -0.0173593883322 -0.59173905668 0.154365287141 -0.74198937411 -2.20450891221 0.733690641471 0.135837815249
4.46136958421 -1.45500313295 -0.538088937268 -4.92276609165 -0.0178201379652 -0.593300026125 0.15685414633 -0.74404260547 -2.20618873618 0.727993780597 0.136158317697
4.48765562987 -1.4548189706 -0.53916399635 -4.92254415746 -0.0182640063406 -0.594868687057 0.159324908047 -0.746087197265 -2.20786179351 0.722321528466 0.13645898545
4.51654878237 -1.45463353049 -0.54027289244 -4.92233070219 -0.0186909168861 -0.596444444987 0.161777169302 -0.748122933648 -2.20952776922 0.716674315591 0.136739887696
4.54901952915 -1.4544469055 -0.541415400768 -4.92212575974 -0.0191008017862 -0.598026711067 0.164210533796 -0.750149606568 -2.21118636079 0.711052550342 0.137001104302
4.57761968764 -1.45425918812 -0.542591289865 -4.92192935985 -0.0194936015615 -0.599614902661 0.166624612194 -0.75216701555 -2.21283727772 0.705456619844 0.137242725752
4.60629441297 -1.45407047031 -0.543800321922 -4.92174152794 -0.019869265387 -0.601208444057 0.169019022577 -0.754174967925 -2.21448024202 0.699886889439 0.137464852629
4.63580807744 -1.45388084339 -0.545042253019 -4.92156228523 -0.0202277508031 -0.602806767007 0.171393390725 -0.756173278705 -2.21611498796 0.694343703307 0.137667595424
4.6694730478 -1.45369039794 -0.546316833419 -4.92139164877 -0.0205690237088 -0.604409311311 0.173747350458 -0.758161770621 -2.2177412621 0.688827384561 0.137851074162
4.71038624582 -1.45349922369 -0.54762380786 -4.92122963147 -0.020893058312 -0.606015525373 0.176080543949 -0.760140274122 -2.21935882333 0.68333823543 0.13801541804
4.75069669726 -1.45330740942 -0.54896291584 -4.92107624212 -0.021199837023 -0.607624866722 0.178392622011 -0.762108627336 -2.22096744279 0.677876537541 0.138160765088
4.78816806518 -1.45310391881 -0.549472809714 -4.92076002842 -0.0218322644276 -0.609276934951 0.181478232786 -0.764397602002 -2.2227105633 0.672008646721 0.138492457306
4.8203406177 -1.45289850007 -0.550022207875 -4.92045315369 -0.0224460138731 -0.610942693385 0.184550035256 -0.766685227115 -2.22444817262 0.666157544094 0.138801454599
4.84909303734 -1.45269126943 -0.550611000581 -4.92015569803 -0.0230409251961 -0.612621363883 0.187607410577 -0.768971184811 -2.22617983025 0.660323960593 0.139087790335
4.87504247611 -1.45248234375 -0.551239066622 -4.91986773598 -0.0236168492926 -0.614312167455 0.190649742426 -0.771255160155 -2.22790510936 0.654508603714 0.139351513866
4.90333238049 -1.45227184037 -0.551906273493 -4.91958933659 -0.0241736480718 -0.616014325236 0.193676417542 -0.773536841248 -2.22962359688 0.648712157662 0.139592690301
4.93491344755 -1.45205987686 -0.552612477613 -4.91932056336 -0.02471119453 -0.617727059574 0.196686826445 -0.775815919456 -2.23133489375 0.642935283094 0.139811400224
4.96301222253 -1.45184657088 -0.553357524602 -4.91906147411 -0.0252293730393 -0.61944959525 0.199680364254 -0.778092089706 -2.23303861553 0.637178616465 0.140007739273
4.99010246402 -1.45163203996 -0.554141249482 -4.91881212105 -0.02572807915 -0.621181160426 0.202656431296 -0.78036505061 -2.23473439225 0.631442770291 0.140181817899
5.01913003166 -1.45141640135 -0.554963476974 -4.91857255073 -0.0262072197966 -0.622920987804 0.205614433875 -0.78263450474 -2.23642186889 0.625728332669 0.140333760909
5.05164022511 -1.45119977181 -0.555824021761 -4.91834280403 -0.0266667131936 -0.624668315595 0.208553784912 -0.784900158794 -2.23810070534 0.62003586737 0.140463707094
5.08953274352 -1.45098226749 -0.556722688788 -4.91812291618 -0.0271064888977 -0.626422388573 0.211473904639 -0.787161723819 -2.23977057669 0.61436591364 0.140571808766
5.12361621502 -1.4507640037 -0.557659273564 -4.91791291675 -0.027526487752 -0.628182459047 0.214374221234 -0.789418915382 -2.24143117324 0.608718986223 0.14065823131
5.15674322954 -1.4505450948 -0.558633562455 -4.91771282976 -0.0279266617425 -0.629947787738 0.217254171404 -0.791671453752 -2.24308220046 0.603095575536 0.140723152737
5.18575838953 -1.45032565403 -0.559645333022 -4.91752267364 -0.028306973977 -0.631717644724 0.220113201002 -0.793919064083 -2.24472337905 0.597496147646 0.140766763162
5.21601789308 -1.45010579334 -0.560694354347 -4.91734246133 -0.0286673986022 -0.633491310328 0.222950765612 -0.796161476567 -2.246354445 0.591921144359 0.140789264298
5.24955708164 -1.4498933511 -0.56127050544 -4.91709927318 -0.0291537749001 -0.635175309087 0.225976595085 -0.798408100766 -2.2479217164 0.586573369497 0.140879060444
5.27891332877 -1.44968007722 -0.561882342427 -4.9168651535 -0.0296220142548 -0.636866869185 0.228986919226 -0.80065464257 -2.24948123344 0.581242278683 0.140948851904
5.30541162168 -1.44946607546 -0.562529739695 -4.91664013639 -0.0300720484711 -0.638565301842 0.231981177861 -0.802900824666 -2.25103271188 0.575928388479 0.140998785444
5.32980820276 -1.44925144898 -0.563212563012 -4.91642425108 -0.0305038191064 -0.64026992354 0.2349588165 -0.80514637103 -2.25257588027 0.570632195913 0.141029019034
5.35226725988 -1.44903630016 -0.563930669691 -4.91621752203 -0.0309172771963 -0.64198005654 0.237919286644 -0.807391007109 -2.2541104795 0.565354178981 0.141039721506
5.37626810671 -1.44882073052 -0.564683908849 -4.91601996891 -0.0313123834411 -0.643695029898 0.24086204647 -0.809634460001 -2.25563626332 0.560094796204 0.141031072077
5.40217023235 -1.44860484055 -0.565472121595 -4.91583160669 -0.0316891078811 -0.645414179982 0.243786561214 -0.811876458687 -2.25715299783 0.554854487064 0.141003260014
5.43050621051 -1.44838872963 -0.566295141297 -4.91565244561 -0.0320474300468 -0.647136851444 0.246692303817 -0.814116734203 -2.25866046194 0.549633671644 0.140956484132
5.45622616726 -1.44817249586 -0.567152793804 -4.91548249127 -0.0323873387231 -0.6488623978 0.24957875534 -0.816355019846 -2.26015844703 0.544432750923 0.140890952406
5.47989066407 -1.44795623604 -0.568044897692 -4.91532174471 -0.0327088318289 -0.650590182087 0.252445405423 -0.818591051374 -2.26164675689 0.539252106883 0.140806881525
5.50501467104 -1.44774004545 -0.568971264523 -4.91517020245 -0.0330119163533 -0.652319577589 0.25529175278 -0.820824567178 -2.26312520776 0.534092102527 0.140704496425
5.53255056238 -1.44752401788 -0.569931699095 -4.91502785656 -0.0332966081475 -0.654049968372 0.258117305578 -0.823055308477 -2.26459362807 0.528953082142 0.140584029857
5.5634548382 -1.44730824543 -0.570925999702 -4.91489469473 -0.0335629317988 -0.655780749888 0.26092158186 -0.825283019488 -2.26605185838 0.523835371439 0.14044572192
5.59960526418 -1.4470928185 -0.571953958396 -4.91477070041 -0.0338109204411 -0.657511329495 0.263704109901 -0.827507447606 -2.26749975113 0.518739277793 0.140289819614
5.63112330111 -1.44687782564 -0.573015361255 -4.91465585282 -0.0340406156121 -0.659241127002 0.266464428595 -0.829728343554 -2.26893717059 0.51366509042 0.140116576372
5.66256530965 -1.44666335356 -0.574109988638 -4.91455012712 -0.0342520670085 -0.660969575067 0.269202087735 -0.831945461562 -2.27036399252 0.508613080723 0.139926251624
5.69927180654 -1.446449487 -0.575237615465 -4.91445349446 -0.0344453323293 -0.662696119684 0.271916648351 -0.834158559505 -2.27178010405 0.503583502501 0.139719110334
5.7469193923 -1.4462363087 -0.57639801147 -4.91436592212 -0.0346204770282 -0.664420220521 0.274607682958 -0.836367399066 -2.27318540336 0.498576592311 0.139495422569
5.78466673039 -1.44601858051 -0.577414769069 -4.91425168105 -0.0348489591486 -0.666169509675 0.277468425738 -0.838657452799 -2.27460798892 0.493494260741 0.139285360019
5.8163152647 -1.44580148919 -0.578465926161 -4.91414679372 -0.0350587338136 -0.667917193147 0.280305953551 -0.840944754113 -2.27601978696 0.488433510576 0.139058215309
5.84428454917 -1.44558512131 -0.579551260836 -4.91405122767 -0.0352498659195 -0.6696626954 0.283119796737 -0.843229034489 -2.27742068917 0.483394614392 0.138814272649
5.86974874892 -1.44536956133 -0.580670545545 -4.91396494646 -0.0354224283471 -0.671405455357 0.285909497836 -0.84551002888 -2.27881059858 0.478377827006 0.138553821277
5.89316176931 -1.44515489146 -0.581823547344 -4.91388790969 -0.0355765018862 -0.673144926862 0.288674611827 -0.847787475738 -2.28018942946 0.473383385781 0.138277154914
5.91511940543 -1.44494119168 -0.583010028151 -4.91382007318 -0.0357121749068 -0.67488057888 0.2914147063 -0.850061117245 -2.28155710691 0.46841151111 0.137984571342
5.93571015894 -1.44472853968 -0.584229745024 -4.91376138908 -0.0358295430927 -0.676611895763 0.294129361658 -0.852330699493 -2.28291356651 0.463462406788 0.137676371958
5.95521037503 -1.44451701081 -0.585482450437 -4.91371180597 -0.0359287093132 -0.678338377716 0.296818171437 -0.854595972563 -2.28425875427 0.458536260176 0.137352861298
5.97386075556 -1.44430667803 -0.586767892539 -4.91367126899 -0.0360097832862 -0.680059540892 0.299480742397 -0.856856690722 -2.28559262618 0.453633242703 0.137014346633
5.99169670852 -1.44409761196 -0.588085815419 -4.91363972 -0.0360728812529 -0.681774917464 0.302116694609 -0.859112612628 -2.28691514772 0.448753510357 0.136661137587
6.00892282001 -1.44388988078 -0.589435959371 -4.91361709771 -0.0361181258474 -0.683484056007 0.304725661706 -0.861363501361 -2.28822629385 0.443897203862 0.136293545676
6.02555846884 -1.44368355026 -0.590818061153 -4.91360333774 -0.0361456457714 -0.685186521515 0.307307290923 -0.863609124593 -2.28952604853 0.439064449178 0.135911883948
6.04162249382 -1.44347868373 -0.592231854236 -4.91359837287 -0.0361555755103 -0.686881895449 0.309861243149 -0.865849254728 -2.29081440437 0.434255357932 0.135516466609
6.05776300375 -1.44327534208 -0.593677069057 -4.91360213306 -0.0361480551316 -0.688569775912 0.312387193056 -0.868083668949 -2.2920913624 0.429470027732 0.13510760864
6.0743049366 -1.44307358377 -0.595153433263 -4.91361454566 -0.0361232299451 -0.690249777532 0.31488482904 -0.870312149394 -2.29335693163 0.424708542693 0.134685625477
6.09125687133 -1.44287346484 -0.596660671952 -4.91363553547 -0.0360812503177 -0.69192153161 0.317353853329 -0.872534483163 -2.29461112884 0.41997097373 0.134250832642
6.10862755282 -1.44267503888 -0.598198507902 -4.91366502496 -0.0360222713471 -0.693584685961 0.319793981896 -0.874750462469 -2.29585397813 0.415257379072 0.133803545455
6.12660388428 -1.4424783571 -0.599766661806 -4.91370293432 -0.0359464526099 -0.695238904869 0.322204944438 -0.876959884706 -2.29708551062 0.410567804668 0.133344078722
6.14520551732 -1.4422834683 -0.601364852494 -4.91374918164 -0.0358539579736 -0.696883869144 0.324586484418 -0.879162552432 -2.29830576424 0.405902284487 0.132872746414
6.16445271574 -1.44209041892 -0.60299279704 -4.91380368298 -0.0357449552906 -0.698519275664 0.326938358713 -0.881358273452 -2.29951478318 0.401260841349 0.132389861431
6.18456550983 -1.44189925302 -0.604650211405 -4.91386635261 -0.0356196160422 -0.700144838 0.329260338298 -0.883546861121 -2.30071261795 0.396643486155 0.131895735335
6.2057914198 -1.44171001237 -0.606336809998 -4.91393710296 -0.0354781153284 -0.701760285294 0.331552207095 -0.8857281339 -2.30189932462 0.392050219937 0.131390678067
6.22838520893 -1.44152273646 -0.608052306303 -4.91401584492 -0.0353206314282 -0.703365362638 0.333813762517 -0.887901915764 -2.30307496477 0.387481033225 0.130874997765
6.24936026122 -1.44133746247 -0.609796412965 -4.91410248778 -0.0351473456931 -0.704959830945 0.336044815295 -0.890068036016 -2.30423960525 0.382935906565 0.130349000481
6.26900051361 -1.44115422544 -0.611568841973 -4.91419693958 -0.034958442101 -0.706543466214 0.338245189024 -0.892226329596 -2.30539331743 0.378414811259 0.129812990103
6.28832767319 -1.44097305814 -0.613369304846 -4.91429910695 -0.0347541073635 -0.708116060133 0.340414720514 -0.894376636624 -2.30653617774 0.373917709199 0.129267267968
6.30851542224 -1.44079399122 -0.615197512797 -4.91440889543 -0.034534530393 -0.709677419066 0.342553259158 -0.896518802828 -2.30766826655 0.36944455375 0.128712132865
6.32981153787 -1.44061705323 -0.617053176908 -4.9145262095 -0.0342999022657 -0.711227364252 0.34466066704 -0.898652679289 -2.30878966842 0.364995289829 0.128147880762
6.35250005452 -1.44044227066 -0.618936008284 -4.91465095267 -0.0340504159132 -0.712765731288 0.346736818593 -0.900778122561 -2.30990047157 0.360569854421 0.12757480471
6.3769121829 -1.44026966798 -0.620845718211 -4.91478302766 -0.0337862659463 -0.714292369918 0.348781600455 -0.902894994617 -2.31100076766 0.356168176891 0.12699319469
6.40375339855 -1.44009926765 -0.622782018301 -4.91492233637 -0.0335076485276 -0.715807143953 0.350794911391 -0.905003162694 -2.31209065178 0.351790179204 0.126403337429
6.42785147132 -1.43993109024 -0.624744620632 -4.9150687801 -0.0332147610524 -0.717309930619 0.352776661872 -0.90710249947 -2.31317022184 0.347435776476 0.125805516368
6.44996003829 -1.43976515442 -0.626733237887 -4.91522225961 -0.0329078020479 -0.718800620497 0.354726774012 -0.909192882883 -2.3142395786 0.343104877158 0.125200011496
6.47349885924 -1.43960147703 -0.628747583477 -4.91538267515 -0.0325869709634 -0.720279117124 0.356645181292 -0.911274196129 -2.31529882532 0.338797383402 0.124587099268
6.49908035371 -1.43944007312 -0.630787371668 -4.91554992664 -0.0322524679807 -0.721745336637 0.358531828314 -0.913346327643 -2.31634806756 0.334513191401 0.123967052534
6.52771274116 -1.43928095599 -0.632852317697 -4.91572391369 -0.0319044938883 -0.723199207575 0.360386670647 -0.91540917096 -2.31738741305 0.330252191615 0.12334014042
6.56134071357 -1.4391241373 -0.634942137883 -4.91590453571 -0.0315432498481 -0.724640670327 0.362209674455 -0.917462624798 -2.31841697132 0.32601426919 0.122706628323
6.58987596977 -1.438969627 -0.637056549728 -4.91609169197 -0.0311689373232 -0.726069677081 0.364000816431 -0.919506592821 -2.31943685373 0.321799304092 0.122066777773
6.61556706408 -1.43882413485 -0.639328102054 -4.91631290276 -0.03072651574 -0.727447748816 0.365560311208 -0.921439004646 -2.32042177719 0.317724250988 0.121411117501
6.63839814732 -1.43868095768 -0.641621465898 -4.9165399614 -0.0302723984653 -0.728813166794 0.367088606996 -0.923360952624 -2.32139755598 0.313671882934 0.120750373554
6.65932650521 -1.4385400952 -0.643936372909 -4.91677276988 -0.0298067815077 -0.730165963663 0.368585760716 -0.925272398282 -2.32236431009 0.309642031672 0.120084774418
6.67870178885 -1.43840154595 -0.64627255704 -4.91701123066 -0.0293298599334 -0.731506180595 0.370051837205 -0.927173307357 -2.32332215976 0.305634526172 0.119414544645
6.69755352209 -1.43826530731 -0.648629754448 -4.9172552467 -0.0288418278617 -0.732833866958 0.371486908925 -0.929063649552 -2.32427122549 0.301649192998 0.118739904842
6.71741490068 -1.43813137552 -0.651007703536 -4.91750472144 -0.0283428783705 -0.734149079991 0.372891055716 -0.930943398432 -2.32521162788 0.297685856509 0.118061071669
6.73854848685 -1.43799974577 -0.653406144996 -4.91775955893 -0.027833203408 -0.735451884482 0.374264364552 -0.932812531323 -2.32614348756 0.293744339042 0.117378257855
6.76148696589 -1.43787041224 -0.655824821852 -4.91801966379 -0.0273129936811 -0.73674235233 0.375606929226 -0.934671029296 -2.32706692496 0.289824461147 0.116691672241
6.78693128902 -1.4377433681 -0.658263479476 -4.91828494132 -0.0267824386202 -0.738020562422 0.376918850226 -0.936518876934 -2.32798206042 0.285926041669 0.116001519752
6.80952143226 -1.43761860562 -0.660721865635 -4.91855529749 -0.0262417262737 -0.739286600185 0.378200234415 -0.93835606233 -2.32888901391 0.28204889798 0.115308001451
6.83355536585 -1.43749611616 -0.663199730507 -4.91883063901 -0.0256910432423 -0.740540557301 0.3794511948 -0.940182576973 -2.32978790506 0.278192846121 0.114611314561
6.86042886296 -1.43737589023 -0.665696826707 -4.91911087332 -0.0251305746183 -0.741782531428 0.38067185032 -0.94199841564 -2.33067885301 0.27435770095 0.113911652488
6.89207577166 -1.43725791751 -0.668212909298 -4.91939590865 -0.024560503953 -0.743012626054 0.381862325712 -0.943803576194 -2.33156197651 0.270543276217 0.113209204805
6.91853465258 -1.43714218695 -0.670747735826 -4.91968565406 -0.0239810131312 -0.744230949863 0.383022751054 -0.945598059724 -2.33243739355 0.266749384851 0.112504157386
6.94585349017 -1.43702868667 -0.673301066305 -4.91998001942 -0.0233922824243 -0.745437617018 0.384153261926 -0.947381870065 -2.33330522176 0.262975838856 0.111796692277
6.97842983183 -1.4369174042 -0.67587266327 -4.92027891548 -0.0227944902982 -0.746632746107 0.385253998664 -0.949155014236 -2.33416557772 0.259222449753 0.111086987954
7.02195417538 -1.43680832634 -0.678462291742 -4.92058225388 -0.0221878135064 -0.747816460646 0.386325106668 -0.950917501816 -2.33501857752 0.255489028388 0.110375219139
7.0546573779 -1.43670143924 -0.681069719257 -4.92088994714 -0.0215724269809 -0.748988888453 0.387366735951 -0.952669345098 -2.33586433643 0.25177538519 0.109661556943
7.08681647933 -1.43660391726 -0.684162487337 -4.92128140834 -0.0207895045734 -0.75015473879 0.38799071248 -0.954292384631 -2.33670955569 0.248093645348 0.108887471064
7.11460812955 -1.43650871175 -0.687270358527 -4.92167662573 -0.019999069791 -0.751309008191 0.388584335696 -0.955902755875 -2.33754753995 0.244432977143 0.108112763218
7.13963764337 -1.4364157978 -0.690393101158 -4.92207550971 -0.0192013018295 -0.75245192214 0.389147869728 -0.95750056045 -2.33837842071 0.240793107982 0.107337584034
7.16263044232 -1.43632515036 -0.693530487374 -4.92247797218 -0.0183963768916 -0.753583706655 0.389681579996 -0.959085900899 -2.33920232756 0.237173767427 0.106562080443
7.18527378331 -1.43623674411 -0.696682292873 -4.92288392647 -0.0175844683211 -0.754704588447 0.390185733286 -0.960658880204 -2.34001938841 0.233574687272 0.105786395634
7.20990373511 -1.43615055366 -0.699848296887 -4.92329328734 -0.0167657465812 -0.755814794429 0.390660597379 -0.962219601934 -2.34082972932 0.229995601655 0.105010669211
7.23750394 -1.43606655341 -0.703028282103 -4.92370597098 -0.0159403792997 -0.75691455185 0.391106441103 -0.963768169911 -2.34163347477 0.226436246994 0.104235037166
7.26959634293 -1.43598471777 -0.706222034664 -4.92412189501 -0.0151085312323 -0.758004087549 0.391523533785 -0.965304688575 -2.34243074719 0.222896362172 0.103459632111
7.29753759558 -1.435905021 -0.709429344065 -4.92454097846 -0.0142703643359 -0.759083628387 0.39191214552 -0.966829262442 -2.34322166746 0.21937568838 0.10268458317
7.32440009783 -1.43582743733 -0.712650003131 -4.92496314175 -0.0134260377585 -0.760153400771 0.392272546795 -0.968341996285 -2.34400635468 0.21587396923 0.10191001614
7.35509691697 -1.43575194093 -0.715883807947 -4.92538830669 -0.0125757078761 -0.761213630707 0.392605008509 -0.969842994899 -2.34478492634 0.212390950704 0.101136053491
7.39209622319 -1.43567850598 -0.719130557837 -4.92581639648 -0.0117195282942 -0.76226454337 0.392909801625 -0.971332363261 -2.34555749809 0.208926381249 0.100362814513
7.42705067716 -1.43560710661 -0.722390055274 -4.92624733568 -0.0108576498974 -0.763306363377 0.393187197344 -0.972810206152 -2.34632418412 0.205480011667 0.0995904152628
7.47101903934 -1.43553771703 -0.725662105874 -4.92668105021 -0.00999022084564 -0.764339314194 0.393437466642 -0.974276628457 -2.34708509679 0.202051595253 0.0988189687548
7.5524903909 -1.43547031145 -0.728946518311 -4.92711746732 -0.00911738662222 -0.765363618405 0.393660880444 -0.975731734805 -2.34784034694 0.198640887692 0.0980485849105
7.60037144394 -1.43542977591 -0.732563855096 -4.92762891713 -0.00809448699419 -0.766236747802 0.393078987164 -0.976709729821 -2.34847811994 0.195847137167 0.0973130285911
7.63723896843 -1.4353906576 -0.736186408443 -4.92814149107 -0.00706933911136 -0.767105515638 0.39247912912 -0.977678936769 -2.34911214398 0.193065719187 0.0965794820792
7.66872485422 -1.435352935 -0.739814086305 -4.92865515068 -0.00604201990459 -0.767970112417 0.391861547566 -0.978639492428 -2.34974249481 0.190296427586 0.0958479888367
7.69670575698 -1.43531658719 -0.743446798595 -4.9291698583 -0.00501260465358 -0.768830724297 0.391226480126 -0.979591531918 -2.35036924659 0.187539059313 0.0951185911191
7.72181985095 -1.43528159346 -0.747084456846 -4.92968557715 -0.0039811669527 -0.769687534437 0.390574161752 -0.980535187466 -2.3509924726 0.184793414426 0.0943913298083
7.74504327567 -1.43524793353 -0.750726974291 -4.93020227122 -0.00294777880914 -0.770540722365 0.389904824275 -0.981470589108 -2.35161224488 0.182059296022 0.0936662445374
7.76783894437 -1.4352155874 -0.754374265753 -4.93071990531 -0.00191251064007 -0.771390464429 0.389218696727 -0.98239786432 -2.35222863455 0.179336510187 0.092943373658
7.79231041667 -1.43518453538 -0.758026247614 -4.93123844497 -0.000875431310846 -0.77223693378 0.388516005332 -0.983317138127 -2.35284171171 0.176624865944 0.0922227542766
7.8188429532 -1.43515475806 -0.761682837765 -4.93175785655 0.000163391845175 -0.773080300499 0.38779697359 -0.984228533051 -2.35345154555 0.173924175205 0.0915044222726
7.84848111698 -1.43512623632 -0.765343955579 -4.93227810712 0.00120389298968 -0.773920731571 0.38706182227 -0.985132169218 -2.35405820434 0.171234252724 0.0907884123351
7.88270901881 -1.43509895152 -0.769009522006 -4.93279916445 0.00224600764421 -0.774758390312 0.38631076898 -0.986028165032 -2.35466175515 0.168554915978 0.0900747580498
7.92453254565 -1.43507288511 -0.772679459269 -4.93332099706 0.00328967286651 -0.775593437727 0.385544029167 -0.986916635867 -2.35526226448 0.165885985243 0.0893634917825
7.98530145045 -1.43504801896 -0.776353691089 -4.93384357414 0.00433482702009 -0.776426031309 0.384761815236 -0.987797695381 -2.35585979772 0.163227283425 0.0886546448342
8.03534259081 -1.43505846315 -0.780378124263 -4.93445362584 0.00555493042511 -0.777060159946 0.382824876683 -0.987949930236 -2.35627178534 0.161574030477 0.0880383147122
8.07612234868 -1.4350695679 -0.784401719184 -4.9350633004 0.00677427954026 -0.777700114732 0.380885580932 -0.988101062408 -2.3566836922 0.15992105177 0.087423297813
8.11014462192 -1.43508104075 -0.788424613112 -4.93567267781 0.00799303435791 -0.778345042605 0.378944038346 -0.988252125547 -2.35709530421 0.158267793194 0.0868097796808
8.14021432074 -1.43509288072 -0.792446802165 -4.93628175477 0.00921118828076 -0.778994963054 0.377000290464 -0.988403132707 -2.35750664698 0.156614219573 0.0861977603986
8.16743122153 -1.43510508627 -0.796468281216 -4.93689052778 0.0104287342986 -0.779649898165 0.375054386952 -0.988554098717 -2.35791774839 0.154960288764 0.0855872387778
8.19332256511 -1.4351176562 -0.800489045282 -4.93749899341 0.0116456655696 -0.780309868213 0.373106375955 -0.988705038293 -2.35832863532 0.153305959762 0.0849782140575
8.22163447609 -1.43513058922 -0.804509089399 -4.93810714825 0.0128619752338 -0.780974893433 0.371156305701 -0.988855964921 -2.35873933506 0.151651191766 0.0843706850915
8.25321548314 -1.43514388416 -0.808528408675 -4.93871498887 0.0140776564901 -0.781644993277 0.369204223838 -0.989006891373 -2.35914987469 0.149995944557 0.0837646507017
8.28987339566 -1.43515753988 -0.81254699828 -4.93932251192 0.0152927025751 -0.7823201866 0.367250177607 -0.989157829609 -2.35956028121 0.148340178404 0.0831601095987
8.33575836457 -1.43517155537 -0.816564853472 -4.93992971403 0.0165071067962 -0.783000491339 0.365294213542 -0.989308791018 -2.35997058128 0.146683854233 0.0825570605444
8.40891450918 -1.4351859296 -0.820581969547 -4.94053659186 0.0177208624578 -0.783685925197 0.363336378106 -0.989459785987 -2.36038080175 0.145026933264 0.0819555020309
8.45577400796 -1.43523475709 -0.824255295248 -4.94113163995 0.0189109586444 -0.784068474554 0.360410621591 -0.988758088387 -2.36050206096 0.144854339199 0.0815811858123
8.50015668445 -1.43528320389 -0.82793134246 -4.94172714386 0.0201019664576 -0.784462616201 0.357493466942 -0.988066575668 -2.36062575332 0.14466883519 0.0812046490132
8.53553521574 -1.43533128055 -0.831610042338 -4.94232309285 0.0212938644348 -0.784868274015 0.354584833761 -0.987385090619 -2.36075189651 0.144470507073 0.0808259038156
8.5659356509 -1.43537899759 -0.835291327527 -4.94291947626 0.0224866312681 -0.785285372807 0.351684643207 -0.986713478719 -2.36088050764 0.144259439839 0.0804449626187
8.59320292948 -1.43542636543 -0.838975132026 -4.94351628353 0.0236802458045 -0.785713838729 0.348792818392 -0.986051587705 -2.36101160352 0.144035717542 0.0800618379082
8.61815110216 -1.4354733944 -0.842661391205 -4.94411350414 0.0248746870229 -0.786153598941 0.345909284069 -0.985399267785 -2.36114520047 0.143799423367 0.0796765423301
8.64387190358 -1.43552009478 -0.846350041748 -4.94471112765 0.0260699340387 -0.786604581742 0.343033966761 -0.984756371428 -2.36128131448 0.143550639594 0.079289088637
8.67230161084 -1.43556647674 -0.850041021635 -4.94530914368 0.0272659660979 -0.787066716511 0.340166794695 -0.984122753348 -2.36141996117 0.143289447608 0.07889948969
8.704356608 -1.43561255037 -0.853734270102 -4.94590754192 0.0284627625759 -0.787539933777 0.337307697869 -0.983498270358 -2.36156115583 0.143015927877 0.0785077584221
8.74232325732 -1.43565832567 -0.857429727638 -4.94650631211 0.029660302966 -0.788024165021 0.334456607866 -0.982882781469 -2.3617049134 0.142730159998 0.0781139078791
8.79194702528 -1.43570381264 -0.861127335977 -4.94710544407 0.0308585668725 -0.788519342545 0.331613457731 -0.982276147921 -2.36185124837 0.142432222731 0.077717951244
8.83232796456 -1.43576657507 -0.864021011084 -4.94760991551 0.0318675097559 -0.788736865236 0.328461280104 -0.981139966198 -2.36175332409 0.143318929482 0.0775529787909
8.86432453186 -1.43582892311 -0.866924386579 -4.94811633959 0.0328803579234 -0.788966247849 0.325316826887 -0.980016895157 -2.36165848475 0.144189324691 0.0773829528781
8.89143067502 -1.43589086011 -0.86983732233 -4.94862469088 0.0338970605048 -0.789207479062 0.322180103382 -0.978906785225 -2.36156676478 0.145043446673 0.0772078845747
8.91580513982 -1.43595238958 -0.872759680048 -4.94913494405 0.0349175668327 -0.789460546778 0.319051114381 -0.977809487534 -2.36147819801 0.145881334463 0.0770277857019
8.93816249639 -1.4360135151 -0.875691323153 -4.94964707386 0.0359418264589 -0.789725438375 0.315929864472 -0.976724853718 -2.36139281773 0.14670302777 0.0768426687934
8.95866852444 -1.43607424047 -0.878632116891 -4.95016105515 0.0369697890346 -0.790002140132 0.312816357552 -0.97565273654 -2.36131065651 0.147508566924 0.0766525470936
8.97804536525 -1.4361345695 -0.881581928138 -4.95067686287 0.0380014044799 -0.790290638055 0.309710597565 -0.97459298905 -2.36123174649 0.148297992876 0.0764574345081
8.99888254401 -1.43619450623 -0.884540625563 -4.95119447205 0.039036622832 -0.790590917111 0.306612587833 -0.973545465406 -2.36115611909 0.149071347148 0.0762573456149
9.02128893681 -1.43625405477 -0.887508079506 -4.9517138578 0.0400753943444 -0.790902961739 0.303522331529 -0.972510020363 -2.36108380521 0.149828671821 0.0760522956235
9.04586573493 -1.43631321933 -0.890484161977 -4.95223499536 0.0411176694703 -0.791226755785 0.300439831623 -0.971486509367 -2.36101483522 0.150570009498 0.0758423003546
9.07336362521 -1.43637200431 -0.893468746734 -4.95275786003 0.0421633988045 -0.791562282119 0.297365090547 -0.970474788959 -2.36094923877 0.151295403299 0.075627376253
9.10521830184 -1.43643041418 -0.896461709153 -4.95328242721 0.0432125331656 -0.791909523152 0.294298110672 -0.969474716267 -2.36088704502 0.152004896818 0.0754075403341
9.1452726991 -1.43648845351 -0.89946292626 -4.95380867241 0.0442650235697 -0.792268460686 0.291238894187 -0.968486149176 -2.36082828258 0.152698534102 0.0751828101739
9.19434444797 -1.43655550048 -0.901949498629 -4.95427395252 0.0451955837861 -0.792462216006 0.288038523577 -0.967215796192 -2.36062111315 0.154098414129 0.0750972918138
9.22864752788 -1.43662223088 -0.904450205092 -4.95474214241 0.0461319635584 -0.792667827177 0.284843409766 -0.965958559919 -2.36041734379 0.155481211952 0.0750050686085
9.25691746283 -1.43668864227 -0.906964880162 -4.95521321035 0.0470740994483 -0.792885335949 0.28165363846 -0.964714321211 -2.36021702299 0.156846911451 0.0749061442065
9.28164626898 -1.4367547325 -0.909493359817 -4.95568712451 0.0480219277582 -0.793114782116 0.278469293553 -0.963482960447 -2.36002019867 0.158195497948 0.074800523523
9.3039308718 -1.43682049964 -0.912035481325 -4.95616385296 0.0489753846553 -0.793356203914 0.275290457583 -0.962264357112 -2.35982691827 0.159526958269 0.0746882127937
9.32441461952 -1.43688594195 -0.91459108328 -4.95664336371 0.0499344061526 -0.793609637967 0.272117211713 -0.961058389936 -2.3596372287 0.160841280675 0.0745692195263
9.34361976505 -1.43695105801 -0.917160005732 -4.95712562463 0.0508989279971 -0.793875118841 0.268949635338 -0.959864937455 -2.35945117627 0.162138454761 0.0744435524137
9.36180457506 -1.43701584655 -0.919742089999 -4.95761060358 0.0518688858981 -0.794152679799 0.26578780679 -0.958683877186 -2.35926880679 0.163418471576 0.074311221423
9.37919393974 -1.43708030656 -0.922337178826 -4.95809826832 0.0528442153816 -0.794442352244 0.262631802853 -0.957515086321 -2.3590901655 0.164681323493 0.074172237687
9.39719892645 -1.4371444373 -0.924945116373 -4.95858858655 0.0538248518321 -0.794744165802 0.259481698844 -0.956358441679 -2.35891529702 0.165927004213 0.0740266135011
9.41640461291 -1.43720823813 -0.9275657481 -4.95908152594 0.0548107306123 -0.795058148831 0.25633756911 -0.955213819183 -2.35874424548 0.167155508782 0.0738743623412
9.4370942489 -1.43727170882 -0.930198921023 -4.95957705406 0.0558017868665 -0.795384327423 0.253199486108 -0.954081095023 -2.35857705428 0.168366833493 0.073715498757
9.45982866683 -1.43733484917 -0.93284448341 -4.96007513852 0.0567979557864 -0.795722726692 0.25006752163 -0.952960144275 -2.35841376637 0.169560975939 0.0735500384473
9.48531008073 -1.43739765937 -0.935502285104 -4.96057574682 0.057799172379 -0.796073369465 0.246941745579 -0.951850842385 -2.35825442394 0.170737934943 0.0733779981483
9.51472368149 -1.43746013974 -0.93817217728 -4.96107884646 0.0588053716647 -0.796436277337 0.243822226982 -0.950753064067 -2.35809906862 0.171897710564 0.0731993956772
9.54410385894 -1.43752193375 -0.940375226906 -4.96151306515 0.0596738090493 -0.79669115656 0.240885293167 -0.949616830569 -2.35788094417 0.173317951452 0.0731018535988
9.56901836362 -1.43758348421 -0.942591428881 -4.96195001473 0.0605477081934 -0.79695663436 0.237952202924 -0.948490911693 -2.35766618999 0.174723155658 0.0729978224158
9.59125862326 -1.43764478809 -0.944820651349 -4.96238966679 0.0614270123166 -0.797232755 0.23502305006 -0.947375219652 -2.35745484897 0.176113293314 0.0728873094558
9.61150885682 -1.43770584271 -0.947062763448 -4.96283199276 0.0623116642539 -0.797519560736 0.232097926595 -0.946269666394 -2.35724696351 0.177488335691 0.0727703230637
9.63031603126 -1.43776664561 -0.949317635181 -4.9632769639 0.0632016065488 -0.797817092098 0.229176923093 -0.945174163302 -2.35704257556 0.178848255255 0.0726468726659
9.64795608113 -1.43782719448 -0.951585137333 -4.96372455141 0.0640967815575 -0.798125388294 0.226260129052 -0.944088620759 -2.35684172665 0.180193025707 0.072516968822
9.66466542869 -1.43788748717 -0.953865141478 -4.96417472635 0.0649971314458 -0.798444487222 0.223347632932 -0.943012948184 -2.35664445796 0.18152262194 0.0723806231894
9.68065008595 -1.43794752183 -0.956157520181 -4.96462745966 0.0659025980691 -0.798774424749 0.220439521474 -0.941947054876 -2.35645081009 0.182837019992 0.0722378484095
9.69704315698 -1.43800729674 -0.958462146811 -4.96508272219 0.0668131231316 -0.799115235473 0.217535880441 -0.940890849188 -2.35626082322 0.184136197084 0.072088658201
9.71436306413 -1.43806681041 -0.960778895636 -4.9655404847 0.0677286481389 -0.799466952418 0.214636794331 -0.939844238906 -2.35607453705 0.185420131594 0.0719330672954
9.73284370405 -1.43812606156 -0.963107641864 -4.96600071783 0.0686491143968 -0.799829606894 0.211742346251 -0.938807131432 -2.35589199075 0.18668880305 0.071771091411
9.75295762219 -1.43818504903 -0.965448261529 -4.96646339218 0.0695744630919 -0.800203229046 0.208852618462 -0.937779433221 -2.35571322308 0.187942192105 0.0716027472851
9.7750663551 -1.43824377196 -0.967800631676 -4.96692847823 0.0705046352101 -0.800587847093 0.20596769164 -0.936761050644 -2.35553827219 0.189180280558 0.0714280525865
9.80010217914 -1.43830222965 -0.970164630247 -4.96739594644 0.0714395716159 -0.800983487873 0.203087645415 -0.935751889432 -2.35536717572 0.190403051322 0.0712470259495
9.82960155161 -1.43836042154 -0.972540136095 -4.96786576716 0.0723792130561 -0.801390176841 0.200212558386 -0.934751854708 -2.35519997086 0.191610488401 0.0710596869506
9.86746063544 -1.43841834733 -0.974927029071 -4.9683379107 0.0733235001432 -0.801807937726 0.19734250778 -0.933760851395 -2.35503669415 0.192802576923 0.0708660560672
9.90656253286 -1.43847600691 -0.977325189978 -4.96881234732 0.0742723733882 -0.802236792757 0.194477569678 -0.932778784007 -2.35487738159 0.193979303107 0.070666154679
10.0 -1.43853340029 -0.979734500549 -4.96928904724 0.0752257732186 -0.802676762842 0.191617819214 -0.931805556491 -2.3547220687 0.195140654224 0.0704600050569
